( Code generated by textogcode )
( by cadenote@hotmail.com <2019> )
( Fontfile: /usr/share/qcad/fonts/normallatin1.cxf )
G17 G21 G40 G90 F400
( Line 0 )
( Engraving: "   Si...")
G0 Z2.0000
(cogido= S)
(y sanitizado es'S y en hex_font= #0053')
G0 Z2.0000
G0 X-2.0873 Y11.2366
G1 Z0.1000
G1 X-1.5127 Y12.3633
G0 Z2.0000
G0 X-3.3127 Y12.8000
G1 Z0.1000
G1 X-3.5272 Y12.2170
G1 X-3.6000 Y11.6000
G1 X-3.5559 Y11.3380
G1 X-3.4283 Y11.1048
G1 X-3.2314 Y10.9263
G1 X-2.9869 Y10.8222
G1 X-2.7217 Y10.8039
G1 X-2.4653 Y10.8734
G1 X-2.2457 Y11.0232
G1 X-2.0873 Y11.2366
G0 Z2.0000
G0 X0.0000 Y12.0000
G1 Z0.1000
G1 X-0.0441 Y12.2621
G1 X-0.1717 Y12.4953
G1 X-0.3686 Y12.6738
G1 X-0.6131 Y12.7779
G1 X-0.8783 Y12.7962
G1 X-1.1347 Y12.7266
G1 X-1.3543 Y12.5769
G1 X-1.5127 Y12.3635
G0 Z2.0000
G0 X-0.2873 Y10.8000
G1 Z0.1000
G1 X-0.0728 Y11.3831
G1 X0.0000 Y12.0000

(cogido= i)
(y sanitizado es'i y en hex_font= #0069')
G0 Z2.0000
G0 X0.0000 Y13.7000
G1 Z0.1000
G1 X-2.4000 Y13.7000
G0 Z2.0000
G0 X-3.4000 Y13.7000
G1 Z0.1000
G1 X-3.6000 Y13.7000

(cogido= .)
(y sanitizado es'. y en hex_font= #002E')
G0 Z2.0000
G0 X0.0000 Y14.6000
G1 Z0.1000
G1 X-0.2000 Y14.6000

(cogido= .)
(y sanitizado es'. y en hex_font= #002E')
G0 Z2.0000
G0 X0.0000 Y15.5000
G1 Z0.1000
G1 X-0.2000 Y15.5000

(cogido= .)
(y sanitizado es'. y en hex_font= #002E')
G0 Z2.0000
G0 X0.0000 Y16.4000
G1 Z0.1000
G1 X-0.2000 Y16.4000

G0 Z2.0000
(===================================================================)
( Line 1 )
( Grabando: Si puedes mantener la cabeza en su sitio cuando todos a tu alrededor" )
(===================================================================)
(cogido= S)
(y sanitizado es'S y en hex_font= #0053')
G0 Z2.0000
G0 X2.3127 Y0.4366
G1 Z0.1000
G1 X2.8873 Y1.5633
G0 Z2.0000
G0 X1.0873 Y2.0000
G1 Z0.1000
G1 X0.8728 Y1.4170
G1 X0.8000 Y0.8000
G1 X0.8441 Y0.5380
G1 X0.9717 Y0.3048
G1 X1.1686 Y0.1263
G1 X1.4131 Y0.0222
G1 X1.6783 Y0.0039
G1 X1.9347 Y0.0734
G1 X2.1543 Y0.2232
G1 X2.3127 Y0.4366
G0 Z2.0000
G0 X4.4000 Y1.2000
G1 Z0.1000
G1 X4.3559 Y1.4621
G1 X4.2283 Y1.6953
G1 X4.0314 Y1.8738
G1 X3.7869 Y1.9779
G1 X3.5217 Y1.9962
G1 X3.2653 Y1.9266
G1 X3.0457 Y1.7769
G1 X2.8873 Y1.5635
G0 Z2.0000
G0 X4.1127 Y0.0000
G1 Z0.1000
G1 X4.3272 Y0.5831
G1 X4.4000 Y1.2000

(cogido= i)
(y sanitizado es'i y en hex_font= #0069')
G0 Z2.0000
G0 X4.4000 Y2.9000
G1 Z0.1000
G1 X2.0000 Y2.9000
G0 Z2.0000
G0 X1.0000 Y2.9000
G1 Z0.1000
G1 X0.8000 Y2.9000

(cogido= p)
(y sanitizado es'p y en hex_font= #0070')
G0 Z2.0000
G0 X4.4000 Y7.4000
G1 Z0.1000
G1 X4.4000 Y8.3999
G0 Z2.0000
G0 X3.8000 Y8.9999
G1 Z0.1000
G1 X2.6000 Y8.9999
G0 Z2.0000
G0 X2.0000 Y8.3999
G1 Z0.1000
G1 X2.0000 Y7.4000
G1 X5.6000 Y7.4000
G0 Z2.0000
G0 X4.4000 Y8.3999
G1 Z0.1000
G1 X4.3706 Y8.5853
G1 X4.2854 Y8.7526
G1 X4.1527 Y8.8853
G1 X3.9854 Y8.9706
G1 X3.8000 Y8.9999
G0 Z2.0000
G0 X2.6000 Y8.9999
G1 Z0.1000
G1 X2.4146 Y8.9706
G1 X2.2473 Y8.8853
G1 X2.1146 Y8.7526
G1 X2.0294 Y8.5853
G1 X2.0000 Y8.3999

(cogido= u)
(y sanitizado es'u y en hex_font= #0075')
G0 Z2.0000
G0 X2.0000 Y9.8999
G1 Z0.1000
G1 X3.8000 Y9.8999
G0 Z2.0000
G0 X4.4000 Y10.4999
G1 Z0.1000
G1 X4.4000 Y11.4999
G1 X2.0000 Y11.4999
G0 Z2.0000
G0 X3.8000 Y9.8999
G1 Z0.1000
G1 X3.9854 Y9.9293
G1 X4.1527 Y10.0145
G1 X4.2854 Y10.1472
G1 X4.3706 Y10.3145
G1 X4.4000 Y10.4999

(cogido= e)
(y sanitizado es'e y en hex_font= #0065')
G0 Z2.0000
G0 X3.2000 Y12.4000
G1 Z0.1000
G1 X3.2000 Y13.9999
G1 X2.8000 Y13.9999
G0 Z2.0000
G0 X2.8000 Y12.4000
G1 Z0.1000
G1 X3.8000 Y12.4000
G0 Z2.0000
G0 X4.4000 Y12.9999
G1 Z0.1000
G1 X4.4000 Y13.9999
G0 Z2.0000
G0 X2.8000 Y13.9999
G1 Z0.1000
G1 X2.5528 Y13.9608
G1 X2.3298 Y13.8471
G1 X2.1528 Y13.6701
G1 X2.0392 Y13.4471
G1 X2.0000 Y13.1999
G1 X2.0392 Y12.9527
G1 X2.1528 Y12.7297
G1 X2.3298 Y12.5527
G1 X2.5528 Y12.4391
G1 X2.8000 Y12.3999
G0 Z2.0000
G0 X3.8000 Y12.3999
G1 Z0.1000
G1 X3.9854 Y12.4293
G1 X4.1527 Y12.5145
G1 X4.2854 Y12.6472
G1 X4.3706 Y12.8145
G1 X4.4000 Y12.9999

(cogido= d)
(y sanitizado es'd y en hex_font= #0064')
G0 Z2.0000
G0 X0.8000 Y16.4999
G1 Z0.1000
G1 X4.4000 Y16.4999
G1 X4.4000 Y15.4999
G0 Z2.0000
G0 X3.8000 Y14.8999
G1 Z0.1000
G1 X2.6000 Y14.8999
G0 Z2.0000
G0 X2.0000 Y15.4999
G1 Z0.1000
G1 X2.0000 Y16.4999
G0 Z2.0000
G0 X3.8000 Y14.8999
G1 Z0.1000
G1 X3.9854 Y14.9293
G1 X4.1527 Y15.0145
G1 X4.2854 Y15.1472
G1 X4.3706 Y15.3145
G1 X4.4000 Y15.4999
G0 Z2.0000
G0 X2.0000 Y15.4999
G1 Z0.1000
G1 X2.0294 Y15.3145
G1 X2.1146 Y15.1472
G1 X2.2473 Y15.0145
G1 X2.4146 Y14.9293
G1 X2.6000 Y14.8999

(cogido= e)
(y sanitizado es'e y en hex_font= #0065')
G0 Z2.0000
G0 X3.2000 Y17.4000
G1 Z0.1000
G1 X3.2000 Y18.9999
G1 X2.8000 Y18.9999
G0 Z2.0000
G0 X2.8000 Y17.4000
G1 Z0.1000
G1 X3.8000 Y17.4000
G0 Z2.0000
G0 X4.4000 Y17.9999
G1 Z0.1000
G1 X4.4000 Y18.9999
G0 Z2.0000
G0 X2.8000 Y18.9999
G1 Z0.1000
G1 X2.5528 Y18.9608
G1 X2.3298 Y18.8471
G1 X2.1528 Y18.6701
G1 X2.0392 Y18.4471
G1 X2.0000 Y18.1999
G1 X2.0392 Y17.9527
G1 X2.1528 Y17.7297
G1 X2.3298 Y17.5527
G1 X2.5528 Y17.4391
G1 X2.8000 Y17.3999
G0 Z2.0000
G0 X3.8000 Y17.3999
G1 Z0.1000
G1 X3.9854 Y17.4293
G1 X4.1527 Y17.5145
G1 X4.2854 Y17.6472
G1 X4.3706 Y17.8145
G1 X4.4000 Y17.9999

(cogido= s)
(y sanitizado es's y en hex_font= #0073')
G0 Z2.0000
G0 X3.0308 Y20.2257
G1 Z0.1000
G1 X3.4180 Y21.1741
G0 Z2.0000
G0 X2.2244 Y21.4999
G1 Z0.1000
G1 X2.0833 Y21.0987
G1 X2.0513 Y20.6746
G1 X2.1306 Y20.2567
G1 X2.2092 Y20.1103
G1 X2.3330 Y19.9995
G1 X2.4871 Y19.9375
G1 X2.6532 Y19.9318
G1 X2.8112 Y19.9831
G1 X2.9423 Y20.0851
G1 X3.0308 Y20.2257
G0 Z2.0000
G0 X4.3181 Y21.1432
G1 Z0.1000
G1 X4.2395 Y21.2896
G1 X4.1157 Y21.4004
G1 X3.9616 Y21.4623
G1 X3.7956 Y21.4680
G1 X3.6375 Y21.4168
G1 X3.5064 Y21.3148
G1 X3.4180 Y21.1742
G0 Z2.0000
G0 X4.2244 Y19.8999
G1 Z0.1000
G1 X4.3655 Y20.3011
G1 X4.3974 Y20.7253
G1 X4.3181 Y21.1431

(cogido= m)
(y sanitizado es'm y en hex_font= #006D')
G0 Z2.0000
G0 X4.4000 Y25.9999
G1 Z0.1000
G1 X2.0000 Y25.9999
G1 X2.0000 Y27.7999
G0 Z2.0000
G0 X2.6000 Y28.3999
G1 Z0.1000
G1 X4.4000 Y28.3999
G0 Z2.0000
G0 X2.0000 Y27.1999
G1 Z0.1000
G1 X4.4000 Y27.1999
G0 Z2.0000
G0 X2.6000 Y28.3999
G1 Z0.1000
G1 X2.4146 Y28.3706
G1 X2.2473 Y28.2853
G1 X2.1146 Y28.1526
G1 X2.0294 Y27.9853
G1 X2.0000 Y27.7999

(cogido= a)
(y sanitizado es'a y en hex_font= #0061')
G0 Z2.0000
G0 X2.0000 Y29.4999
G1 Z0.1000
G1 X2.0000 Y30.2999
G0 Z2.0000
G0 X2.6000 Y30.8999
G1 Z0.1000
G1 X4.4000 Y30.8999
G1 X4.4000 Y29.8999
G0 Z2.0000
G0 X3.2000 Y29.8999
G1 Z0.1000
G1 X3.2000 Y30.8999
G0 Z2.0000
G0 X2.6000 Y30.8999
G1 Z0.1000
G1 X2.4146 Y30.8705
G1 X2.2473 Y30.7853
G1 X2.1146 Y30.6526
G1 X2.0294 Y30.4853
G1 X2.0000 Y30.2999
G0 Z2.0000
G0 X3.2000 Y29.8999
G1 Z0.1000
G1 X3.2294 Y29.7145
G1 X3.3146 Y29.5472
G1 X3.4473 Y29.4145
G1 X3.6146 Y29.3293
G1 X3.8000 Y29.2999
G1 X3.9854 Y29.3293
G1 X4.1527 Y29.4145
G1 X4.2854 Y29.5472
G1 X4.3706 Y29.7145
G1 X4.4000 Y29.8999

(cogido= n)
(y sanitizado es'n y en hex_font= #006E')
G0 Z2.0000
G0 X4.4000 Y31.7999
G1 Z0.1000
G1 X2.0000 Y31.7999
G1 X2.0000 Y32.7999
G0 Z2.0000
G0 X2.6000 Y33.3999
G1 Z0.1000
G1 X4.4000 Y33.3999
G0 Z2.0000
G0 X2.6000 Y33.3999
G1 Z0.1000
G1 X2.4146 Y33.3705
G1 X2.2473 Y33.2853
G1 X2.1146 Y33.1526
G1 X2.0294 Y32.9853
G1 X2.0000 Y32.7999

(cogido= t)
(y sanitizado es't y en hex_font= #0074')
G0 Z2.0000
G0 X2.0000 Y34.2999
G1 Z0.1000
G1 X2.0000 Y35.4999
G0 Z2.0000
G0 X0.8000 Y34.6999
G1 Z0.1000
G1 X4.4000 Y34.6999

(cogido= e)
(y sanitizado es'e y en hex_font= #0065')
G0 Z2.0000
G0 X3.2000 Y36.3999
G1 Z0.1000
G1 X3.2000 Y37.9999
G1 X2.8000 Y37.9999
G0 Z2.0000
G0 X2.8000 Y36.3999
G1 Z0.1000
G1 X3.8000 Y36.3999
G0 Z2.0000
G0 X4.4000 Y36.9999
G1 Z0.1000
G1 X4.4000 Y37.9999
G0 Z2.0000
G0 X2.8000 Y37.9999
G1 Z0.1000
G1 X2.5528 Y37.9607
G1 X2.3298 Y37.8471
G1 X2.1528 Y37.6701
G1 X2.0392 Y37.4471
G1 X2.0000 Y37.1999
G1 X2.0392 Y36.9526
G1 X2.1528 Y36.7296
G1 X2.3298 Y36.5526
G1 X2.5528 Y36.4390
G1 X2.8000 Y36.3999
G0 Z2.0000
G0 X3.8000 Y36.3999
G1 Z0.1000
G1 X3.9854 Y36.4292
G1 X4.1527 Y36.5144
G1 X4.2854 Y36.6472
G1 X4.3706 Y36.8144
G1 X4.4000 Y36.9999

(cogido= n)
(y sanitizado es'n y en hex_font= #006E')
G0 Z2.0000
G0 X4.4000 Y38.8999
G1 Z0.1000
G1 X2.0000 Y38.8999
G1 X2.0000 Y39.8999
G0 Z2.0000
G0 X2.6000 Y40.4999
G1 Z0.1000
G1 X4.4000 Y40.4999
G0 Z2.0000
G0 X2.6000 Y40.4999
G1 Z0.1000
G1 X2.4146 Y40.4705
G1 X2.2473 Y40.3853
G1 X2.1146 Y40.2525
G1 X2.0294 Y40.0853
G1 X2.0000 Y39.8999

(cogido= e)
(y sanitizado es'e y en hex_font= #0065')
G0 Z2.0000
G0 X3.2000 Y41.3999
G1 Z0.1000
G1 X3.2000 Y42.9999
G1 X2.8000 Y42.9999
G0 Z2.0000
G0 X2.8000 Y41.3999
G1 Z0.1000
G1 X3.8000 Y41.3999
G0 Z2.0000
G0 X4.4000 Y41.9999
G1 Z0.1000
G1 X4.4000 Y42.9999
G0 Z2.0000
G0 X2.8000 Y42.9999
G1 Z0.1000
G1 X2.5528 Y42.9607
G1 X2.3298 Y42.8471
G1 X2.1528 Y42.6701
G1 X2.0392 Y42.4471
G1 X2.0000 Y42.1999
G1 X2.0392 Y41.9526
G1 X2.1528 Y41.7296
G1 X2.3298 Y41.5526
G1 X2.5528 Y41.4390
G1 X2.8000 Y41.3999
G0 Z2.0000
G0 X3.8000 Y41.3999
G1 Z0.1000
G1 X3.9854 Y41.4292
G1 X4.1527 Y41.5144
G1 X4.2854 Y41.6472
G1 X4.3706 Y41.8144
G1 X4.4000 Y41.9999

(cogido= r)
(y sanitizado es'r y en hex_font= #0072')
G0 Z2.0000
G0 X4.4000 Y43.8998
G1 Z0.1000
G1 X2.0000 Y43.8998
G1 X2.0000 Y44.6998
G0 Z2.0000
G0 X2.4000 Y45.0998
G1 Z0.1000
G1 X2.2764 Y45.0802
G1 X2.1649 Y45.0234
G1 X2.0764 Y44.9349
G1 X2.0196 Y44.8234
G1 X2.0000 Y44.6998

(cogido= l)
(y sanitizado es'l y en hex_font= #006C')
G0 Z2.0000
G0 X0.8000 Y49.5998
G1 Z0.1000
G1 X4.0000 Y49.5998
G1 X4.1236 Y49.6194
G1 X4.2351 Y49.6762
G1 X4.3236 Y49.7647
G1 X4.3804 Y49.8762
G1 X4.4000 Y49.9998

(cogido= a)
(y sanitizado es'a y en hex_font= #0061')
G0 Z2.0000
G0 X2.0000 Y51.0998
G1 Z0.1000
G1 X2.0000 Y51.8998
G0 Z2.0000
G0 X2.6000 Y52.4998
G1 Z0.1000
G1 X4.4000 Y52.4998
G1 X4.4000 Y51.4998
G0 Z2.0000
G0 X3.2000 Y51.4998
G1 Z0.1000
G1 X3.2000 Y52.4998
G0 Z2.0000
G0 X2.6000 Y52.4998
G1 Z0.1000
G1 X2.4146 Y52.4704
G1 X2.2473 Y52.3852
G1 X2.1146 Y52.2524
G1 X2.0294 Y52.0852
G1 X2.0000 Y51.8998
G0 Z2.0000
G0 X3.2000 Y51.4998
G1 Z0.1000
G1 X3.2294 Y51.3144
G1 X3.3146 Y51.1471
G1 X3.4473 Y51.0144
G1 X3.6146 Y50.9291
G1 X3.8000 Y50.8998
G1 X3.9854 Y50.9291
G1 X4.1527 Y51.0144
G1 X4.2854 Y51.1471
G1 X4.3706 Y51.3144
G1 X4.4000 Y51.4998

(cogido= c)
(y sanitizado es'c y en hex_font= #0063')
G0 Z2.0000
G0 X2.0000 Y58.1998
G1 Z0.1000
G1 X2.0000 Y57.5998
G0 Z2.0000
G0 X2.6000 Y56.9998
G1 Z0.1000
G1 X3.8000 Y56.9998
G0 Z2.0000
G0 X4.4000 Y57.5998
G1 Z0.1000
G1 X4.4000 Y58.1998
G0 Z2.0000
G0 X2.0000 Y57.5998
G1 Z0.1000
G1 X2.0294 Y57.4144
G1 X2.1146 Y57.2471
G1 X2.2473 Y57.1144
G1 X2.4146 Y57.0291
G1 X2.6000 Y56.9998
G0 Z2.0000
G0 X3.8000 Y56.9998
G1 Z0.1000
G1 X3.9854 Y57.0291
G1 X4.1527 Y57.1144
G1 X4.2854 Y57.2471
G1 X4.3706 Y57.4144
G1 X4.4000 Y57.5998

(cogido= a)
(y sanitizado es'a y en hex_font= #0061')
G0 Z2.0000
G0 X2.0000 Y59.2998
G1 Z0.1000
G1 X2.0000 Y60.0997
G0 Z2.0000
G0 X2.6000 Y60.6997
G1 Z0.1000
G1 X4.4000 Y60.6997
G1 X4.4000 Y59.6997
G0 Z2.0000
G0 X3.2000 Y59.6997
G1 Z0.1000
G1 X3.2000 Y60.6997
G0 Z2.0000
G0 X2.6000 Y60.6997
G1 Z0.1000
G1 X2.4146 Y60.6704
G1 X2.2473 Y60.5851
G1 X2.1146 Y60.4524
G1 X2.0294 Y60.2851
G1 X2.0000 Y60.0997
G0 Z2.0000
G0 X3.2000 Y59.6997
G1 Z0.1000
G1 X3.2294 Y59.5143
G1 X3.3146 Y59.3471
G1 X3.4473 Y59.2143
G1 X3.6146 Y59.1291
G1 X3.8000 Y59.0997
G1 X3.9854 Y59.1291
G1 X4.1527 Y59.2143
G1 X4.2854 Y59.3471
G1 X4.3706 Y59.5143
G1 X4.4000 Y59.6997

(cogido= b)
(y sanitizado es'b y en hex_font= #0062')
G0 Z2.0000
G0 X0.8000 Y61.5997
G1 Z0.1000
G1 X4.4000 Y61.5997
G1 X4.4000 Y62.5997
G0 Z2.0000
G0 X3.8000 Y63.1997
G1 Z0.1000
G1 X2.6000 Y63.1997
G0 Z2.0000
G0 X2.0000 Y62.5997
G1 Z0.1000
G1 X2.0000 Y61.5997
G0 Z2.0000
G0 X4.4000 Y62.5997
G1 Z0.1000
G1 X4.3706 Y62.7851
G1 X4.2854 Y62.9524
G1 X4.1527 Y63.0851
G1 X3.9854 Y63.1704
G1 X3.8000 Y63.1997
G0 Z2.0000
G0 X2.6000 Y63.1997
G1 Z0.1000
G1 X2.4146 Y63.1704
G1 X2.2473 Y63.0851
G1 X2.1146 Y62.9524
G1 X2.0294 Y62.7851
G1 X2.0000 Y62.5997

(cogido= e)
(y sanitizado es'e y en hex_font= #0065')
G0 Z2.0000
G0 X3.2000 Y64.0998
G1 Z0.1000
G1 X3.2000 Y65.6997
G1 X2.8000 Y65.6997
G0 Z2.0000
G0 X2.8000 Y64.0998
G1 Z0.1000
G1 X3.8000 Y64.0998
G0 Z2.0000
G0 X4.4000 Y64.6997
G1 Z0.1000
G1 X4.4000 Y65.6997
G0 Z2.0000
G0 X2.8000 Y65.6997
G1 Z0.1000
G1 X2.5528 Y65.6606
G1 X2.3298 Y65.5469
G1 X2.1528 Y65.3700
G1 X2.0392 Y65.1469
G1 X2.0000 Y64.8997
G1 X2.0392 Y64.6525
G1 X2.1528 Y64.4295
G1 X2.3298 Y64.2525
G1 X2.5528 Y64.1389
G1 X2.8000 Y64.0997
G0 Z2.0000
G0 X3.8000 Y64.0997
G1 Z0.1000
G1 X3.9854 Y64.1291
G1 X4.1527 Y64.2143
G1 X4.2854 Y64.3471
G1 X4.3706 Y64.5143
G1 X4.4000 Y64.6997

(cogido= z)
(y sanitizado es'z y en hex_font= #007A')
G0 Z2.0000
G0 X2.0000 Y66.5997
G1 Z0.1000
G1 X2.0000 Y68.1997
G1 X4.4000 Y66.5997
G1 X4.4000 Y68.1997

(cogido= a)
(y sanitizado es'a y en hex_font= #0061')
G0 Z2.0000
G0 X2.0000 Y69.2997
G1 Z0.1000
G1 X2.0000 Y70.0997
G0 Z2.0000
G0 X2.6000 Y70.6997
G1 Z0.1000
G1 X4.4000 Y70.6997
G1 X4.4000 Y69.6997
G0 Z2.0000
G0 X3.2000 Y69.6997
G1 Z0.1000
G1 X3.2000 Y70.6997
G0 Z2.0000
G0 X2.6000 Y70.6997
G1 Z0.1000
G1 X2.4146 Y70.6703
G1 X2.2473 Y70.5851
G1 X2.1146 Y70.4523
G1 X2.0294 Y70.2851
G1 X2.0000 Y70.0997
G0 Z2.0000
G0 X3.2000 Y69.6997
G1 Z0.1000
G1 X3.2294 Y69.5142
G1 X3.3146 Y69.3470
G1 X3.4473 Y69.2142
G1 X3.6146 Y69.1290
G1 X3.8000 Y69.0997
G1 X3.9854 Y69.1290
G1 X4.1527 Y69.2142
G1 X4.2854 Y69.3470
G1 X4.3706 Y69.5142
G1 X4.4000 Y69.6997

(cogido= e)
(y sanitizado es'e y en hex_font= #0065')
G0 Z2.0000
G0 X3.2000 Y75.1997
G1 Z0.1000
G1 X3.2000 Y76.7997
G1 X2.8000 Y76.7997
G0 Z2.0000
G0 X2.8000 Y75.1997
G1 Z0.1000
G1 X3.8000 Y75.1997
G0 Z2.0000
G0 X4.4000 Y75.7997
G1 Z0.1000
G1 X4.4000 Y76.7997
G0 Z2.0000
G0 X2.8000 Y76.7997
G1 Z0.1000
G1 X2.5528 Y76.7605
G1 X2.3298 Y76.6469
G1 X2.1528 Y76.4699
G1 X2.0392 Y76.2469
G1 X2.0000 Y75.9997
G1 X2.0392 Y75.7524
G1 X2.1528 Y75.5294
G1 X2.3298 Y75.3524
G1 X2.5528 Y75.2388
G1 X2.8000 Y75.1997
G0 Z2.0000
G0 X3.8000 Y75.1997
G1 Z0.1000
G1 X3.9854 Y75.2290
G1 X4.1527 Y75.3142
G1 X4.2854 Y75.4470
G1 X4.3706 Y75.6142
G1 X4.4000 Y75.7997

(cogido= n)
(y sanitizado es'n y en hex_font= #006E')
G0 Z2.0000
G0 X4.4000 Y77.6997
G1 Z0.1000
G1 X2.0000 Y77.6997
G1 X2.0000 Y78.6997
G0 Z2.0000
G0 X2.6000 Y79.2997
G1 Z0.1000
G1 X4.4000 Y79.2997
G0 Z2.0000
G0 X2.6000 Y79.2997
G1 Z0.1000
G1 X2.4146 Y79.2703
G1 X2.2473 Y79.1851
G1 X2.1146 Y79.0523
G1 X2.0294 Y78.8851
G1 X2.0000 Y78.6997

(cogido= s)
(y sanitizado es's y en hex_font= #0073')
G0 Z2.0000
G0 X3.0308 Y84.1254
G1 Z0.1000
G1 X3.4180 Y85.0738
G0 Z2.0000
G0 X2.2244 Y85.3997
G1 Z0.1000
G1 X2.0833 Y84.9984
G1 X2.0513 Y84.5743
G1 X2.1306 Y84.1564
G1 X2.2092 Y84.0100
G1 X2.3330 Y83.8992
G1 X2.4871 Y83.8373
G1 X2.6532 Y83.8316
G1 X2.8112 Y83.8828
G1 X2.9423 Y83.9848
G1 X3.0308 Y84.1255
G0 Z2.0000
G0 X4.3181 Y85.0430
G1 Z0.1000
G1 X4.2395 Y85.1893
G1 X4.1157 Y85.3001
G1 X3.9616 Y85.3621
G1 X3.7956 Y85.3678
G1 X3.6375 Y85.3165
G1 X3.5064 Y85.2145
G1 X3.4180 Y85.0739
G0 Z2.0000
G0 X4.2244 Y83.7996
G1 Z0.1000
G1 X4.3655 Y84.2009
G1 X4.3974 Y84.6250
G1 X4.3181 Y85.0429

(cogido= u)
(y sanitizado es'u y en hex_font= #0075')
G0 Z2.0000
G0 X2.0000 Y86.2997
G1 Z0.1000
G1 X3.8000 Y86.2997
G0 Z2.0000
G0 X4.4000 Y86.8997
G1 Z0.1000
G1 X4.4000 Y87.8997
G1 X2.0000 Y87.8997
G0 Z2.0000
G0 X3.8000 Y86.2997
G1 Z0.1000
G1 X3.9854 Y86.3290
G1 X4.1527 Y86.4143
G1 X4.2854 Y86.5470
G1 X4.3706 Y86.7143
G1 X4.4000 Y86.8997

(cogido= s)
(y sanitizado es's y en hex_font= #0073')
G0 Z2.0000
G0 X3.0308 Y92.7254
G1 Z0.1000
G1 X3.4180 Y93.6738
G0 Z2.0000
G0 X2.2244 Y93.9997
G1 Z0.1000
G1 X2.0833 Y93.5984
G1 X2.0513 Y93.1743
G1 X2.1306 Y92.7564
G1 X2.2092 Y92.6100
G1 X2.3330 Y92.4992
G1 X2.4871 Y92.4373
G1 X2.6532 Y92.4316
G1 X2.8112 Y92.4828
G1 X2.9423 Y92.5848
G1 X3.0308 Y92.7255
G0 Z2.0000
G0 X4.3181 Y93.6430
G1 Z0.1000
G1 X4.2395 Y93.7893
G1 X4.1157 Y93.9001
G1 X3.9616 Y93.9621
G1 X3.7956 Y93.9678
G1 X3.6375 Y93.9166
G1 X3.5064 Y93.8145
G1 X3.4180 Y93.6739
G0 Z2.0000
G0 X4.2244 Y92.3996
G1 Z0.1000
G1 X4.3655 Y92.8009
G1 X4.3974 Y93.2250
G1 X4.3181 Y93.6429

(cogido= i)
(y sanitizado es'i y en hex_font= #0069')
G0 Z2.0000
G0 X4.4000 Y94.8996
G1 Z0.1000
G1 X2.0000 Y94.8996
G0 Z2.0000
G0 X1.0000 Y94.8996
G1 Z0.1000
G1 X0.8000 Y94.8996

(cogido= t)
(y sanitizado es't y en hex_font= #0074')
G0 Z2.0000
G0 X2.0000 Y95.7996
G1 Z0.1000
G1 X2.0000 Y96.9996
G0 Z2.0000
G0 X0.8000 Y96.1996
G1 Z0.1000
G1 X4.4000 Y96.1996

(cogido= i)
(y sanitizado es'i y en hex_font= #0069')
G0 Z2.0000
G0 X4.4000 Y97.8996
G1 Z0.1000
G1 X2.0000 Y97.8996
G0 Z2.0000
G0 X1.0000 Y97.8996
G1 Z0.1000
G1 X0.8000 Y97.8996

(cogido= o)
(y sanitizado es'o y en hex_font= #006F')
G0 Z2.0000
G0 X2.8000 Y98.7995
G1 Z0.1000
G1 X3.6000 Y98.7995
G0 Z2.0000
G0 X3.6000 Y100.3996
G1 Z0.1000
G1 X2.8000 Y100.3996
G0 Z2.0000
G0 X3.6000 Y98.7996
G1 Z0.1000
G1 X3.8472 Y98.8388
G1 X4.0702 Y98.9524
G1 X4.2472 Y99.1294
G1 X4.3608 Y99.3524
G1 X4.4000 Y99.5996
G1 X4.3608 Y99.8468
G1 X4.2472 Y100.0698
G1 X4.0702 Y100.2468
G1 X3.8472 Y100.3604
G1 X3.6000 Y100.3996
G0 Z2.0000
G0 X2.8000 Y100.3996
G1 Z0.1000
G1 X2.5528 Y100.3604
G1 X2.3298 Y100.2468
G1 X2.1528 Y100.0698
G1 X2.0392 Y99.8468
G1 X2.0000 Y99.5996
G1 X2.0392 Y99.3524
G1 X2.1528 Y99.1294
G1 X2.3298 Y98.9524
G1 X2.5528 Y98.8388
G1 X2.8000 Y98.7996

(cogido= c)
(y sanitizado es'c y en hex_font= #0063')
G0 Z2.0000
G0 X2.0000 Y106.0996
G1 Z0.1000
G1 X2.0000 Y105.4996
G0 Z2.0000
G0 X2.6000 Y104.8996
G1 Z0.1000
G1 X3.8000 Y104.8996
G0 Z2.0000
G0 X4.4000 Y105.4996
G1 Z0.1000
G1 X4.4000 Y106.0996
G0 Z2.0000
G0 X2.0000 Y105.4996
G1 Z0.1000
G1 X2.0294 Y105.3142
G1 X2.1146 Y105.1469
G1 X2.2473 Y105.0142
G1 X2.4146 Y104.9290
G1 X2.6000 Y104.8996
G0 Z2.0000
G0 X3.8000 Y104.8996
G1 Z0.1000
G1 X3.9854 Y104.9290
G1 X4.1527 Y105.0142
G1 X4.2854 Y105.1469
G1 X4.3706 Y105.3142
G1 X4.4000 Y105.4996

(cogido= u)
(y sanitizado es'u y en hex_font= #0075')
G0 Z2.0000
G0 X2.0000 Y106.9996
G1 Z0.1000
G1 X3.8000 Y106.9996
G0 Z2.0000
G0 X4.4000 Y107.5996
G1 Z0.1000
G1 X4.4000 Y108.5996
G1 X2.0000 Y108.5996
G0 Z2.0000
G0 X3.8000 Y106.9996
G1 Z0.1000
G1 X3.9854 Y107.0290
G1 X4.1527 Y107.1142
G1 X4.2854 Y107.2469
G1 X4.3706 Y107.4142
G1 X4.4000 Y107.5996

(cogido= a)
(y sanitizado es'a y en hex_font= #0061')
G0 Z2.0000
G0 X2.0000 Y109.6996
G1 Z0.1000
G1 X2.0000 Y110.4996
G0 Z2.0000
G0 X2.6000 Y111.0996
G1 Z0.1000
G1 X4.4000 Y111.0996
G1 X4.4000 Y110.0996
G0 Z2.0000
G0 X3.2000 Y110.0996
G1 Z0.1000
G1 X3.2000 Y111.0996
G0 Z2.0000
G0 X2.6000 Y111.0996
G1 Z0.1000
G1 X2.4146 Y111.0702
G1 X2.2473 Y110.9850
G1 X2.1146 Y110.8522
G1 X2.0294 Y110.6850
G1 X2.0000 Y110.4996
G0 Z2.0000
G0 X3.2000 Y110.0996
G1 Z0.1000
G1 X3.2294 Y109.9141
G1 X3.3146 Y109.7469
G1 X3.4473 Y109.6141
G1 X3.6146 Y109.5289
G1 X3.8000 Y109.4996
G1 X3.9854 Y109.5289
G1 X4.1527 Y109.6141
G1 X4.2854 Y109.7469
G1 X4.3706 Y109.9141
G1 X4.4000 Y110.0996

(cogido= n)
(y sanitizado es'n y en hex_font= #006E')
G0 Z2.0000
G0 X4.4000 Y111.9996
G1 Z0.1000
G1 X2.0000 Y111.9996
G1 X2.0000 Y112.9996
G0 Z2.0000
G0 X2.6000 Y113.5996
G1 Z0.1000
G1 X4.4000 Y113.5996
G0 Z2.0000
G0 X2.6000 Y113.5996
G1 Z0.1000
G1 X2.4146 Y113.5702
G1 X2.2473 Y113.4850
G1 X2.1146 Y113.3522
G1 X2.0294 Y113.1850
G1 X2.0000 Y112.9996

(cogido= d)
(y sanitizado es'd y en hex_font= #0064')
G0 Z2.0000
G0 X0.8000 Y116.0996
G1 Z0.1000
G1 X4.4000 Y116.0996
G1 X4.4000 Y115.0996
G0 Z2.0000
G0 X3.8000 Y114.4996
G1 Z0.1000
G1 X2.6000 Y114.4996
G0 Z2.0000
G0 X2.0000 Y115.0996
G1 Z0.1000
G1 X2.0000 Y116.0996
G0 Z2.0000
G0 X3.8000 Y114.4996
G1 Z0.1000
G1 X3.9854 Y114.5289
G1 X4.1527 Y114.6141
G1 X4.2854 Y114.7469
G1 X4.3706 Y114.9141
G1 X4.4000 Y115.0996
G0 Z2.0000
G0 X2.0000 Y115.0996
G1 Z0.1000
G1 X2.0294 Y114.9141
G1 X2.1146 Y114.7469
G1 X2.2473 Y114.6141
G1 X2.4146 Y114.5289
G1 X2.6000 Y114.4996

(cogido= o)
(y sanitizado es'o y en hex_font= #006F')
G0 Z2.0000
G0 X2.8000 Y116.9995
G1 Z0.1000
G1 X3.6000 Y116.9995
G0 Z2.0000
G0 X3.6000 Y118.5996
G1 Z0.1000
G1 X2.8000 Y118.5996
G0 Z2.0000
G0 X3.6000 Y116.9996
G1 Z0.1000
G1 X3.8472 Y117.0388
G1 X4.0702 Y117.1524
G1 X4.2472 Y117.3294
G1 X4.3608 Y117.5524
G1 X4.4000 Y117.7996
G1 X4.3608 Y118.0468
G1 X4.2472 Y118.2698
G1 X4.0702 Y118.4468
G1 X3.8472 Y118.5604
G1 X3.6000 Y118.5996
G0 Z2.0000
G0 X2.8000 Y118.5996
G1 Z0.1000
G1 X2.5528 Y118.5604
G1 X2.3298 Y118.4468
G1 X2.1528 Y118.2698
G1 X2.0392 Y118.0468
G1 X2.0000 Y117.7996
G1 X2.0392 Y117.5524
G1 X2.1528 Y117.3294
G1 X2.3298 Y117.1524
G1 X2.5528 Y117.0388
G1 X2.8000 Y116.9996

(cogido= t)
(y sanitizado es't y en hex_font= #0074')
G0 Z2.0000
G0 X2.0000 Y123.0996
G1 Z0.1000
G1 X2.0000 Y124.2996
G0 Z2.0000
G0 X0.8000 Y123.4996
G1 Z0.1000
G1 X4.4000 Y123.4996

(cogido= o)
(y sanitizado es'o y en hex_font= #006F')
G0 Z2.0000
G0 X2.8000 Y125.1995
G1 Z0.1000
G1 X3.6000 Y125.1995
G0 Z2.0000
G0 X3.6000 Y126.7996
G1 Z0.1000
G1 X2.8000 Y126.7996
G0 Z2.0000
G0 X3.6000 Y125.1996
G1 Z0.1000
G1 X3.8472 Y125.2388
G1 X4.0702 Y125.3524
G1 X4.2472 Y125.5294
G1 X4.3608 Y125.7524
G1 X4.4000 Y125.9996
G1 X4.3608 Y126.2468
G1 X4.2472 Y126.4698
G1 X4.0702 Y126.6468
G1 X3.8472 Y126.7604
G1 X3.6000 Y126.7996
G0 Z2.0000
G0 X2.8000 Y126.7996
G1 Z0.1000
G1 X2.5528 Y126.7604
G1 X2.3298 Y126.6468
G1 X2.1528 Y126.4698
G1 X2.0392 Y126.2468
G1 X2.0000 Y125.9996
G1 X2.0392 Y125.7524
G1 X2.1528 Y125.5294
G1 X2.3298 Y125.3524
G1 X2.5528 Y125.2388
G1 X2.8000 Y125.1996

(cogido= d)
(y sanitizado es'd y en hex_font= #0064')
G0 Z2.0000
G0 X0.8000 Y129.2996
G1 Z0.1000
G1 X4.4000 Y129.2996
G1 X4.4000 Y128.2996
G0 Z2.0000
G0 X3.8000 Y127.6996
G1 Z0.1000
G1 X2.6000 Y127.6996
G0 Z2.0000
G0 X2.0000 Y128.2996
G1 Z0.1000
G1 X2.0000 Y129.2996
G0 Z2.0000
G0 X3.8000 Y127.6996
G1 Z0.1000
G1 X3.9854 Y127.7290
G1 X4.1527 Y127.8142
G1 X4.2854 Y127.9469
G1 X4.3706 Y128.1142
G1 X4.4000 Y128.2996
G0 Z2.0000
G0 X2.0000 Y128.2996
G1 Z0.1000
G1 X2.0294 Y128.1142
G1 X2.1146 Y127.9469
G1 X2.2473 Y127.8142
G1 X2.4146 Y127.7290
G1 X2.6000 Y127.6996

(cogido= o)
(y sanitizado es'o y en hex_font= #006F')
G0 Z2.0000
G0 X2.8000 Y130.1995
G1 Z0.1000
G1 X3.6000 Y130.1995
G0 Z2.0000
G0 X3.6000 Y131.7996
G1 Z0.1000
G1 X2.8000 Y131.7996
G0 Z2.0000
G0 X3.6000 Y130.1996
G1 Z0.1000
G1 X3.8472 Y130.2388
G1 X4.0702 Y130.3524
G1 X4.2472 Y130.5294
G1 X4.3608 Y130.7524
G1 X4.4000 Y130.9996
G1 X4.3608 Y131.2468
G1 X4.2472 Y131.4699
G1 X4.0702 Y131.6468
G1 X3.8472 Y131.7605
G1 X3.6000 Y131.7996
G0 Z2.0000
G0 X2.8000 Y131.7996
G1 Z0.1000
G1 X2.5528 Y131.7605
G1 X2.3298 Y131.6468
G1 X2.1528 Y131.4699
G1 X2.0392 Y131.2468
G1 X2.0000 Y130.9996
G1 X2.0392 Y130.7524
G1 X2.1528 Y130.5294
G1 X2.3298 Y130.3524
G1 X2.5528 Y130.2388
G1 X2.8000 Y130.1996

(cogido= s)
(y sanitizado es's y en hex_font= #0073')
G0 Z2.0000
G0 X3.0308 Y133.0254
G1 Z0.1000
G1 X3.4180 Y133.9738
G0 Z2.0000
G0 X2.2244 Y134.2996
G1 Z0.1000
G1 X2.0833 Y133.8984
G1 X2.0513 Y133.4743
G1 X2.1306 Y133.0564
G1 X2.2092 Y132.9100
G1 X2.3330 Y132.7992
G1 X2.4871 Y132.7372
G1 X2.6532 Y132.7315
G1 X2.8112 Y132.7828
G1 X2.9423 Y132.8848
G1 X3.0308 Y133.0254
G0 Z2.0000
G0 X4.3181 Y133.9430
G1 Z0.1000
G1 X4.2395 Y134.0893
G1 X4.1157 Y134.2001
G1 X3.9616 Y134.2621
G1 X3.7956 Y134.2678
G1 X3.6375 Y134.2165
G1 X3.5064 Y134.1145
G1 X3.4180 Y133.9739
G0 Z2.0000
G0 X4.2244 Y132.6996
G1 Z0.1000
G1 X4.3655 Y133.1008
G1 X4.3974 Y133.5250
G1 X4.3181 Y133.9428

(cogido= a)
(y sanitizado es'a y en hex_font= #0061')
G0 Z2.0000
G0 X2.0000 Y138.9996
G1 Z0.1000
G1 X2.0000 Y139.7996
G0 Z2.0000
G0 X2.6000 Y140.3996
G1 Z0.1000
G1 X4.4000 Y140.3996
G1 X4.4000 Y139.3996
G0 Z2.0000
G0 X3.2000 Y139.3996
G1 Z0.1000
G1 X3.2000 Y140.3996
G0 Z2.0000
G0 X2.6000 Y140.3996
G1 Z0.1000
G1 X2.4146 Y140.3702
G1 X2.2473 Y140.2850
G1 X2.1146 Y140.1523
G1 X2.0294 Y139.9850
G1 X2.0000 Y139.7996
G0 Z2.0000
G0 X3.2000 Y139.3996
G1 Z0.1000
G1 X3.2294 Y139.2142
G1 X3.3146 Y139.0469
G1 X3.4473 Y138.9142
G1 X3.6146 Y138.8290
G1 X3.8000 Y138.7996
G1 X3.9854 Y138.8290
G1 X4.1527 Y138.9142
G1 X4.2854 Y139.0469
G1 X4.3706 Y139.2142
G1 X4.4000 Y139.3996

(cogido= t)
(y sanitizado es't y en hex_font= #0074')
G0 Z2.0000
G0 X2.0000 Y144.8996
G1 Z0.1000
G1 X2.0000 Y146.0996
G0 Z2.0000
G0 X0.8000 Y145.2996
G1 Z0.1000
G1 X4.4000 Y145.2996

(cogido= u)
(y sanitizado es'u y en hex_font= #0075')
G0 Z2.0000
G0 X2.0000 Y146.9996
G1 Z0.1000
G1 X3.8000 Y146.9996
G0 Z2.0000
G0 X4.4000 Y147.5996
G1 Z0.1000
G1 X4.4000 Y148.5996
G1 X2.0000 Y148.5996
G0 Z2.0000
G0 X3.8000 Y146.9996
G1 Z0.1000
G1 X3.9854 Y147.0289
G1 X4.1527 Y147.1142
G1 X4.2854 Y147.2469
G1 X4.3706 Y147.4142
G1 X4.4000 Y147.5996

(cogido= a)
(y sanitizado es'a y en hex_font= #0061')
G0 Z2.0000
G0 X2.0000 Y153.2996
G1 Z0.1000
G1 X2.0000 Y154.0995
G0 Z2.0000
G0 X2.6000 Y154.6995
G1 Z0.1000
G1 X4.4000 Y154.6995
G1 X4.4000 Y153.6995
G0 Z2.0000
G0 X3.2000 Y153.6995
G1 Z0.1000
G1 X3.2000 Y154.6995
G0 Z2.0000
G0 X2.6000 Y154.6995
G1 Z0.1000
G1 X2.4146 Y154.6702
G1 X2.2473 Y154.5849
G1 X2.1146 Y154.4522
G1 X2.0294 Y154.2849
G1 X2.0000 Y154.0995
G0 Z2.0000
G0 X3.2000 Y153.6995
G1 Z0.1000
G1 X3.2294 Y153.5141
G1 X3.3146 Y153.3469
G1 X3.4473 Y153.2141
G1 X3.6146 Y153.1289
G1 X3.8000 Y153.0995
G1 X3.9854 Y153.1289
G1 X4.1527 Y153.2141
G1 X4.2854 Y153.3469
G1 X4.3706 Y153.5141
G1 X4.4000 Y153.6995

(cogido= l)
(y sanitizado es'l y en hex_font= #006C')
G0 Z2.0000
G0 X0.8000 Y155.5995
G1 Z0.1000
G1 X4.0000 Y155.5995
G1 X4.1236 Y155.6191
G1 X4.2351 Y155.6759
G1 X4.3236 Y155.7644
G1 X4.3804 Y155.8759
G1 X4.4000 Y155.9995

(cogido= r)
(y sanitizado es'r y en hex_font= #0072')
G0 Z2.0000
G0 X4.4000 Y156.8995
G1 Z0.1000
G1 X2.0000 Y156.8995
G1 X2.0000 Y157.6995
G0 Z2.0000
G0 X2.4000 Y158.0995
G1 Z0.1000
G1 X2.2764 Y158.0799
G1 X2.1649 Y158.0231
G1 X2.0764 Y157.9346
G1 X2.0196 Y157.8231
G1 X2.0000 Y157.6995

(cogido= e)
(y sanitizado es'e y en hex_font= #0065')
G0 Z2.0000
G0 X3.2000 Y158.9995
G1 Z0.1000
G1 X3.2000 Y160.5995
G1 X2.8000 Y160.5995
G0 Z2.0000
G0 X2.8000 Y158.9995
G1 Z0.1000
G1 X3.8000 Y158.9995
G0 Z2.0000
G0 X4.4000 Y159.5995
G1 Z0.1000
G1 X4.4000 Y160.5995
G0 Z2.0000
G0 X2.8000 Y160.5995
G1 Z0.1000
G1 X2.5528 Y160.5603
G1 X2.3298 Y160.4467
G1 X2.1528 Y160.2697
G1 X2.0392 Y160.0467
G1 X2.0000 Y159.7995
G1 X2.0392 Y159.5523
G1 X2.1528 Y159.3293
G1 X2.3298 Y159.1523
G1 X2.5528 Y159.0386
G1 X2.8000 Y158.9995
G0 Z2.0000
G0 X3.8000 Y158.9995
G1 Z0.1000
G1 X3.9854 Y159.0289
G1 X4.1527 Y159.1141
G1 X4.2854 Y159.2468
G1 X4.3706 Y159.4141
G1 X4.4000 Y159.5995

(cogido= d)
(y sanitizado es'd y en hex_font= #0064')
G0 Z2.0000
G0 X0.8000 Y163.0995
G1 Z0.1000
G1 X4.4000 Y163.0995
G1 X4.4000 Y162.0995
G0 Z2.0000
G0 X3.8000 Y161.4995
G1 Z0.1000
G1 X2.6000 Y161.4995
G0 Z2.0000
G0 X2.0000 Y162.0995
G1 Z0.1000
G1 X2.0000 Y163.0995
G0 Z2.0000
G0 X3.8000 Y161.4995
G1 Z0.1000
G1 X3.9854 Y161.5289
G1 X4.1527 Y161.6141
G1 X4.2854 Y161.7468
G1 X4.3706 Y161.9141
G1 X4.4000 Y162.0995
G0 Z2.0000
G0 X2.0000 Y162.0995
G1 Z0.1000
G1 X2.0294 Y161.9141
G1 X2.1146 Y161.7468
G1 X2.2473 Y161.6141
G1 X2.4146 Y161.5289
G1 X2.6000 Y161.4995

(cogido= e)
(y sanitizado es'e y en hex_font= #0065')
G0 Z2.0000
G0 X3.2000 Y163.9995
G1 Z0.1000
G1 X3.2000 Y165.5995
G1 X2.8000 Y165.5995
G0 Z2.0000
G0 X2.8000 Y163.9995
G1 Z0.1000
G1 X3.8000 Y163.9995
G0 Z2.0000
G0 X4.4000 Y164.5995
G1 Z0.1000
G1 X4.4000 Y165.5995
G0 Z2.0000
G0 X2.8000 Y165.5995
G1 Z0.1000
G1 X2.5528 Y165.5603
G1 X2.3298 Y165.4467
G1 X2.1528 Y165.2697
G1 X2.0392 Y165.0467
G1 X2.0000 Y164.7995
G1 X2.0392 Y164.5523
G1 X2.1528 Y164.3293
G1 X2.3298 Y164.1523
G1 X2.5528 Y164.0386
G1 X2.8000 Y163.9995
G0 Z2.0000
G0 X3.8000 Y163.9995
G1 Z0.1000
G1 X3.9854 Y164.0289
G1 X4.1527 Y164.1141
G1 X4.2854 Y164.2468
G1 X4.3706 Y164.4141
G1 X4.4000 Y164.5995

(cogido= d)
(y sanitizado es'd y en hex_font= #0064')
G0 Z2.0000
G0 X0.8000 Y168.0995
G1 Z0.1000
G1 X4.4000 Y168.0995
G1 X4.4000 Y167.0995
G0 Z2.0000
G0 X3.8000 Y166.4995
G1 Z0.1000
G1 X2.6000 Y166.4995
G0 Z2.0000
G0 X2.0000 Y167.0995
G1 Z0.1000
G1 X2.0000 Y168.0995
G0 Z2.0000
G0 X3.8000 Y166.4995
G1 Z0.1000
G1 X3.9854 Y166.5289
G1 X4.1527 Y166.6141
G1 X4.2854 Y166.7468
G1 X4.3706 Y166.9141
G1 X4.4000 Y167.0995
G0 Z2.0000
G0 X2.0000 Y167.0995
G1 Z0.1000
G1 X2.0294 Y166.9141
G1 X2.1146 Y166.7468
G1 X2.2473 Y166.6141
G1 X2.4146 Y166.5289
G1 X2.6000 Y166.4995

(cogido= o)
(y sanitizado es'o y en hex_font= #006F')
G0 Z2.0000
G0 X2.8000 Y168.9994
G1 Z0.1000
G1 X3.6000 Y168.9994
G0 Z2.0000
G0 X3.6000 Y170.5995
G1 Z0.1000
G1 X2.8000 Y170.5995
G0 Z2.0000
G0 X3.6000 Y168.9995
G1 Z0.1000
G1 X3.8472 Y169.0387
G1 X4.0702 Y169.1523
G1 X4.2472 Y169.3293
G1 X4.3608 Y169.5523
G1 X4.4000 Y169.7995
G1 X4.3608 Y170.0467
G1 X4.2472 Y170.2698
G1 X4.0702 Y170.4467
G1 X3.8472 Y170.5604
G1 X3.6000 Y170.5995
G0 Z2.0000
G0 X2.8000 Y170.5995
G1 Z0.1000
G1 X2.5528 Y170.5604
G1 X2.3298 Y170.4467
G1 X2.1528 Y170.2698
G1 X2.0392 Y170.0467
G1 X2.0000 Y169.7995
G1 X2.0392 Y169.5523
G1 X2.1528 Y169.3293
G1 X2.3298 Y169.1523
G1 X2.5528 Y169.0387
G1 X2.8000 Y168.9995

(cogido= r)
(y sanitizado es'r y en hex_font= #0072')
G0 Z2.0000
G0 X4.4000 Y171.4995
G1 Z0.1000
G1 X2.0000 Y171.4995
G1 X2.0000 Y172.2995
G0 Z2.0000
G0 X2.4000 Y172.6995
G1 Z0.1000
G1 X2.2764 Y172.6799
G1 X2.1649 Y172.6231
G1 X2.0764 Y172.5346
G1 X2.0196 Y172.4231
G1 X2.0000 Y172.2995

G0 Z2.0000
(===================================================================)
( Line 2 )
( Grabando: la pierdan y te culpen a ti." )
(===================================================================)
(cogido= l)
(y sanitizado es'l y en hex_font= #006C')
G0 Z2.0000
G0 X5.2000 Y-0.0000
G1 Z0.1000
G1 X8.4000 Y-0.0000
G1 X8.5236 Y0.0196
G1 X8.6351 Y0.0764
G1 X8.7236 Y0.1649
G1 X8.7804 Y0.2764
G1 X8.8000 Y0.4000

(cogido= a)
(y sanitizado es'a y en hex_font= #0061')
G0 Z2.0000
G0 X6.4000 Y1.5000
G1 Z0.1000
G1 X6.4000 Y2.3000
G0 Z2.0000
G0 X7.0000 Y2.9000
G1 Z0.1000
G1 X8.8000 Y2.9000
G1 X8.8000 Y1.9000
G0 Z2.0000
G0 X7.6000 Y1.9000
G1 Z0.1000
G1 X7.6000 Y2.9000
G0 Z2.0000
G0 X7.0000 Y2.9000
G1 Z0.1000
G1 X6.8146 Y2.8706
G1 X6.6473 Y2.7854
G1 X6.5146 Y2.6526
G1 X6.4294 Y2.4854
G1 X6.4000 Y2.3000
G0 Z2.0000
G0 X7.6000 Y1.9000
G1 Z0.1000
G1 X7.6294 Y1.7145
G1 X7.7146 Y1.5473
G1 X7.8473 Y1.4145
G1 X8.0146 Y1.3293
G1 X8.2000 Y1.3000
G1 X8.3854 Y1.3293
G1 X8.5527 Y1.4145
G1 X8.6854 Y1.5473
G1 X8.7706 Y1.7145
G1 X8.8000 Y1.9000

(cogido= p)
(y sanitizado es'p y en hex_font= #0070')
G0 Z2.0000
G0 X8.8000 Y7.3999
G1 Z0.1000
G1 X8.8000 Y8.3999
G0 Z2.0000
G0 X8.2000 Y8.9999
G1 Z0.1000
G1 X7.0000 Y8.9999
G0 Z2.0000
G0 X6.4000 Y8.3999
G1 Z0.1000
G1 X6.4000 Y7.3999
G1 X10.0000 Y7.3999
G0 Z2.0000
G0 X8.8000 Y8.3999
G1 Z0.1000
G1 X8.7706 Y8.5853
G1 X8.6854 Y8.7526
G1 X8.5527 Y8.8853
G1 X8.3854 Y8.9705
G1 X8.2000 Y8.9999
G0 Z2.0000
G0 X7.0000 Y8.9999
G1 Z0.1000
G1 X6.8146 Y8.9705
G1 X6.6473 Y8.8853
G1 X6.5146 Y8.7526
G1 X6.4294 Y8.5853
G1 X6.4000 Y8.3999

(cogido= i)
(y sanitizado es'i y en hex_font= #0069')
G0 Z2.0000
G0 X8.8000 Y9.8998
G1 Z0.1000
G1 X6.4000 Y9.8998
G0 Z2.0000
G0 X5.4000 Y9.8998
G1 Z0.1000
G1 X5.2000 Y9.8998

(cogido= e)
(y sanitizado es'e y en hex_font= #0065')
G0 Z2.0000
G0 X7.6000 Y10.7999
G1 Z0.1000
G1 X7.6000 Y12.3998
G1 X7.2000 Y12.3998
G0 Z2.0000
G0 X7.2000 Y10.7999
G1 Z0.1000
G1 X8.2000 Y10.7999
G0 Z2.0000
G0 X8.8000 Y11.3998
G1 Z0.1000
G1 X8.8000 Y12.3998
G0 Z2.0000
G0 X7.2000 Y12.3998
G1 Z0.1000
G1 X6.9528 Y12.3607
G1 X6.7298 Y12.2471
G1 X6.5528 Y12.0701
G1 X6.4392 Y11.8471
G1 X6.4000 Y11.5998
G1 X6.4392 Y11.3526
G1 X6.5528 Y11.1296
G1 X6.7298 Y10.9526
G1 X6.9528 Y10.8390
G1 X7.2000 Y10.7998
G0 Z2.0000
G0 X8.2000 Y10.7998
G1 Z0.1000
G1 X8.3854 Y10.8292
G1 X8.5527 Y10.9144
G1 X8.6854 Y11.0472
G1 X8.7706 Y11.2144
G1 X8.8000 Y11.3998

(cogido= r)
(y sanitizado es'r y en hex_font= #0072')
G0 Z2.0000
G0 X8.8000 Y13.2998
G1 Z0.1000
G1 X6.4000 Y13.2998
G1 X6.4000 Y14.0998
G0 Z2.0000
G0 X6.8000 Y14.4998
G1 Z0.1000
G1 X6.6764 Y14.4802
G1 X6.5649 Y14.4234
G1 X6.4764 Y14.3349
G1 X6.4196 Y14.2234
G1 X6.4000 Y14.0998

(cogido= d)
(y sanitizado es'd y en hex_font= #0064')
G0 Z2.0000
G0 X5.2000 Y16.9998
G1 Z0.1000
G1 X8.8000 Y16.9998
G1 X8.8000 Y15.9998
G0 Z2.0000
G0 X8.2000 Y15.3998
G1 Z0.1000
G1 X7.0000 Y15.3998
G0 Z2.0000
G0 X6.4000 Y15.9998
G1 Z0.1000
G1 X6.4000 Y16.9998
G0 Z2.0000
G0 X8.2000 Y15.3998
G1 Z0.1000
G1 X8.3854 Y15.4292
G1 X8.5527 Y15.5144
G1 X8.6854 Y15.6471
G1 X8.7706 Y15.8144
G1 X8.8000 Y15.9998
G0 Z2.0000
G0 X6.4000 Y15.9998
G1 Z0.1000
G1 X6.4294 Y15.8144
G1 X6.5146 Y15.6471
G1 X6.6473 Y15.5144
G1 X6.8146 Y15.4292
G1 X7.0000 Y15.3998

(cogido= a)
(y sanitizado es'a y en hex_font= #0061')
G0 Z2.0000
G0 X6.4000 Y18.0998
G1 Z0.1000
G1 X6.4000 Y18.8998
G0 Z2.0000
G0 X7.0000 Y19.4998
G1 Z0.1000
G1 X8.8000 Y19.4998
G1 X8.8000 Y18.4998
G0 Z2.0000
G0 X7.6000 Y18.4998
G1 Z0.1000
G1 X7.6000 Y19.4998
G0 Z2.0000
G0 X7.0000 Y19.4998
G1 Z0.1000
G1 X6.8146 Y19.4704
G1 X6.6473 Y19.3852
G1 X6.5146 Y19.2524
G1 X6.4294 Y19.0852
G1 X6.4000 Y18.8998
G0 Z2.0000
G0 X7.6000 Y18.4998
G1 Z0.1000
G1 X7.6294 Y18.3143
G1 X7.7146 Y18.1471
G1 X7.8473 Y18.0143
G1 X8.0146 Y17.9291
G1 X8.2000 Y17.8998
G1 X8.3854 Y17.9291
G1 X8.5527 Y18.0143
G1 X8.6854 Y18.1471
G1 X8.7706 Y18.3143
G1 X8.8000 Y18.4998

(cogido= n)
(y sanitizado es'n y en hex_font= #006E')
G0 Z2.0000
G0 X8.8000 Y20.3998
G1 Z0.1000
G1 X6.4000 Y20.3998
G1 X6.4000 Y21.3998
G0 Z2.0000
G0 X7.0000 Y21.9998
G1 Z0.1000
G1 X8.8000 Y21.9998
G0 Z2.0000
G0 X7.0000 Y21.9998
G1 Z0.1000
G1 X6.8146 Y21.9704
G1 X6.6473 Y21.8852
G1 X6.5146 Y21.7524
G1 X6.4294 Y21.5852
G1 X6.4000 Y21.3998

(cogido= y)
(y sanitizado es'y y en hex_font= #0079')
G0 Z2.0000
G0 X6.4000 Y26.4997
G1 Z0.1000
G1 X8.8000 Y27.2997
G0 Z2.0000
G0 X6.4000 Y28.0998
G1 Z0.1000
G1 X9.7265 Y26.9909
G0 Z2.0000
G0 X10.0000 Y26.6115
G1 Z0.1000
G1 X10.0000 Y26.4997
G0 Z2.0000
G0 X10.0000 Y26.6115
G1 Z0.1000
G1 X9.9807 Y26.7344
G1 X9.9245 Y26.8454
G1 X9.8370 Y26.9337
G1 X9.7265 Y26.9910

(cogido= t)
(y sanitizado es't y en hex_font= #0074')
G0 Z2.0000
G0 X6.4000 Y32.5998
G1 Z0.1000
G1 X6.4000 Y33.7998
G0 Z2.0000
G0 X5.2000 Y32.9998
G1 Z0.1000
G1 X8.8000 Y32.9998

(cogido= e)
(y sanitizado es'e y en hex_font= #0065')
G0 Z2.0000
G0 X7.6000 Y34.6998
G1 Z0.1000
G1 X7.6000 Y36.2998
G1 X7.2000 Y36.2998
G0 Z2.0000
G0 X7.2000 Y34.6998
G1 Z0.1000
G1 X8.2000 Y34.6998
G0 Z2.0000
G0 X8.8000 Y35.2998
G1 Z0.1000
G1 X8.8000 Y36.2998
G0 Z2.0000
G0 X7.2000 Y36.2998
G1 Z0.1000
G1 X6.9528 Y36.2606
G1 X6.7298 Y36.1470
G1 X6.5528 Y35.9700
G1 X6.4392 Y35.7470
G1 X6.4000 Y35.4998
G1 X6.4392 Y35.2525
G1 X6.5528 Y35.0295
G1 X6.7298 Y34.8525
G1 X6.9528 Y34.7389
G1 X7.2000 Y34.6998
G0 Z2.0000
G0 X8.2000 Y34.6998
G1 Z0.1000
G1 X8.3854 Y34.7291
G1 X8.5527 Y34.8143
G1 X8.6854 Y34.9471
G1 X8.7706 Y35.1143
G1 X8.8000 Y35.2998

(cogido= c)
(y sanitizado es'c y en hex_font= #0063')
G0 Z2.0000
G0 X6.4000 Y41.9998
G1 Z0.1000
G1 X6.4000 Y41.3998
G0 Z2.0000
G0 X7.0000 Y40.7998
G1 Z0.1000
G1 X8.2000 Y40.7998
G0 Z2.0000
G0 X8.8000 Y41.3998
G1 Z0.1000
G1 X8.8000 Y41.9998
G0 Z2.0000
G0 X6.4000 Y41.3998
G1 Z0.1000
G1 X6.4294 Y41.2143
G1 X6.5146 Y41.0471
G1 X6.6473 Y40.9143
G1 X6.8146 Y40.8291
G1 X7.0000 Y40.7998
G0 Z2.0000
G0 X8.2000 Y40.7998
G1 Z0.1000
G1 X8.3854 Y40.8291
G1 X8.5527 Y40.9143
G1 X8.6854 Y41.0471
G1 X8.7706 Y41.2143
G1 X8.8000 Y41.3998

(cogido= u)
(y sanitizado es'u y en hex_font= #0075')
G0 Z2.0000
G0 X6.4000 Y42.8998
G1 Z0.1000
G1 X8.2000 Y42.8998
G0 Z2.0000
G0 X8.8000 Y43.4998
G1 Z0.1000
G1 X8.8000 Y44.4998
G1 X6.4000 Y44.4998
G0 Z2.0000
G0 X8.2000 Y42.8998
G1 Z0.1000
G1 X8.3854 Y42.9291
G1 X8.5527 Y43.0143
G1 X8.6854 Y43.1471
G1 X8.7706 Y43.3143
G1 X8.8000 Y43.4998

(cogido= l)
(y sanitizado es'l y en hex_font= #006C')
G0 Z2.0000
G0 X5.2000 Y45.3998
G1 Z0.1000
G1 X8.4000 Y45.3998
G1 X8.5236 Y45.4193
G1 X8.6351 Y45.4762
G1 X8.7236 Y45.5646
G1 X8.7804 Y45.6762
G1 X8.8000 Y45.7998

(cogido= p)
(y sanitizado es'p y en hex_font= #0070')
G0 Z2.0000
G0 X8.8000 Y46.6997
G1 Z0.1000
G1 X8.8000 Y47.6997
G0 Z2.0000
G0 X8.2000 Y48.2997
G1 Z0.1000
G1 X7.0000 Y48.2997
G0 Z2.0000
G0 X6.4000 Y47.6997
G1 Z0.1000
G1 X6.4000 Y46.6997
G1 X10.0000 Y46.6997
G0 Z2.0000
G0 X8.8000 Y47.6997
G1 Z0.1000
G1 X8.7706 Y47.8851
G1 X8.6854 Y48.0524
G1 X8.5527 Y48.1851
G1 X8.3854 Y48.2703
G1 X8.2000 Y48.2997
G0 Z2.0000
G0 X7.0000 Y48.2997
G1 Z0.1000
G1 X6.8146 Y48.2703
G1 X6.6473 Y48.1851
G1 X6.5146 Y48.0524
G1 X6.4294 Y47.8851
G1 X6.4000 Y47.6997

(cogido= e)
(y sanitizado es'e y en hex_font= #0065')
G0 Z2.0000
G0 X7.6000 Y49.1997
G1 Z0.1000
G1 X7.6000 Y50.7997
G1 X7.2000 Y50.7997
G0 Z2.0000
G0 X7.2000 Y49.1997
G1 Z0.1000
G1 X8.2000 Y49.1997
G0 Z2.0000
G0 X8.8000 Y49.7997
G1 Z0.1000
G1 X8.8000 Y50.7997
G0 Z2.0000
G0 X7.2000 Y50.7997
G1 Z0.1000
G1 X6.9528 Y50.7605
G1 X6.7298 Y50.6469
G1 X6.5528 Y50.4699
G1 X6.4392 Y50.2469
G1 X6.4000 Y49.9997
G1 X6.4392 Y49.7525
G1 X6.5528 Y49.5295
G1 X6.7298 Y49.3525
G1 X6.9528 Y49.2388
G1 X7.2000 Y49.1997
G0 Z2.0000
G0 X8.2000 Y49.1997
G1 Z0.1000
G1 X8.3854 Y49.2290
G1 X8.5527 Y49.3143
G1 X8.6854 Y49.4470
G1 X8.7706 Y49.6143
G1 X8.8000 Y49.7997

(cogido= n)
(y sanitizado es'n y en hex_font= #006E')
G0 Z2.0000
G0 X8.8000 Y51.6997
G1 Z0.1000
G1 X6.4000 Y51.6997
G1 X6.4000 Y52.6997
G0 Z2.0000
G0 X7.0000 Y53.2997
G1 Z0.1000
G1 X8.8000 Y53.2997
G0 Z2.0000
G0 X7.0000 Y53.2997
G1 Z0.1000
G1 X6.8146 Y53.2703
G1 X6.6473 Y53.1851
G1 X6.5146 Y53.0524
G1 X6.4294 Y52.8851
G1 X6.4000 Y52.6997

(cogido= a)
(y sanitizado es'a y en hex_font= #0061')
G0 Z2.0000
G0 X6.4000 Y57.9997
G1 Z0.1000
G1 X6.4000 Y58.7996
G0 Z2.0000
G0 X7.0000 Y59.3996
G1 Z0.1000
G1 X8.8000 Y59.3996
G1 X8.8000 Y58.3996
G0 Z2.0000
G0 X7.6000 Y58.3996
G1 Z0.1000
G1 X7.6000 Y59.3996
G0 Z2.0000
G0 X7.0000 Y59.3996
G1 Z0.1000
G1 X6.8146 Y59.3703
G1 X6.6473 Y59.2851
G1 X6.5146 Y59.1523
G1 X6.4294 Y58.9851
G1 X6.4000 Y58.7996
G0 Z2.0000
G0 X7.6000 Y58.3996
G1 Z0.1000
G1 X7.6294 Y58.2142
G1 X7.7146 Y58.0470
G1 X7.8473 Y57.9142
G1 X8.0146 Y57.8290
G1 X8.2000 Y57.7996
G1 X8.3854 Y57.8290
G1 X8.5527 Y57.9142
G1 X8.6854 Y58.0470
G1 X8.7706 Y58.2142
G1 X8.8000 Y58.3996

(cogido= t)
(y sanitizado es't y en hex_font= #0074')
G0 Z2.0000
G0 X6.4000 Y63.8996
G1 Z0.1000
G1 X6.4000 Y65.0996
G0 Z2.0000
G0 X5.2000 Y64.2996
G1 Z0.1000
G1 X8.8000 Y64.2996

(cogido= i)
(y sanitizado es'i y en hex_font= #0069')
G0 Z2.0000
G0 X8.8000 Y65.9996
G1 Z0.1000
G1 X6.4000 Y65.9996
G0 Z2.0000
G0 X5.4000 Y65.9996
G1 Z0.1000
G1 X5.2000 Y65.9996

(cogido= .)
(y sanitizado es'. y en hex_font= #002E')
G0 Z2.0000
G0 X8.8000 Y66.8996
G1 Z0.1000
G1 X8.6000 Y66.8996

G0 Z2.0000
(===================================================================)
( Line 3 )
( Grabando: Si puedes seguir creyendo en ti mismo cuando todos dudan de ti," )
(===================================================================)
(cogido= S)
(y sanitizado es'S y en hex_font= #0053')
G0 Z2.0000
G0 X11.1127 Y0.4366
G1 Z0.1000
G1 X11.6873 Y1.5633
G0 Z2.0000
G0 X9.8873 Y2.0000
G1 Z0.1000
G1 X9.6728 Y1.4170
G1 X9.6000 Y0.8000
G1 X9.6441 Y0.5380
G1 X9.7717 Y0.3048
G1 X9.9686 Y0.1263
G1 X10.2131 Y0.0222
G1 X10.4783 Y0.0039
G1 X10.7347 Y0.0734
G1 X10.9543 Y0.2232
G1 X11.1127 Y0.4366
G0 Z2.0000
G0 X13.2000 Y1.2000
G1 Z0.1000
G1 X13.1559 Y1.4621
G1 X13.0283 Y1.6953
G1 X12.8314 Y1.8738
G1 X12.5869 Y1.9779
G1 X12.3217 Y1.9962
G1 X12.0653 Y1.9266
G1 X11.8457 Y1.7769
G1 X11.6873 Y1.5635
G0 Z2.0000
G0 X12.9127 Y0.0000
G1 Z0.1000
G1 X13.1272 Y0.5831
G1 X13.2000 Y1.2000

(cogido= i)
(y sanitizado es'i y en hex_font= #0069')
G0 Z2.0000
G0 X13.2000 Y2.9000
G1 Z0.1000
G1 X10.8000 Y2.9000
G0 Z2.0000
G0 X9.8000 Y2.9000
G1 Z0.1000
G1 X9.6000 Y2.9000

(cogido= p)
(y sanitizado es'p y en hex_font= #0070')
G0 Z2.0000
G0 X13.2000 Y7.4000
G1 Z0.1000
G1 X13.2000 Y8.3999
G0 Z2.0000
G0 X12.6000 Y8.9999
G1 Z0.1000
G1 X11.4000 Y8.9999
G0 Z2.0000
G0 X10.8000 Y8.3999
G1 Z0.1000
G1 X10.8000 Y7.4000
G1 X14.4000 Y7.4000
G0 Z2.0000
G0 X13.2000 Y8.3999
G1 Z0.1000
G1 X13.1706 Y8.5853
G1 X13.0854 Y8.7526
G1 X12.9527 Y8.8853
G1 X12.7854 Y8.9706
G1 X12.6000 Y8.9999
G0 Z2.0000
G0 X11.4000 Y8.9999
G1 Z0.1000
G1 X11.2146 Y8.9706
G1 X11.0473 Y8.8853
G1 X10.9146 Y8.7526
G1 X10.8294 Y8.5853
G1 X10.8000 Y8.3999

(cogido= u)
(y sanitizado es'u y en hex_font= #0075')
G0 Z2.0000
G0 X10.8000 Y9.8999
G1 Z0.1000
G1 X12.6000 Y9.8999
G0 Z2.0000
G0 X13.2000 Y10.4999
G1 Z0.1000
G1 X13.2000 Y11.4999
G1 X10.8000 Y11.4999
G0 Z2.0000
G0 X12.6000 Y9.8999
G1 Z0.1000
G1 X12.7854 Y9.9293
G1 X12.9527 Y10.0145
G1 X13.0854 Y10.1472
G1 X13.1706 Y10.3145
G1 X13.2000 Y10.4999

(cogido= e)
(y sanitizado es'e y en hex_font= #0065')
G0 Z2.0000
G0 X12.0000 Y12.4000
G1 Z0.1000
G1 X12.0000 Y13.9999
G1 X11.6000 Y13.9999
G0 Z2.0000
G0 X11.6000 Y12.4000
G1 Z0.1000
G1 X12.6000 Y12.4000
G0 Z2.0000
G0 X13.2000 Y12.9999
G1 Z0.1000
G1 X13.2000 Y13.9999
G0 Z2.0000
G0 X11.6000 Y13.9999
G1 Z0.1000
G1 X11.3528 Y13.9608
G1 X11.1298 Y13.8471
G1 X10.9528 Y13.6701
G1 X10.8392 Y13.4471
G1 X10.8000 Y13.1999
G1 X10.8392 Y12.9527
G1 X10.9528 Y12.7297
G1 X11.1298 Y12.5527
G1 X11.3528 Y12.4391
G1 X11.6000 Y12.3999
G0 Z2.0000
G0 X12.6000 Y12.3999
G1 Z0.1000
G1 X12.7854 Y12.4293
G1 X12.9527 Y12.5145
G1 X13.0854 Y12.6472
G1 X13.1706 Y12.8145
G1 X13.2000 Y12.9999

(cogido= d)
(y sanitizado es'd y en hex_font= #0064')
G0 Z2.0000
G0 X9.6000 Y16.4999
G1 Z0.1000
G1 X13.2000 Y16.4999
G1 X13.2000 Y15.4999
G0 Z2.0000
G0 X12.6000 Y14.8999
G1 Z0.1000
G1 X11.4000 Y14.8999
G0 Z2.0000
G0 X10.8000 Y15.4999
G1 Z0.1000
G1 X10.8000 Y16.4999
G0 Z2.0000
G0 X12.6000 Y14.8999
G1 Z0.1000
G1 X12.7854 Y14.9293
G1 X12.9527 Y15.0145
G1 X13.0854 Y15.1472
G1 X13.1706 Y15.3145
G1 X13.2000 Y15.4999
G0 Z2.0000
G0 X10.8000 Y15.4999
G1 Z0.1000
G1 X10.8294 Y15.3145
G1 X10.9146 Y15.1472
G1 X11.0473 Y15.0145
G1 X11.2146 Y14.9293
G1 X11.4000 Y14.8999

(cogido= e)
(y sanitizado es'e y en hex_font= #0065')
G0 Z2.0000
G0 X12.0000 Y17.4000
G1 Z0.1000
G1 X12.0000 Y18.9999
G1 X11.6000 Y18.9999
G0 Z2.0000
G0 X11.6000 Y17.4000
G1 Z0.1000
G1 X12.6000 Y17.4000
G0 Z2.0000
G0 X13.2000 Y17.9999
G1 Z0.1000
G1 X13.2000 Y18.9999
G0 Z2.0000
G0 X11.6000 Y18.9999
G1 Z0.1000
G1 X11.3528 Y18.9608
G1 X11.1298 Y18.8471
G1 X10.9528 Y18.6701
G1 X10.8392 Y18.4471
G1 X10.8000 Y18.1999
G1 X10.8392 Y17.9527
G1 X10.9528 Y17.7297
G1 X11.1298 Y17.5527
G1 X11.3528 Y17.4391
G1 X11.6000 Y17.3999
G0 Z2.0000
G0 X12.6000 Y17.3999
G1 Z0.1000
G1 X12.7854 Y17.4293
G1 X12.9527 Y17.5145
G1 X13.0854 Y17.6472
G1 X13.1706 Y17.8145
G1 X13.2000 Y17.9999

(cogido= s)
(y sanitizado es's y en hex_font= #0073')
G0 Z2.0000
G0 X11.8308 Y20.2257
G1 Z0.1000
G1 X12.2180 Y21.1741
G0 Z2.0000
G0 X11.0244 Y21.4999
G1 Z0.1000
G1 X10.8833 Y21.0987
G1 X10.8513 Y20.6746
G1 X10.9306 Y20.2567
G1 X11.0092 Y20.1103
G1 X11.1330 Y19.9995
G1 X11.2871 Y19.9375
G1 X11.4532 Y19.9318
G1 X11.6112 Y19.9831
G1 X11.7423 Y20.0851
G1 X11.8308 Y20.2257
G0 Z2.0000
G0 X13.1181 Y21.1432
G1 Z0.1000
G1 X13.0395 Y21.2896
G1 X12.9157 Y21.4004
G1 X12.7616 Y21.4623
G1 X12.5956 Y21.4680
G1 X12.4375 Y21.4168
G1 X12.3064 Y21.3148
G1 X12.2180 Y21.1742
G0 Z2.0000
G0 X13.0244 Y19.8999
G1 Z0.1000
G1 X13.1655 Y20.3011
G1 X13.1974 Y20.7253
G1 X13.1181 Y21.1431

(cogido= s)
(y sanitizado es's y en hex_font= #0073')
G0 Z2.0000
G0 X11.8308 Y26.3257
G1 Z0.1000
G1 X12.2180 Y27.2741
G0 Z2.0000
G0 X11.0244 Y27.5999
G1 Z0.1000
G1 X10.8833 Y27.1987
G1 X10.8513 Y26.7746
G1 X10.9306 Y26.3567
G1 X11.0092 Y26.2103
G1 X11.1330 Y26.0995
G1 X11.2871 Y26.0375
G1 X11.4532 Y26.0318
G1 X11.6112 Y26.0831
G1 X11.7423 Y26.1851
G1 X11.8308 Y26.3257
G0 Z2.0000
G0 X13.1181 Y27.2432
G1 Z0.1000
G1 X13.0395 Y27.3896
G1 X12.9157 Y27.5004
G1 X12.7616 Y27.5624
G1 X12.5956 Y27.5681
G1 X12.4375 Y27.5168
G1 X12.3064 Y27.4148
G1 X12.2180 Y27.2742
G0 Z2.0000
G0 X13.0244 Y25.9999
G1 Z0.1000
G1 X13.1655 Y26.4011
G1 X13.1974 Y26.8253
G1 X13.1181 Y27.2431

(cogido= e)
(y sanitizado es'e y en hex_font= #0065')
G0 Z2.0000
G0 X12.0000 Y28.5000
G1 Z0.1000
G1 X12.0000 Y30.0999
G1 X11.6000 Y30.0999
G0 Z2.0000
G0 X11.6000 Y28.5000
G1 Z0.1000
G1 X12.6000 Y28.5000
G0 Z2.0000
G0 X13.2000 Y29.0999
G1 Z0.1000
G1 X13.2000 Y30.0999
G0 Z2.0000
G0 X11.6000 Y30.0999
G1 Z0.1000
G1 X11.3528 Y30.0608
G1 X11.1298 Y29.9472
G1 X10.9528 Y29.7702
G1 X10.8392 Y29.5472
G1 X10.8000 Y29.2999
G1 X10.8392 Y29.0527
G1 X10.9528 Y28.8297
G1 X11.1298 Y28.6527
G1 X11.3528 Y28.5391
G1 X11.6000 Y28.4999
G0 Z2.0000
G0 X12.6000 Y28.4999
G1 Z0.1000
G1 X12.7854 Y28.5293
G1 X12.9527 Y28.6145
G1 X13.0854 Y28.7473
G1 X13.1706 Y28.9145
G1 X13.2000 Y29.0999

(cogido= g)
(y sanitizado es'g y en hex_font= #0067')
G0 Z2.0000
G0 X14.4000 Y30.9999
G1 Z0.1000
G1 X14.4000 Y31.9999
G0 Z2.0000
G0 X13.8000 Y32.5999
G1 Z0.1000
G1 X10.8000 Y32.5999
G1 X10.8000 Y31.5999
G0 Z2.0000
G0 X11.4000 Y30.9999
G1 Z0.1000
G1 X12.6000 Y30.9999
G0 Z2.0000
G0 X13.2000 Y31.5999
G1 Z0.1000
G1 X13.2000 Y32.5999
G0 Z2.0000
G0 X14.4000 Y31.9999
G1 Z0.1000
G1 X14.3706 Y32.1853
G1 X14.2854 Y32.3526
G1 X14.1527 Y32.4853
G1 X13.9854 Y32.5705
G1 X13.8000 Y32.5999
G0 Z2.0000
G0 X10.8000 Y31.5999
G1 Z0.1000
G1 X10.8294 Y31.4145
G1 X10.9146 Y31.2472
G1 X11.0473 Y31.1145
G1 X11.2146 Y31.0293
G1 X11.4000 Y30.9999
G0 Z2.0000
G0 X12.6000 Y30.9999
G1 Z0.1000
G1 X12.7854 Y31.0293
G1 X12.9527 Y31.1145
G1 X13.0854 Y31.2472
G1 X13.1706 Y31.4145
G1 X13.2000 Y31.5999

(cogido= u)
(y sanitizado es'u y en hex_font= #0075')
G0 Z2.0000
G0 X10.8000 Y33.4999
G1 Z0.1000
G1 X12.6000 Y33.4999
G0 Z2.0000
G0 X13.2000 Y34.0999
G1 Z0.1000
G1 X13.2000 Y35.0999
G1 X10.8000 Y35.0999
G0 Z2.0000
G0 X12.6000 Y33.4999
G1 Z0.1000
G1 X12.7854 Y33.5293
G1 X12.9527 Y33.6145
G1 X13.0854 Y33.7472
G1 X13.1706 Y33.9145
G1 X13.2000 Y34.0999

(cogido= i)
(y sanitizado es'i y en hex_font= #0069')
G0 Z2.0000
G0 X13.2000 Y35.9999
G1 Z0.1000
G1 X10.8000 Y35.9999
G0 Z2.0000
G0 X9.8000 Y35.9999
G1 Z0.1000
G1 X9.6000 Y35.9999

(cogido= r)
(y sanitizado es'r y en hex_font= #0072')
G0 Z2.0000
G0 X13.2000 Y36.8998
G1 Z0.1000
G1 X10.8000 Y36.8998
G1 X10.8000 Y37.6998
G0 Z2.0000
G0 X11.2000 Y38.0998
G1 Z0.1000
G1 X11.0764 Y38.0802
G1 X10.9649 Y38.0234
G1 X10.8764 Y37.9349
G1 X10.8196 Y37.8234
G1 X10.8000 Y37.6998

(cogido= c)
(y sanitizado es'c y en hex_font= #0063')
G0 Z2.0000
G0 X10.8000 Y43.7998
G1 Z0.1000
G1 X10.8000 Y43.1998
G0 Z2.0000
G0 X11.4000 Y42.5998
G1 Z0.1000
G1 X12.6000 Y42.5998
G0 Z2.0000
G0 X13.2000 Y43.1998
G1 Z0.1000
G1 X13.2000 Y43.7998
G0 Z2.0000
G0 X10.8000 Y43.1998
G1 Z0.1000
G1 X10.8294 Y43.0144
G1 X10.9146 Y42.8472
G1 X11.0473 Y42.7144
G1 X11.2146 Y42.6292
G1 X11.4000 Y42.5998
G0 Z2.0000
G0 X12.6000 Y42.5998
G1 Z0.1000
G1 X12.7854 Y42.6292
G1 X12.9527 Y42.7144
G1 X13.0854 Y42.8472
G1 X13.1706 Y43.0144
G1 X13.2000 Y43.1998

(cogido= r)
(y sanitizado es'r y en hex_font= #0072')
G0 Z2.0000
G0 X13.2000 Y44.6998
G1 Z0.1000
G1 X10.8000 Y44.6998
G1 X10.8000 Y45.4998
G0 Z2.0000
G0 X11.2000 Y45.8998
G1 Z0.1000
G1 X11.0764 Y45.8802
G1 X10.9649 Y45.8234
G1 X10.8764 Y45.7349
G1 X10.8196 Y45.6234
G1 X10.8000 Y45.4998

(cogido= e)
(y sanitizado es'e y en hex_font= #0065')
G0 Z2.0000
G0 X12.0000 Y46.7998
G1 Z0.1000
G1 X12.0000 Y48.3998
G1 X11.6000 Y48.3998
G0 Z2.0000
G0 X11.6000 Y46.7998
G1 Z0.1000
G1 X12.6000 Y46.7998
G0 Z2.0000
G0 X13.2000 Y47.3998
G1 Z0.1000
G1 X13.2000 Y48.3998
G0 Z2.0000
G0 X11.6000 Y48.3998
G1 Z0.1000
G1 X11.3528 Y48.3606
G1 X11.1298 Y48.2470
G1 X10.9528 Y48.0700
G1 X10.8392 Y47.8470
G1 X10.8000 Y47.5998
G1 X10.8392 Y47.3526
G1 X10.9528 Y47.1296
G1 X11.1298 Y46.9526
G1 X11.3528 Y46.8389
G1 X11.6000 Y46.7998
G0 Z2.0000
G0 X12.6000 Y46.7998
G1 Z0.1000
G1 X12.7854 Y46.8292
G1 X12.9527 Y46.9144
G1 X13.0854 Y47.0471
G1 X13.1706 Y47.2144
G1 X13.2000 Y47.3998

(cogido= y)
(y sanitizado es'y y en hex_font= #0079')
G0 Z2.0000
G0 X10.8000 Y49.2997
G1 Z0.1000
G1 X13.2000 Y50.0997
G0 Z2.0000
G0 X10.8000 Y50.8998
G1 Z0.1000
G1 X14.1265 Y49.7909
G0 Z2.0000
G0 X14.4000 Y49.4115
G1 Z0.1000
G1 X14.4000 Y49.2997
G0 Z2.0000
G0 X14.4000 Y49.4115
G1 Z0.1000
G1 X14.3807 Y49.5344
G1 X14.3245 Y49.6454
G1 X14.2370 Y49.7338
G1 X14.1265 Y49.7910

(cogido= e)
(y sanitizado es'e y en hex_font= #0065')
G0 Z2.0000
G0 X12.0000 Y51.7999
G1 Z0.1000
G1 X12.0000 Y53.3998
G1 X11.6000 Y53.3998
G0 Z2.0000
G0 X11.6000 Y51.7999
G1 Z0.1000
G1 X12.6000 Y51.7999
G0 Z2.0000
G0 X13.2000 Y52.3998
G1 Z0.1000
G1 X13.2000 Y53.3998
G0 Z2.0000
G0 X11.6000 Y53.3998
G1 Z0.1000
G1 X11.3528 Y53.3607
G1 X11.1298 Y53.2470
G1 X10.9528 Y53.0701
G1 X10.8392 Y52.8470
G1 X10.8000 Y52.5998
G1 X10.8392 Y52.3526
G1 X10.9528 Y52.1296
G1 X11.1298 Y51.9526
G1 X11.3528 Y51.8390
G1 X11.6000 Y51.7998
G0 Z2.0000
G0 X12.6000 Y51.7998
G1 Z0.1000
G1 X12.7854 Y51.8292
G1 X12.9527 Y51.9144
G1 X13.0854 Y52.0472
G1 X13.1706 Y52.2144
G1 X13.2000 Y52.3998

(cogido= n)
(y sanitizado es'n y en hex_font= #006E')
G0 Z2.0000
G0 X13.2000 Y54.2998
G1 Z0.1000
G1 X10.8000 Y54.2998
G1 X10.8000 Y55.2998
G0 Z2.0000
G0 X11.4000 Y55.8998
G1 Z0.1000
G1 X13.2000 Y55.8998
G0 Z2.0000
G0 X11.4000 Y55.8998
G1 Z0.1000
G1 X11.2146 Y55.8705
G1 X11.0473 Y55.7852
G1 X10.9146 Y55.6525
G1 X10.8294 Y55.4852
G1 X10.8000 Y55.2998

(cogido= d)
(y sanitizado es'd y en hex_font= #0064')
G0 Z2.0000
G0 X9.6000 Y58.3998
G1 Z0.1000
G1 X13.2000 Y58.3998
G1 X13.2000 Y57.3998
G0 Z2.0000
G0 X12.6000 Y56.7998
G1 Z0.1000
G1 X11.4000 Y56.7998
G0 Z2.0000
G0 X10.8000 Y57.3998
G1 Z0.1000
G1 X10.8000 Y58.3998
G0 Z2.0000
G0 X12.6000 Y56.7998
G1 Z0.1000
G1 X12.7854 Y56.8292
G1 X12.9527 Y56.9144
G1 X13.0854 Y57.0472
G1 X13.1706 Y57.2144
G1 X13.2000 Y57.3998
G0 Z2.0000
G0 X10.8000 Y57.3998
G1 Z0.1000
G1 X10.8294 Y57.2144
G1 X10.9146 Y57.0472
G1 X11.0473 Y56.9144
G1 X11.2146 Y56.8292
G1 X11.4000 Y56.7998

(cogido= o)
(y sanitizado es'o y en hex_font= #006F')
G0 Z2.0000
G0 X11.6000 Y59.2997
G1 Z0.1000
G1 X12.4000 Y59.2997
G0 Z2.0000
G0 X12.4000 Y60.8998
G1 Z0.1000
G1 X11.6000 Y60.8998
G0 Z2.0000
G0 X12.4000 Y59.2999
G1 Z0.1000
G1 X12.6472 Y59.3390
G1 X12.8702 Y59.4527
G1 X13.0472 Y59.6296
G1 X13.1608 Y59.8527
G1 X13.2000 Y60.0999
G1 X13.1608 Y60.3471
G1 X13.0472 Y60.5701
G1 X12.8702 Y60.7471
G1 X12.6472 Y60.8607
G1 X12.4000 Y60.8999
G0 Z2.0000
G0 X11.6000 Y60.8999
G1 Z0.1000
G1 X11.3528 Y60.8607
G1 X11.1298 Y60.7471
G1 X10.9528 Y60.5701
G1 X10.8392 Y60.3471
G1 X10.8000 Y60.0999
G1 X10.8392 Y59.8527
G1 X10.9528 Y59.6296
G1 X11.1298 Y59.4527
G1 X11.3528 Y59.3390
G1 X11.6000 Y59.2999

(cogido= e)
(y sanitizado es'e y en hex_font= #0065')
G0 Z2.0000
G0 X12.0000 Y65.3999
G1 Z0.1000
G1 X12.0000 Y66.9999
G1 X11.6000 Y66.9999
G0 Z2.0000
G0 X11.6000 Y65.3999
G1 Z0.1000
G1 X12.6000 Y65.3999
G0 Z2.0000
G0 X13.2000 Y65.9999
G1 Z0.1000
G1 X13.2000 Y66.9999
G0 Z2.0000
G0 X11.6000 Y66.9999
G1 Z0.1000
G1 X11.3528 Y66.9607
G1 X11.1298 Y66.8471
G1 X10.9528 Y66.6701
G1 X10.8392 Y66.4471
G1 X10.8000 Y66.1999
G1 X10.8392 Y65.9527
G1 X10.9528 Y65.7296
G1 X11.1298 Y65.5527
G1 X11.3528 Y65.4390
G1 X11.6000 Y65.3999
G0 Z2.0000
G0 X12.6000 Y65.3999
G1 Z0.1000
G1 X12.7854 Y65.4292
G1 X12.9527 Y65.5145
G1 X13.0854 Y65.6472
G1 X13.1706 Y65.8145
G1 X13.2000 Y65.9999

(cogido= n)
(y sanitizado es'n y en hex_font= #006E')
G0 Z2.0000
G0 X13.2000 Y67.8999
G1 Z0.1000
G1 X10.8000 Y67.8999
G1 X10.8000 Y68.8999
G0 Z2.0000
G0 X11.4000 Y69.4999
G1 Z0.1000
G1 X13.2000 Y69.4999
G0 Z2.0000
G0 X11.4000 Y69.4999
G1 Z0.1000
G1 X11.2146 Y69.4705
G1 X11.0473 Y69.3853
G1 X10.9146 Y69.2525
G1 X10.8294 Y69.0853
G1 X10.8000 Y68.8999

(cogido= t)
(y sanitizado es't y en hex_font= #0074')
G0 Z2.0000
G0 X10.8000 Y73.9999
G1 Z0.1000
G1 X10.8000 Y75.1998
G0 Z2.0000
G0 X9.6000 Y74.3999
G1 Z0.1000
G1 X13.2000 Y74.3999

(cogido= i)
(y sanitizado es'i y en hex_font= #0069')
G0 Z2.0000
G0 X13.2000 Y76.0998
G1 Z0.1000
G1 X10.8000 Y76.0998
G0 Z2.0000
G0 X9.8000 Y76.0998
G1 Z0.1000
G1 X9.6000 Y76.0998

(cogido= m)
(y sanitizado es'm y en hex_font= #006D')
G0 Z2.0000
G0 X13.2000 Y80.5998
G1 Z0.1000
G1 X10.8000 Y80.5998
G1 X10.8000 Y82.3998
G0 Z2.0000
G0 X11.4000 Y82.9998
G1 Z0.1000
G1 X13.2000 Y82.9998
G0 Z2.0000
G0 X10.8000 Y81.7998
G1 Z0.1000
G1 X13.2000 Y81.7998
G0 Z2.0000
G0 X11.4000 Y82.9998
G1 Z0.1000
G1 X11.2146 Y82.9704
G1 X11.0473 Y82.8852
G1 X10.9146 Y82.7525
G1 X10.8294 Y82.5852
G1 X10.8000 Y82.3998

(cogido= i)
(y sanitizado es'i y en hex_font= #0069')
G0 Z2.0000
G0 X13.2000 Y83.8997
G1 Z0.1000
G1 X10.8000 Y83.8997
G0 Z2.0000
G0 X9.8000 Y83.8997
G1 Z0.1000
G1 X9.6000 Y83.8997

(cogido= s)
(y sanitizado es's y en hex_font= #0073')
G0 Z2.0000
G0 X11.8308 Y85.1255
G1 Z0.1000
G1 X12.2180 Y86.0739
G0 Z2.0000
G0 X11.0244 Y86.3998
G1 Z0.1000
G1 X10.8833 Y85.9985
G1 X10.8513 Y85.5744
G1 X10.9306 Y85.1565
G1 X11.0092 Y85.0101
G1 X11.1330 Y84.8993
G1 X11.2871 Y84.8374
G1 X11.4532 Y84.8317
G1 X11.6112 Y84.8829
G1 X11.7423 Y84.9849
G1 X11.8308 Y85.1255
G0 Z2.0000
G0 X13.1181 Y86.0431
G1 Z0.1000
G1 X13.0395 Y86.1894
G1 X12.9157 Y86.3002
G1 X12.7616 Y86.3622
G1 X12.5956 Y86.3679
G1 X12.4375 Y86.3166
G1 X12.3064 Y86.2146
G1 X12.2180 Y86.0740
G0 Z2.0000
G0 X13.0244 Y84.7997
G1 Z0.1000
G1 X13.1655 Y85.2009
G1 X13.1974 Y85.6251
G1 X13.1181 Y86.0430

(cogido= m)
(y sanitizado es'm y en hex_font= #006D')
G0 Z2.0000
G0 X13.2000 Y87.2998
G1 Z0.1000
G1 X10.8000 Y87.2998
G1 X10.8000 Y89.0998
G0 Z2.0000
G0 X11.4000 Y89.6998
G1 Z0.1000
G1 X13.2000 Y89.6998
G0 Z2.0000
G0 X10.8000 Y88.4998
G1 Z0.1000
G1 X13.2000 Y88.4998
G0 Z2.0000
G0 X11.4000 Y89.6998
G1 Z0.1000
G1 X11.2146 Y89.6704
G1 X11.0473 Y89.5852
G1 X10.9146 Y89.4524
G1 X10.8294 Y89.2852
G1 X10.8000 Y89.0998

(cogido= o)
(y sanitizado es'o y en hex_font= #006F')
G0 Z2.0000
G0 X11.6000 Y90.5997
G1 Z0.1000
G1 X12.4000 Y90.5997
G0 Z2.0000
G0 X12.4000 Y92.1998
G1 Z0.1000
G1 X11.6000 Y92.1998
G0 Z2.0000
G0 X12.4000 Y90.5998
G1 Z0.1000
G1 X12.6472 Y90.6390
G1 X12.8702 Y90.7526
G1 X13.0472 Y90.9296
G1 X13.1608 Y91.1526
G1 X13.2000 Y91.3998
G1 X13.1608 Y91.6470
G1 X13.0472 Y91.8700
G1 X12.8702 Y92.0470
G1 X12.6472 Y92.1606
G1 X12.4000 Y92.1998
G0 Z2.0000
G0 X11.6000 Y92.1998
G1 Z0.1000
G1 X11.3528 Y92.1606
G1 X11.1298 Y92.0470
G1 X10.9528 Y91.8700
G1 X10.8392 Y91.6470
G1 X10.8000 Y91.3998
G1 X10.8392 Y91.1526
G1 X10.9528 Y90.9296
G1 X11.1298 Y90.7526
G1 X11.3528 Y90.6390
G1 X11.6000 Y90.5998

(cogido= c)
(y sanitizado es'c y en hex_font= #0063')
G0 Z2.0000
G0 X10.8000 Y97.8998
G1 Z0.1000
G1 X10.8000 Y97.2998
G0 Z2.0000
G0 X11.4000 Y96.6998
G1 Z0.1000
G1 X12.6000 Y96.6998
G0 Z2.0000
G0 X13.2000 Y97.2998
G1 Z0.1000
G1 X13.2000 Y97.8998
G0 Z2.0000
G0 X10.8000 Y97.2998
G1 Z0.1000
G1 X10.8294 Y97.1144
G1 X10.9146 Y96.9471
G1 X11.0473 Y96.8144
G1 X11.2146 Y96.7292
G1 X11.4000 Y96.6998
G0 Z2.0000
G0 X12.6000 Y96.6998
G1 Z0.1000
G1 X12.7854 Y96.7292
G1 X12.9527 Y96.8144
G1 X13.0854 Y96.9471
G1 X13.1706 Y97.1144
G1 X13.2000 Y97.2998

(cogido= u)
(y sanitizado es'u y en hex_font= #0075')
G0 Z2.0000
G0 X10.8000 Y98.7998
G1 Z0.1000
G1 X12.6000 Y98.7998
G0 Z2.0000
G0 X13.2000 Y99.3998
G1 Z0.1000
G1 X13.2000 Y100.3998
G1 X10.8000 Y100.3998
G0 Z2.0000
G0 X12.6000 Y98.7998
G1 Z0.1000
G1 X12.7854 Y98.8292
G1 X12.9527 Y98.9144
G1 X13.0854 Y99.0471
G1 X13.1706 Y99.2144
G1 X13.2000 Y99.3998

(cogido= a)
(y sanitizado es'a y en hex_font= #0061')
G0 Z2.0000
G0 X10.8000 Y101.4998
G1 Z0.1000
G1 X10.8000 Y102.2998
G0 Z2.0000
G0 X11.4000 Y102.8998
G1 Z0.1000
G1 X13.2000 Y102.8998
G1 X13.2000 Y101.8998
G0 Z2.0000
G0 X12.0000 Y101.8998
G1 Z0.1000
G1 X12.0000 Y102.8998
G0 Z2.0000
G0 X11.4000 Y102.8998
G1 Z0.1000
G1 X11.2146 Y102.8704
G1 X11.0473 Y102.7852
G1 X10.9146 Y102.6524
G1 X10.8294 Y102.4852
G1 X10.8000 Y102.2998
G0 Z2.0000
G0 X12.0000 Y101.8998
G1 Z0.1000
G1 X12.0294 Y101.7143
G1 X12.1146 Y101.5471
G1 X12.2473 Y101.4143
G1 X12.4146 Y101.3291
G1 X12.6000 Y101.2998
G1 X12.7854 Y101.3291
G1 X12.9527 Y101.4143
G1 X13.0854 Y101.5471
G1 X13.1706 Y101.7143
G1 X13.2000 Y101.8998

(cogido= n)
(y sanitizado es'n y en hex_font= #006E')
G0 Z2.0000
G0 X13.2000 Y103.7998
G1 Z0.1000
G1 X10.8000 Y103.7998
G1 X10.8000 Y104.7998
G0 Z2.0000
G0 X11.4000 Y105.3998
G1 Z0.1000
G1 X13.2000 Y105.3998
G0 Z2.0000
G0 X11.4000 Y105.3998
G1 Z0.1000
G1 X11.2146 Y105.3704
G1 X11.0473 Y105.2852
G1 X10.9146 Y105.1524
G1 X10.8294 Y104.9852
G1 X10.8000 Y104.7998

(cogido= d)
(y sanitizado es'd y en hex_font= #0064')
G0 Z2.0000
G0 X9.6000 Y107.8998
G1 Z0.1000
G1 X13.2000 Y107.8998
G1 X13.2000 Y106.8998
G0 Z2.0000
G0 X12.6000 Y106.2998
G1 Z0.1000
G1 X11.4000 Y106.2998
G0 Z2.0000
G0 X10.8000 Y106.8998
G1 Z0.1000
G1 X10.8000 Y107.8998
G0 Z2.0000
G0 X12.6000 Y106.2998
G1 Z0.1000
G1 X12.7854 Y106.3291
G1 X12.9527 Y106.4143
G1 X13.0854 Y106.5471
G1 X13.1706 Y106.7143
G1 X13.2000 Y106.8998
G0 Z2.0000
G0 X10.8000 Y106.8998
G1 Z0.1000
G1 X10.8294 Y106.7143
G1 X10.9146 Y106.5471
G1 X11.0473 Y106.4143
G1 X11.2146 Y106.3291
G1 X11.4000 Y106.2998

(cogido= o)
(y sanitizado es'o y en hex_font= #006F')
G0 Z2.0000
G0 X11.6000 Y108.7997
G1 Z0.1000
G1 X12.4000 Y108.7997
G0 Z2.0000
G0 X12.4000 Y110.3998
G1 Z0.1000
G1 X11.6000 Y110.3998
G0 Z2.0000
G0 X12.4000 Y108.7998
G1 Z0.1000
G1 X12.6472 Y108.8390
G1 X12.8702 Y108.9526
G1 X13.0472 Y109.1296
G1 X13.1608 Y109.3526
G1 X13.2000 Y109.5998
G1 X13.1608 Y109.8470
G1 X13.0472 Y110.0700
G1 X12.8702 Y110.2470
G1 X12.6472 Y110.3606
G1 X12.4000 Y110.3998
G0 Z2.0000
G0 X11.6000 Y110.3998
G1 Z0.1000
G1 X11.3528 Y110.3606
G1 X11.1298 Y110.2470
G1 X10.9528 Y110.0700
G1 X10.8392 Y109.8470
G1 X10.8000 Y109.5998
G1 X10.8392 Y109.3526
G1 X10.9528 Y109.1296
G1 X11.1298 Y108.9526
G1 X11.3528 Y108.8390
G1 X11.6000 Y108.7998

(cogido= t)
(y sanitizado es't y en hex_font= #0074')
G0 Z2.0000
G0 X10.8000 Y114.8998
G1 Z0.1000
G1 X10.8000 Y116.0998
G0 Z2.0000
G0 X9.6000 Y115.2998
G1 Z0.1000
G1 X13.2000 Y115.2998

(cogido= o)
(y sanitizado es'o y en hex_font= #006F')
G0 Z2.0000
G0 X11.6000 Y116.9997
G1 Z0.1000
G1 X12.4000 Y116.9997
G0 Z2.0000
G0 X12.4000 Y118.5998
G1 Z0.1000
G1 X11.6000 Y118.5998
G0 Z2.0000
G0 X12.4000 Y116.9998
G1 Z0.1000
G1 X12.6472 Y117.0390
G1 X12.8702 Y117.1526
G1 X13.0472 Y117.3296
G1 X13.1608 Y117.5526
G1 X13.2000 Y117.7998
G1 X13.1608 Y118.0470
G1 X13.0472 Y118.2700
G1 X12.8702 Y118.4470
G1 X12.6472 Y118.5606
G1 X12.4000 Y118.5998
G0 Z2.0000
G0 X11.6000 Y118.5998
G1 Z0.1000
G1 X11.3528 Y118.5606
G1 X11.1298 Y118.4470
G1 X10.9528 Y118.2700
G1 X10.8392 Y118.0470
G1 X10.8000 Y117.7998
G1 X10.8392 Y117.5526
G1 X10.9528 Y117.3296
G1 X11.1298 Y117.1526
G1 X11.3528 Y117.0390
G1 X11.6000 Y116.9998

(cogido= d)
(y sanitizado es'd y en hex_font= #0064')
G0 Z2.0000
G0 X9.6000 Y121.0998
G1 Z0.1000
G1 X13.2000 Y121.0998
G1 X13.2000 Y120.0998
G0 Z2.0000
G0 X12.6000 Y119.4998
G1 Z0.1000
G1 X11.4000 Y119.4998
G0 Z2.0000
G0 X10.8000 Y120.0998
G1 Z0.1000
G1 X10.8000 Y121.0998
G0 Z2.0000
G0 X12.6000 Y119.4998
G1 Z0.1000
G1 X12.7854 Y119.5292
G1 X12.9527 Y119.6144
G1 X13.0854 Y119.7471
G1 X13.1706 Y119.9144
G1 X13.2000 Y120.0998
G0 Z2.0000
G0 X10.8000 Y120.0998
G1 Z0.1000
G1 X10.8294 Y119.9144
G1 X10.9146 Y119.7471
G1 X11.0473 Y119.6144
G1 X11.2146 Y119.5292
G1 X11.4000 Y119.4998

(cogido= o)
(y sanitizado es'o y en hex_font= #006F')
G0 Z2.0000
G0 X11.6000 Y121.9997
G1 Z0.1000
G1 X12.4000 Y121.9997
G0 Z2.0000
G0 X12.4000 Y123.5998
G1 Z0.1000
G1 X11.6000 Y123.5998
G0 Z2.0000
G0 X12.4000 Y121.9998
G1 Z0.1000
G1 X12.6472 Y122.0390
G1 X12.8702 Y122.1526
G1 X13.0472 Y122.3296
G1 X13.1608 Y122.5526
G1 X13.2000 Y122.7998
G1 X13.1608 Y123.0470
G1 X13.0472 Y123.2701
G1 X12.8702 Y123.4470
G1 X12.6472 Y123.5607
G1 X12.4000 Y123.5998
G0 Z2.0000
G0 X11.6000 Y123.5998
G1 Z0.1000
G1 X11.3528 Y123.5607
G1 X11.1298 Y123.4470
G1 X10.9528 Y123.2701
G1 X10.8392 Y123.0470
G1 X10.8000 Y122.7998
G1 X10.8392 Y122.5526
G1 X10.9528 Y122.3296
G1 X11.1298 Y122.1526
G1 X11.3528 Y122.0390
G1 X11.6000 Y121.9998

(cogido= s)
(y sanitizado es's y en hex_font= #0073')
G0 Z2.0000
G0 X11.8308 Y124.8256
G1 Z0.1000
G1 X12.2180 Y125.7740
G0 Z2.0000
G0 X11.0244 Y126.0998
G1 Z0.1000
G1 X10.8833 Y125.6986
G1 X10.8513 Y125.2745
G1 X10.9306 Y124.8566
G1 X11.0092 Y124.7102
G1 X11.1330 Y124.5994
G1 X11.2871 Y124.5374
G1 X11.4532 Y124.5317
G1 X11.6112 Y124.5830
G1 X11.7423 Y124.6850
G1 X11.8308 Y124.8256
G0 Z2.0000
G0 X13.1181 Y125.7432
G1 Z0.1000
G1 X13.0395 Y125.8895
G1 X12.9157 Y126.0003
G1 X12.7616 Y126.0623
G1 X12.5956 Y126.0680
G1 X12.4375 Y126.0167
G1 X12.3064 Y125.9147
G1 X12.2180 Y125.7741
G0 Z2.0000
G0 X13.0244 Y124.4998
G1 Z0.1000
G1 X13.1655 Y124.9010
G1 X13.1974 Y125.3252
G1 X13.1181 Y125.7430

(cogido= d)
(y sanitizado es'd y en hex_font= #0064')
G0 Z2.0000
G0 X9.6000 Y132.1998
G1 Z0.1000
G1 X13.2000 Y132.1998
G1 X13.2000 Y131.1998
G0 Z2.0000
G0 X12.6000 Y130.5998
G1 Z0.1000
G1 X11.4000 Y130.5998
G0 Z2.0000
G0 X10.8000 Y131.1998
G1 Z0.1000
G1 X10.8000 Y132.1998
G0 Z2.0000
G0 X12.6000 Y130.5998
G1 Z0.1000
G1 X12.7854 Y130.6292
G1 X12.9527 Y130.7144
G1 X13.0854 Y130.8472
G1 X13.1706 Y131.0144
G1 X13.2000 Y131.1998
G0 Z2.0000
G0 X10.8000 Y131.1998
G1 Z0.1000
G1 X10.8294 Y131.0144
G1 X10.9146 Y130.8472
G1 X11.0473 Y130.7144
G1 X11.2146 Y130.6292
G1 X11.4000 Y130.5998

(cogido= u)
(y sanitizado es'u y en hex_font= #0075')
G0 Z2.0000
G0 X10.8000 Y133.0998
G1 Z0.1000
G1 X12.6000 Y133.0998
G0 Z2.0000
G0 X13.2000 Y133.6998
G1 Z0.1000
G1 X13.2000 Y134.6998
G1 X10.8000 Y134.6998
G0 Z2.0000
G0 X12.6000 Y133.0998
G1 Z0.1000
G1 X12.7854 Y133.1292
G1 X12.9527 Y133.2144
G1 X13.0854 Y133.3472
G1 X13.1706 Y133.5144
G1 X13.2000 Y133.6998

(cogido= d)
(y sanitizado es'd y en hex_font= #0064')
G0 Z2.0000
G0 X9.6000 Y137.1998
G1 Z0.1000
G1 X13.2000 Y137.1998
G1 X13.2000 Y136.1998
G0 Z2.0000
G0 X12.6000 Y135.5998
G1 Z0.1000
G1 X11.4000 Y135.5998
G0 Z2.0000
G0 X10.8000 Y136.1998
G1 Z0.1000
G1 X10.8000 Y137.1998
G0 Z2.0000
G0 X12.6000 Y135.5998
G1 Z0.1000
G1 X12.7854 Y135.6292
G1 X12.9527 Y135.7144
G1 X13.0854 Y135.8472
G1 X13.1706 Y136.0144
G1 X13.2000 Y136.1998
G0 Z2.0000
G0 X10.8000 Y136.1998
G1 Z0.1000
G1 X10.8294 Y136.0144
G1 X10.9146 Y135.8472
G1 X11.0473 Y135.7144
G1 X11.2146 Y135.6292
G1 X11.4000 Y135.5998

(cogido= a)
(y sanitizado es'a y en hex_font= #0061')
G0 Z2.0000
G0 X10.8000 Y138.2998
G1 Z0.1000
G1 X10.8000 Y139.0998
G0 Z2.0000
G0 X11.4000 Y139.6998
G1 Z0.1000
G1 X13.2000 Y139.6998
G1 X13.2000 Y138.6998
G0 Z2.0000
G0 X12.0000 Y138.6998
G1 Z0.1000
G1 X12.0000 Y139.6998
G0 Z2.0000
G0 X11.4000 Y139.6998
G1 Z0.1000
G1 X11.2146 Y139.6704
G1 X11.0473 Y139.5852
G1 X10.9146 Y139.4525
G1 X10.8294 Y139.2852
G1 X10.8000 Y139.0998
G0 Z2.0000
G0 X12.0000 Y138.6998
G1 Z0.1000
G1 X12.0294 Y138.5144
G1 X12.1146 Y138.3471
G1 X12.2473 Y138.2144
G1 X12.4146 Y138.1292
G1 X12.6000 Y138.0998
G1 X12.7854 Y138.1292
G1 X12.9527 Y138.2144
G1 X13.0854 Y138.3471
G1 X13.1706 Y138.5144
G1 X13.2000 Y138.6998

(cogido= n)
(y sanitizado es'n y en hex_font= #006E')
G0 Z2.0000
G0 X13.2000 Y140.5998
G1 Z0.1000
G1 X10.8000 Y140.5998
G1 X10.8000 Y141.5998
G0 Z2.0000
G0 X11.4000 Y142.1998
G1 Z0.1000
G1 X13.2000 Y142.1998
G0 Z2.0000
G0 X11.4000 Y142.1998
G1 Z0.1000
G1 X11.2146 Y142.1704
G1 X11.0473 Y142.0852
G1 X10.9146 Y141.9525
G1 X10.8294 Y141.7852
G1 X10.8000 Y141.5998

(cogido= d)
(y sanitizado es'd y en hex_font= #0064')
G0 Z2.0000
G0 X9.6000 Y148.2998
G1 Z0.1000
G1 X13.2000 Y148.2998
G1 X13.2000 Y147.2998
G0 Z2.0000
G0 X12.6000 Y146.6998
G1 Z0.1000
G1 X11.4000 Y146.6998
G0 Z2.0000
G0 X10.8000 Y147.2998
G1 Z0.1000
G1 X10.8000 Y148.2998
G0 Z2.0000
G0 X12.6000 Y146.6998
G1 Z0.1000
G1 X12.7854 Y146.7292
G1 X12.9527 Y146.8144
G1 X13.0854 Y146.9471
G1 X13.1706 Y147.1144
G1 X13.2000 Y147.2998
G0 Z2.0000
G0 X10.8000 Y147.2998
G1 Z0.1000
G1 X10.8294 Y147.1144
G1 X10.9146 Y146.9471
G1 X11.0473 Y146.8144
G1 X11.2146 Y146.7292
G1 X11.4000 Y146.6998

(cogido= e)
(y sanitizado es'e y en hex_font= #0065')
G0 Z2.0000
G0 X12.0000 Y149.1998
G1 Z0.1000
G1 X12.0000 Y150.7998
G1 X11.6000 Y150.7998
G0 Z2.0000
G0 X11.6000 Y149.1998
G1 Z0.1000
G1 X12.6000 Y149.1998
G0 Z2.0000
G0 X13.2000 Y149.7998
G1 Z0.1000
G1 X13.2000 Y150.7998
G0 Z2.0000
G0 X11.6000 Y150.7998
G1 Z0.1000
G1 X11.3528 Y150.7607
G1 X11.1298 Y150.6470
G1 X10.9528 Y150.4700
G1 X10.8392 Y150.2470
G1 X10.8000 Y149.9998
G1 X10.8392 Y149.7526
G1 X10.9528 Y149.5296
G1 X11.1298 Y149.3526
G1 X11.3528 Y149.2390
G1 X11.6000 Y149.1998
G0 Z2.0000
G0 X12.6000 Y149.1998
G1 Z0.1000
G1 X12.7854 Y149.2292
G1 X12.9527 Y149.3144
G1 X13.0854 Y149.4471
G1 X13.1706 Y149.6144
G1 X13.2000 Y149.7998

(cogido= t)
(y sanitizado es't y en hex_font= #0074')
G0 Z2.0000
G0 X10.8000 Y155.2998
G1 Z0.1000
G1 X10.8000 Y156.4998
G0 Z2.0000
G0 X9.6000 Y155.6998
G1 Z0.1000
G1 X13.2000 Y155.6998

(cogido= i)
(y sanitizado es'i y en hex_font= #0069')
G0 Z2.0000
G0 X13.2000 Y157.3997
G1 Z0.1000
G1 X10.8000 Y157.3997
G0 Z2.0000
G0 X9.8000 Y157.3997
G1 Z0.1000
G1 X9.6000 Y157.3997

(cogido= ,)
(y sanitizado es', y en hex_font= #002C')
G0 Z2.0000
G0 X13.2000 Y158.6997
G1 Z0.1000
G1 X14.4000 Y158.2997
G0 Z2.0000
G0 X13.2000 Y158.6997
G1 Z0.1000
G1 X13.0000 Y158.6997

G0 Z2.0000
(===================================================================)
( Line 4 )
( Grabando: pero tambin aceptas que tengan dudas." )
(===================================================================)
(cogido= p)
(y sanitizado es'p y en hex_font= #0070')
G0 Z2.0000
G0 X17.6000 Y-0.0000
G1 Z0.1000
G1 X17.6000 Y0.9999
G0 Z2.0000
G0 X17.0000 Y1.5999
G1 Z0.1000
G1 X15.8000 Y1.5999
G0 Z2.0000
G0 X15.2000 Y0.9999
G1 Z0.1000
G1 X15.2000 Y-0.0000
G1 X18.8000 Y-0.0000
G0 Z2.0000
G0 X17.6000 Y0.9999
G1 Z0.1000
G1 X17.5706 Y1.1853
G1 X17.4854 Y1.3526
G1 X17.3527 Y1.4853
G1 X17.1854 Y1.5706
G1 X17.0000 Y1.5999
G0 Z2.0000
G0 X15.8000 Y1.5999
G1 Z0.1000
G1 X15.6146 Y1.5706
G1 X15.4473 Y1.4853
G1 X15.3146 Y1.3526
G1 X15.2294 Y1.1853
G1 X15.2000 Y0.9999

(cogido= e)
(y sanitizado es'e y en hex_font= #0065')
G0 Z2.0000
G0 X16.4000 Y2.5000
G1 Z0.1000
G1 X16.4000 Y4.0999
G1 X16.0000 Y4.0999
G0 Z2.0000
G0 X16.0000 Y2.5000
G1 Z0.1000
G1 X17.0000 Y2.5000
G0 Z2.0000
G0 X17.6000 Y3.0999
G1 Z0.1000
G1 X17.6000 Y4.0999
G0 Z2.0000
G0 X16.0000 Y4.0999
G1 Z0.1000
G1 X15.7528 Y4.0608
G1 X15.5298 Y3.9471
G1 X15.3528 Y3.7701
G1 X15.2392 Y3.5471
G1 X15.2000 Y3.2999
G1 X15.2392 Y3.0527
G1 X15.3528 Y2.8297
G1 X15.5298 Y2.6527
G1 X15.7528 Y2.5391
G1 X16.0000 Y2.4999
G0 Z2.0000
G0 X17.0000 Y2.4999
G1 Z0.1000
G1 X17.1854 Y2.5293
G1 X17.3527 Y2.6145
G1 X17.4854 Y2.7472
G1 X17.5706 Y2.9145
G1 X17.6000 Y3.0999

(cogido= r)
(y sanitizado es'r y en hex_font= #0072')
G0 Z2.0000
G0 X17.6000 Y4.9999
G1 Z0.1000
G1 X15.2000 Y4.9999
G1 X15.2000 Y5.7999
G0 Z2.0000
G0 X15.6000 Y6.1999
G1 Z0.1000
G1 X15.4764 Y6.1803
G1 X15.3649 Y6.1235
G1 X15.2764 Y6.0350
G1 X15.2196 Y5.9235
G1 X15.2000 Y5.7999

(cogido= o)
(y sanitizado es'o y en hex_font= #006F')
G0 Z2.0000
G0 X16.0000 Y7.0998
G1 Z0.1000
G1 X16.8000 Y7.0998
G0 Z2.0000
G0 X16.8000 Y8.6999
G1 Z0.1000
G1 X16.0000 Y8.6999
G0 Z2.0000
G0 X16.8000 Y7.0999
G1 Z0.1000
G1 X17.0472 Y7.1391
G1 X17.2702 Y7.2527
G1 X17.4472 Y7.4297
G1 X17.5608 Y7.6527
G1 X17.6000 Y7.8999
G1 X17.5608 Y8.1471
G1 X17.4472 Y8.3701
G1 X17.2702 Y8.5471
G1 X17.0472 Y8.6608
G1 X16.8000 Y8.6999
G0 Z2.0000
G0 X16.0000 Y8.6999
G1 Z0.1000
G1 X15.7528 Y8.6608
G1 X15.5298 Y8.5471
G1 X15.3528 Y8.3701
G1 X15.2392 Y8.1471
G1 X15.2000 Y7.8999
G1 X15.2392 Y7.6527
G1 X15.3528 Y7.4297
G1 X15.5298 Y7.2527
G1 X15.7528 Y7.1391
G1 X16.0000 Y7.0999

(cogido= t)
(y sanitizado es't y en hex_font= #0074')
G0 Z2.0000
G0 X15.2000 Y13.1999
G1 Z0.1000
G1 X15.2000 Y14.3999
G0 Z2.0000
G0 X14.0000 Y13.5999
G1 Z0.1000
G1 X17.6000 Y13.5999

(cogido= a)
(y sanitizado es'a y en hex_font= #0061')
G0 Z2.0000
G0 X15.2000 Y15.4999
G1 Z0.1000
G1 X15.2000 Y16.2998
G0 Z2.0000
G0 X15.8000 Y16.8998
G1 Z0.1000
G1 X17.6000 Y16.8998
G1 X17.6000 Y15.8998
G0 Z2.0000
G0 X16.4000 Y15.8998
G1 Z0.1000
G1 X16.4000 Y16.8998
G0 Z2.0000
G0 X15.8000 Y16.8998
G1 Z0.1000
G1 X15.6146 Y16.8705
G1 X15.4473 Y16.7853
G1 X15.3146 Y16.6525
G1 X15.2294 Y16.4853
G1 X15.2000 Y16.2998
G0 Z2.0000
G0 X16.4000 Y15.8998
G1 Z0.1000
G1 X16.4294 Y15.7144
G1 X16.5146 Y15.5472
G1 X16.6473 Y15.4144
G1 X16.8146 Y15.3292
G1 X17.0000 Y15.2998
G1 X17.1854 Y15.3292
G1 X17.3527 Y15.4144
G1 X17.4854 Y15.5472
G1 X17.5706 Y15.7144
G1 X17.6000 Y15.8998

(cogido= m)
(y sanitizado es'm y en hex_font= #006D')
G0 Z2.0000
G0 X17.6000 Y17.7998
G1 Z0.1000
G1 X15.2000 Y17.7998
G1 X15.2000 Y19.5998
G0 Z2.0000
G0 X15.8000 Y20.1998
G1 Z0.1000
G1 X17.6000 Y20.1998
G0 Z2.0000
G0 X15.2000 Y18.9998
G1 Z0.1000
G1 X17.6000 Y18.9998
G0 Z2.0000
G0 X15.8000 Y20.1998
G1 Z0.1000
G1 X15.6146 Y20.1705
G1 X15.4473 Y20.0853
G1 X15.3146 Y19.9525
G1 X15.2294 Y19.7853
G1 X15.2000 Y19.5998

(cogido= b)
(y sanitizado es'b y en hex_font= #0062')
G0 Z2.0000
G0 X14.0000 Y21.0998
G1 Z0.1000
G1 X17.6000 Y21.0998
G1 X17.6000 Y22.0998
G0 Z2.0000
G0 X17.0000 Y22.6998
G1 Z0.1000
G1 X15.8000 Y22.6998
G0 Z2.0000
G0 X15.2000 Y22.0998
G1 Z0.1000
G1 X15.2000 Y21.0998
G0 Z2.0000
G0 X17.6000 Y22.0998
G1 Z0.1000
G1 X17.5706 Y22.2853
G1 X17.4854 Y22.4525
G1 X17.3527 Y22.5853
G1 X17.1854 Y22.6705
G1 X17.0000 Y22.6998
G0 Z2.0000
G0 X15.8000 Y22.6998
G1 Z0.1000
G1 X15.6146 Y22.6705
G1 X15.4473 Y22.5853
G1 X15.3146 Y22.4525
G1 X15.2294 Y22.2853
G1 X15.2000 Y22.0998

(cogido= i)
(y sanitizado es'i y en hex_font= #0069')
G0 Z2.0000
G0 X17.6000 Y23.5998
G1 Z0.1000
G1 X15.2000 Y23.5998
G0 Z2.0000
G0 X14.2000 Y23.5998
G1 Z0.1000
G1 X14.0000 Y23.5998

(cogido= )
(y sanitizado es' y en hex_font= #00E9')
G0 Z2.0000
G0 X16.4000 Y24.4997
G1 Z0.1000
G1 X16.4000 Y26.0997
G1 X16.0000 Y26.0997
G0 Z2.0000
G0 X16.0000 Y24.4997
G1 Z0.1000
G1 X17.0000 Y24.4997
G0 Z2.0000
G0 X17.6000 Y25.0998
G1 Z0.1000
G1 X17.6000 Y26.0997
G0 Z2.0000
G0 X16.0000 Y26.0997
G1 Z0.1000
G1 X15.7528 Y26.0606
G1 X15.5298 Y25.9469
G1 X15.3528 Y25.7699
G1 X15.2392 Y25.5469
G1 X15.2000 Y25.2997
G1 X15.2392 Y25.0525
G1 X15.3528 Y24.8295
G1 X15.5298 Y24.6525
G1 X15.7528 Y24.5389
G1 X16.0000 Y24.4997
G0 Z2.0000
G0 X17.0000 Y24.4998
G1 Z0.1000
G1 X17.1854 Y24.5292
G1 X17.3527 Y24.6144
G1 X17.4854 Y24.7472
G1 X17.5706 Y24.9144
G1 X17.6000 Y25.0998
G0 Z2.0000
G0 X14.8000 Y24.8997
G1 Z0.1000
G1 X14.0000 Y25.6997

(cogido= n)
(y sanitizado es'n y en hex_font= #006E')
G0 Z2.0000
G0 X17.6000 Y26.9997
G1 Z0.1000
G1 X15.2000 Y26.9997
G1 X15.2000 Y27.9997
G0 Z2.0000
G0 X15.8000 Y28.5997
G1 Z0.1000
G1 X17.6000 Y28.5997
G0 Z2.0000
G0 X15.8000 Y28.5997
G1 Z0.1000
G1 X15.6146 Y28.5704
G1 X15.4473 Y28.4851
G1 X15.3146 Y28.3524
G1 X15.2294 Y28.1851
G1 X15.2000 Y27.9997

(cogido= a)
(y sanitizado es'a y en hex_font= #0061')
G0 Z2.0000
G0 X15.2000 Y33.2997
G1 Z0.1000
G1 X15.2000 Y34.0997
G0 Z2.0000
G0 X15.8000 Y34.6997
G1 Z0.1000
G1 X17.6000 Y34.6997
G1 X17.6000 Y33.6997
G0 Z2.0000
G0 X16.4000 Y33.6997
G1 Z0.1000
G1 X16.4000 Y34.6997
G0 Z2.0000
G0 X15.8000 Y34.6997
G1 Z0.1000
G1 X15.6146 Y34.6703
G1 X15.4473 Y34.5851
G1 X15.3146 Y34.4524
G1 X15.2294 Y34.2851
G1 X15.2000 Y34.0997
G0 Z2.0000
G0 X16.4000 Y33.6997
G1 Z0.1000
G1 X16.4294 Y33.5143
G1 X16.5146 Y33.3470
G1 X16.6473 Y33.2143
G1 X16.8146 Y33.1290
G1 X17.0000 Y33.0997
G1 X17.1854 Y33.1290
G1 X17.3527 Y33.2143
G1 X17.4854 Y33.3470
G1 X17.5706 Y33.5143
G1 X17.6000 Y33.6997

(cogido= c)
(y sanitizado es'c y en hex_font= #0063')
G0 Z2.0000
G0 X15.2000 Y36.7997
G1 Z0.1000
G1 X15.2000 Y36.1997
G0 Z2.0000
G0 X15.8000 Y35.5997
G1 Z0.1000
G1 X17.0000 Y35.5997
G0 Z2.0000
G0 X17.6000 Y36.1997
G1 Z0.1000
G1 X17.6000 Y36.7997
G0 Z2.0000
G0 X15.2000 Y36.1997
G1 Z0.1000
G1 X15.2294 Y36.0143
G1 X15.3146 Y35.8470
G1 X15.4473 Y35.7143
G1 X15.6146 Y35.6290
G1 X15.8000 Y35.5997
G0 Z2.0000
G0 X17.0000 Y35.5997
G1 Z0.1000
G1 X17.1854 Y35.6290
G1 X17.3527 Y35.7143
G1 X17.4854 Y35.8470
G1 X17.5706 Y36.0143
G1 X17.6000 Y36.1997

(cogido= e)
(y sanitizado es'e y en hex_font= #0065')
G0 Z2.0000
G0 X16.4000 Y37.6997
G1 Z0.1000
G1 X16.4000 Y39.2997
G1 X16.0000 Y39.2997
G0 Z2.0000
G0 X16.0000 Y37.6997
G1 Z0.1000
G1 X17.0000 Y37.6997
G0 Z2.0000
G0 X17.6000 Y38.2997
G1 Z0.1000
G1 X17.6000 Y39.2997
G0 Z2.0000
G0 X16.0000 Y39.2997
G1 Z0.1000
G1 X15.7528 Y39.2605
G1 X15.5298 Y39.1469
G1 X15.3528 Y38.9699
G1 X15.2392 Y38.7469
G1 X15.2000 Y38.4997
G1 X15.2392 Y38.2525
G1 X15.3528 Y38.0295
G1 X15.5298 Y37.8525
G1 X15.7528 Y37.7388
G1 X16.0000 Y37.6997
G0 Z2.0000
G0 X17.0000 Y37.6997
G1 Z0.1000
G1 X17.1854 Y37.7290
G1 X17.3527 Y37.8143
G1 X17.4854 Y37.9470
G1 X17.5706 Y38.1143
G1 X17.6000 Y38.2997

(cogido= p)
(y sanitizado es'p y en hex_font= #0070')
G0 Z2.0000
G0 X17.6000 Y40.1996
G1 Z0.1000
G1 X17.6000 Y41.1996
G0 Z2.0000
G0 X17.0000 Y41.7996
G1 Z0.1000
G1 X15.8000 Y41.7996
G0 Z2.0000
G0 X15.2000 Y41.1996
G1 Z0.1000
G1 X15.2000 Y40.1996
G1 X18.8000 Y40.1996
G0 Z2.0000
G0 X17.6000 Y41.1996
G1 Z0.1000
G1 X17.5706 Y41.3850
G1 X17.4854 Y41.5523
G1 X17.3527 Y41.6850
G1 X17.1854 Y41.7702
G1 X17.0000 Y41.7996
G0 Z2.0000
G0 X15.8000 Y41.7996
G1 Z0.1000
G1 X15.6146 Y41.7702
G1 X15.4473 Y41.6850
G1 X15.3146 Y41.5523
G1 X15.2294 Y41.3850
G1 X15.2000 Y41.1996

(cogido= t)
(y sanitizado es't y en hex_font= #0074')
G0 Z2.0000
G0 X15.2000 Y42.6996
G1 Z0.1000
G1 X15.2000 Y43.8996
G0 Z2.0000
G0 X14.0000 Y43.0996
G1 Z0.1000
G1 X17.6000 Y43.0996

(cogido= a)
(y sanitizado es'a y en hex_font= #0061')
G0 Z2.0000
G0 X15.2000 Y44.9996
G1 Z0.1000
G1 X15.2000 Y45.7995
G0 Z2.0000
G0 X15.8000 Y46.3995
G1 Z0.1000
G1 X17.6000 Y46.3995
G1 X17.6000 Y45.3995
G0 Z2.0000
G0 X16.4000 Y45.3995
G1 Z0.1000
G1 X16.4000 Y46.3995
G0 Z2.0000
G0 X15.8000 Y46.3995
G1 Z0.1000
G1 X15.6146 Y46.3702
G1 X15.4473 Y46.2849
G1 X15.3146 Y46.1522
G1 X15.2294 Y45.9849
G1 X15.2000 Y45.7995
G0 Z2.0000
G0 X16.4000 Y45.3995
G1 Z0.1000
G1 X16.4294 Y45.2141
G1 X16.5146 Y45.0468
G1 X16.6473 Y44.9141
G1 X16.8146 Y44.8289
G1 X17.0000 Y44.7995
G1 X17.1854 Y44.8289
G1 X17.3527 Y44.9141
G1 X17.4854 Y45.0468
G1 X17.5706 Y45.2141
G1 X17.6000 Y45.3995

(cogido= s)
(y sanitizado es's y en hex_font= #0073')
G0 Z2.0000
G0 X16.2308 Y47.6253
G1 Z0.1000
G1 X16.6180 Y48.5737
G0 Z2.0000
G0 X15.4244 Y48.8995
G1 Z0.1000
G1 X15.2833 Y48.4983
G1 X15.2513 Y48.0742
G1 X15.3306 Y47.6563
G1 X15.4092 Y47.5099
G1 X15.5330 Y47.3991
G1 X15.6871 Y47.3371
G1 X15.8532 Y47.3314
G1 X16.0112 Y47.3827
G1 X16.1423 Y47.4847
G1 X16.2308 Y47.6253
G0 Z2.0000
G0 X17.5181 Y48.5428
G1 Z0.1000
G1 X17.4395 Y48.6892
G1 X17.3157 Y48.8000
G1 X17.1616 Y48.8619
G1 X16.9956 Y48.8676
G1 X16.8375 Y48.8164
G1 X16.7064 Y48.7144
G1 X16.6180 Y48.5738
G0 Z2.0000
G0 X17.4244 Y47.2995
G1 Z0.1000
G1 X17.5655 Y47.7007
G1 X17.5974 Y48.1249
G1 X17.5181 Y48.5427

(cogido= q)
(y sanitizado es'q y en hex_font= #0071')
G0 Z2.0000
G0 X17.6000 Y54.9995
G1 Z0.1000
G1 X17.6000 Y53.9995
G0 Z2.0000
G0 X17.0000 Y53.3995
G1 Z0.1000
G1 X15.8000 Y53.3995
G0 Z2.0000
G0 X15.2000 Y53.9995
G1 Z0.1000
G1 X15.2000 Y54.9995
G1 X18.8000 Y54.9995
G0 Z2.0000
G0 X17.0000 Y53.3995
G1 Z0.1000
G1 X17.1854 Y53.4289
G1 X17.3527 Y53.5141
G1 X17.4854 Y53.6468
G1 X17.5706 Y53.8141
G1 X17.6000 Y53.9995
G0 Z2.0000
G0 X15.2000 Y53.9995
G1 Z0.1000
G1 X15.2294 Y53.8141
G1 X15.3146 Y53.6468
G1 X15.4473 Y53.5141
G1 X15.6146 Y53.4289
G1 X15.8000 Y53.3995

(cogido= u)
(y sanitizado es'u y en hex_font= #0075')
G0 Z2.0000
G0 X15.2000 Y55.8995
G1 Z0.1000
G1 X17.0000 Y55.8995
G0 Z2.0000
G0 X17.6000 Y56.4995
G1 Z0.1000
G1 X17.6000 Y57.4995
G1 X15.2000 Y57.4995
G0 Z2.0000
G0 X17.0000 Y55.8995
G1 Z0.1000
G1 X17.1854 Y55.9289
G1 X17.3527 Y56.0141
G1 X17.4854 Y56.1468
G1 X17.5706 Y56.3141
G1 X17.6000 Y56.4995

(cogido= e)
(y sanitizado es'e y en hex_font= #0065')
G0 Z2.0000
G0 X16.4000 Y58.3995
G1 Z0.1000
G1 X16.4000 Y59.9995
G1 X16.0000 Y59.9995
G0 Z2.0000
G0 X16.0000 Y58.3995
G1 Z0.1000
G1 X17.0000 Y58.3995
G0 Z2.0000
G0 X17.6000 Y58.9995
G1 Z0.1000
G1 X17.6000 Y59.9995
G0 Z2.0000
G0 X16.0000 Y59.9995
G1 Z0.1000
G1 X15.7528 Y59.9603
G1 X15.5298 Y59.8467
G1 X15.3528 Y59.6697
G1 X15.2392 Y59.4467
G1 X15.2000 Y59.1995
G1 X15.2392 Y58.9523
G1 X15.3528 Y58.7293
G1 X15.5298 Y58.5523
G1 X15.7528 Y58.4386
G1 X16.0000 Y58.3995
G0 Z2.0000
G0 X17.0000 Y58.3995
G1 Z0.1000
G1 X17.1854 Y58.4289
G1 X17.3527 Y58.5141
G1 X17.4854 Y58.6468
G1 X17.5706 Y58.8141
G1 X17.6000 Y58.9995

(cogido= t)
(y sanitizado es't y en hex_font= #0074')
G0 Z2.0000
G0 X15.2000 Y64.4995
G1 Z0.1000
G1 X15.2000 Y65.6995
G0 Z2.0000
G0 X14.0000 Y64.8995
G1 Z0.1000
G1 X17.6000 Y64.8995

(cogido= e)
(y sanitizado es'e y en hex_font= #0065')
G0 Z2.0000
G0 X16.4000 Y66.5995
G1 Z0.1000
G1 X16.4000 Y68.1995
G1 X16.0000 Y68.1995
G0 Z2.0000
G0 X16.0000 Y66.5995
G1 Z0.1000
G1 X17.0000 Y66.5995
G0 Z2.0000
G0 X17.6000 Y67.1995
G1 Z0.1000
G1 X17.6000 Y68.1995
G0 Z2.0000
G0 X16.0000 Y68.1995
G1 Z0.1000
G1 X15.7528 Y68.1603
G1 X15.5298 Y68.0467
G1 X15.3528 Y67.8697
G1 X15.2392 Y67.6467
G1 X15.2000 Y67.3995
G1 X15.2392 Y67.1522
G1 X15.3528 Y66.9292
G1 X15.5298 Y66.7522
G1 X15.7528 Y66.6386
G1 X16.0000 Y66.5995
G0 Z2.0000
G0 X17.0000 Y66.5995
G1 Z0.1000
G1 X17.1854 Y66.6288
G1 X17.3527 Y66.7140
G1 X17.4854 Y66.8468
G1 X17.5706 Y67.0140
G1 X17.6000 Y67.1995

(cogido= n)
(y sanitizado es'n y en hex_font= #006E')
G0 Z2.0000
G0 X17.6000 Y69.0995
G1 Z0.1000
G1 X15.2000 Y69.0995
G1 X15.2000 Y70.0995
G0 Z2.0000
G0 X15.8000 Y70.6995
G1 Z0.1000
G1 X17.6000 Y70.6995
G0 Z2.0000
G0 X15.8000 Y70.6995
G1 Z0.1000
G1 X15.6146 Y70.6701
G1 X15.4473 Y70.5849
G1 X15.3146 Y70.4521
G1 X15.2294 Y70.2849
G1 X15.2000 Y70.0995

(cogido= g)
(y sanitizado es'g y en hex_font= #0067')
G0 Z2.0000
G0 X18.8000 Y71.5994
G1 Z0.1000
G1 X18.8000 Y72.5994
G0 Z2.0000
G0 X18.2000 Y73.1994
G1 Z0.1000
G1 X15.2000 Y73.1994
G1 X15.2000 Y72.1994
G0 Z2.0000
G0 X15.8000 Y71.5994
G1 Z0.1000
G1 X17.0000 Y71.5994
G0 Z2.0000
G0 X17.6000 Y72.1994
G1 Z0.1000
G1 X17.6000 Y73.1994
G0 Z2.0000
G0 X18.8000 Y72.5994
G1 Z0.1000
G1 X18.7706 Y72.7848
G1 X18.6854 Y72.9521
G1 X18.5527 Y73.0848
G1 X18.3854 Y73.1700
G1 X18.2000 Y73.1994
G0 Z2.0000
G0 X15.2000 Y72.1994
G1 Z0.1000
G1 X15.2294 Y72.0140
G1 X15.3146 Y71.8467
G1 X15.4473 Y71.7140
G1 X15.6146 Y71.6288
G1 X15.8000 Y71.5994
G0 Z2.0000
G0 X17.0000 Y71.5994
G1 Z0.1000
G1 X17.1854 Y71.6288
G1 X17.3527 Y71.7140
G1 X17.4854 Y71.8467
G1 X17.5706 Y72.0140
G1 X17.6000 Y72.1994

(cogido= a)
(y sanitizado es'a y en hex_font= #0061')
G0 Z2.0000
G0 X15.2000 Y74.2994
G1 Z0.1000
G1 X15.2000 Y75.0994
G0 Z2.0000
G0 X15.8000 Y75.6994
G1 Z0.1000
G1 X17.6000 Y75.6994
G1 X17.6000 Y74.6994
G0 Z2.0000
G0 X16.4000 Y74.6994
G1 Z0.1000
G1 X16.4000 Y75.6994
G0 Z2.0000
G0 X15.8000 Y75.6994
G1 Z0.1000
G1 X15.6146 Y75.6700
G1 X15.4473 Y75.5848
G1 X15.3146 Y75.4520
G1 X15.2294 Y75.2848
G1 X15.2000 Y75.0994
G0 Z2.0000
G0 X16.4000 Y74.6994
G1 Z0.1000
G1 X16.4294 Y74.5140
G1 X16.5146 Y74.3467
G1 X16.6473 Y74.2140
G1 X16.8146 Y74.1287
G1 X17.0000 Y74.0994
G1 X17.1854 Y74.1287
G1 X17.3527 Y74.2140
G1 X17.4854 Y74.3467
G1 X17.5706 Y74.5140
G1 X17.6000 Y74.6994

(cogido= n)
(y sanitizado es'n y en hex_font= #006E')
G0 Z2.0000
G0 X17.6000 Y76.5994
G1 Z0.1000
G1 X15.2000 Y76.5994
G1 X15.2000 Y77.5994
G0 Z2.0000
G0 X15.8000 Y78.1994
G1 Z0.1000
G1 X17.6000 Y78.1994
G0 Z2.0000
G0 X15.8000 Y78.1994
G1 Z0.1000
G1 X15.6146 Y78.1700
G1 X15.4473 Y78.0848
G1 X15.3146 Y77.9520
G1 X15.2294 Y77.7848
G1 X15.2000 Y77.5994

(cogido= d)
(y sanitizado es'd y en hex_font= #0064')
G0 Z2.0000
G0 X14.0000 Y84.2994
G1 Z0.1000
G1 X17.6000 Y84.2994
G1 X17.6000 Y83.2994
G0 Z2.0000
G0 X17.0000 Y82.6994
G1 Z0.1000
G1 X15.8000 Y82.6994
G0 Z2.0000
G0 X15.2000 Y83.2994
G1 Z0.1000
G1 X15.2000 Y84.2994
G0 Z2.0000
G0 X17.0000 Y82.6994
G1 Z0.1000
G1 X17.1854 Y82.7287
G1 X17.3527 Y82.8140
G1 X17.4854 Y82.9467
G1 X17.5706 Y83.1140
G1 X17.6000 Y83.2994
G0 Z2.0000
G0 X15.2000 Y83.2994
G1 Z0.1000
G1 X15.2294 Y83.1140
G1 X15.3146 Y82.9467
G1 X15.4473 Y82.8140
G1 X15.6146 Y82.7287
G1 X15.8000 Y82.6994

(cogido= u)
(y sanitizado es'u y en hex_font= #0075')
G0 Z2.0000
G0 X15.2000 Y85.1994
G1 Z0.1000
G1 X17.0000 Y85.1994
G0 Z2.0000
G0 X17.6000 Y85.7994
G1 Z0.1000
G1 X17.6000 Y86.7994
G1 X15.2000 Y86.7994
G0 Z2.0000
G0 X17.0000 Y85.1994
G1 Z0.1000
G1 X17.1854 Y85.2287
G1 X17.3527 Y85.3140
G1 X17.4854 Y85.4467
G1 X17.5706 Y85.6140
G1 X17.6000 Y85.7994

(cogido= d)
(y sanitizado es'd y en hex_font= #0064')
G0 Z2.0000
G0 X14.0000 Y89.2994
G1 Z0.1000
G1 X17.6000 Y89.2994
G1 X17.6000 Y88.2994
G0 Z2.0000
G0 X17.0000 Y87.6994
G1 Z0.1000
G1 X15.8000 Y87.6994
G0 Z2.0000
G0 X15.2000 Y88.2994
G1 Z0.1000
G1 X15.2000 Y89.2994
G0 Z2.0000
G0 X17.0000 Y87.6994
G1 Z0.1000
G1 X17.1854 Y87.7287
G1 X17.3527 Y87.8140
G1 X17.4854 Y87.9467
G1 X17.5706 Y88.1140
G1 X17.6000 Y88.2994
G0 Z2.0000
G0 X15.2000 Y88.2994
G1 Z0.1000
G1 X15.2294 Y88.1140
G1 X15.3146 Y87.9467
G1 X15.4473 Y87.8140
G1 X15.6146 Y87.7287
G1 X15.8000 Y87.6994

(cogido= a)
(y sanitizado es'a y en hex_font= #0061')
G0 Z2.0000
G0 X15.2000 Y90.3994
G1 Z0.1000
G1 X15.2000 Y91.1993
G0 Z2.0000
G0 X15.8000 Y91.7993
G1 Z0.1000
G1 X17.6000 Y91.7993
G1 X17.6000 Y90.7993
G0 Z2.0000
G0 X16.4000 Y90.7993
G1 Z0.1000
G1 X16.4000 Y91.7993
G0 Z2.0000
G0 X15.8000 Y91.7993
G1 Z0.1000
G1 X15.6146 Y91.7700
G1 X15.4473 Y91.6847
G1 X15.3146 Y91.5520
G1 X15.2294 Y91.3847
G1 X15.2000 Y91.1993
G0 Z2.0000
G0 X16.4000 Y90.7993
G1 Z0.1000
G1 X16.4294 Y90.6139
G1 X16.5146 Y90.4467
G1 X16.6473 Y90.3139
G1 X16.8146 Y90.2287
G1 X17.0000 Y90.1993
G1 X17.1854 Y90.2287
G1 X17.3527 Y90.3139
G1 X17.4854 Y90.4467
G1 X17.5706 Y90.6139
G1 X17.6000 Y90.7993

(cogido= s)
(y sanitizado es's y en hex_font= #0073')
G0 Z2.0000
G0 X16.2308 Y93.0251
G1 Z0.1000
G1 X16.6180 Y93.9735
G0 Z2.0000
G0 X15.4244 Y94.2993
G1 Z0.1000
G1 X15.2833 Y93.8981
G1 X15.2513 Y93.4740
G1 X15.3306 Y93.0561
G1 X15.4092 Y92.9097
G1 X15.5330 Y92.7989
G1 X15.6871 Y92.7369
G1 X15.8532 Y92.7312
G1 X16.0112 Y92.7825
G1 X16.1423 Y92.8845
G1 X16.2308 Y93.0251
G0 Z2.0000
G0 X17.5181 Y93.9426
G1 Z0.1000
G1 X17.4395 Y94.0890
G1 X17.3157 Y94.1998
G1 X17.1616 Y94.2618
G1 X16.9956 Y94.2675
G1 X16.8375 Y94.2162
G1 X16.7064 Y94.1142
G1 X16.6180 Y93.9736
G0 Z2.0000
G0 X17.4244 Y92.6993
G1 Z0.1000
G1 X17.5655 Y93.1005
G1 X17.5974 Y93.5247
G1 X17.5181 Y93.9425

(cogido= .)
(y sanitizado es'. y en hex_font= #002E')
G0 Z2.0000
G0 X17.6000 Y95.1993
G1 Z0.1000
G1 X17.4000 Y95.1993

G0 Z2.0000
(===================================================================)
( Line 5 )
( Grabando: Si puedes esperar y no cansarte de la espera;" )
(===================================================================)
(cogido= S)
(y sanitizado es'S y en hex_font= #0053')
G0 Z2.0000
G0 X19.9127 Y0.4366
G1 Z0.1000
G1 X20.4873 Y1.5633
G0 Z2.0000
G0 X18.6873 Y2.0000
G1 Z0.1000
G1 X18.4728 Y1.4170
G1 X18.4000 Y0.8000
G1 X18.4441 Y0.5380
G1 X18.5717 Y0.3048
G1 X18.7686 Y0.1263
G1 X19.0131 Y0.0222
G1 X19.2783 Y0.0039
G1 X19.5347 Y0.0734
G1 X19.7543 Y0.2232
G1 X19.9127 Y0.4366
G0 Z2.0000
G0 X22.0000 Y1.2000
G1 Z0.1000
G1 X21.9559 Y1.4621
G1 X21.8283 Y1.6953
G1 X21.6314 Y1.8738
G1 X21.3869 Y1.9779
G1 X21.1217 Y1.9962
G1 X20.8653 Y1.9266
G1 X20.6457 Y1.7769
G1 X20.4873 Y1.5635
G0 Z2.0000
G0 X21.7127 Y0.0000
G1 Z0.1000
G1 X21.9272 Y0.5831
G1 X22.0000 Y1.2000

(cogido= i)
(y sanitizado es'i y en hex_font= #0069')
G0 Z2.0000
G0 X22.0000 Y2.9000
G1 Z0.1000
G1 X19.6000 Y2.9000
G0 Z2.0000
G0 X18.6000 Y2.9000
G1 Z0.1000
G1 X18.4000 Y2.9000

(cogido= p)
(y sanitizado es'p y en hex_font= #0070')
G0 Z2.0000
G0 X22.0000 Y7.4000
G1 Z0.1000
G1 X22.0000 Y8.3999
G0 Z2.0000
G0 X21.4000 Y8.9999
G1 Z0.1000
G1 X20.2000 Y8.9999
G0 Z2.0000
G0 X19.6000 Y8.3999
G1 Z0.1000
G1 X19.6000 Y7.4000
G1 X23.2000 Y7.4000
G0 Z2.0000
G0 X22.0000 Y8.3999
G1 Z0.1000
G1 X21.9706 Y8.5853
G1 X21.8854 Y8.7526
G1 X21.7527 Y8.8853
G1 X21.5854 Y8.9706
G1 X21.4000 Y8.9999
G0 Z2.0000
G0 X20.2000 Y8.9999
G1 Z0.1000
G1 X20.0146 Y8.9706
G1 X19.8473 Y8.8853
G1 X19.7146 Y8.7526
G1 X19.6294 Y8.5853
G1 X19.6000 Y8.3999

(cogido= u)
(y sanitizado es'u y en hex_font= #0075')
G0 Z2.0000
G0 X19.6000 Y9.8999
G1 Z0.1000
G1 X21.4000 Y9.8999
G0 Z2.0000
G0 X22.0000 Y10.4999
G1 Z0.1000
G1 X22.0000 Y11.4999
G1 X19.6000 Y11.4999
G0 Z2.0000
G0 X21.4000 Y9.8999
G1 Z0.1000
G1 X21.5854 Y9.9293
G1 X21.7527 Y10.0145
G1 X21.8854 Y10.1472
G1 X21.9706 Y10.3145
G1 X22.0000 Y10.4999

(cogido= e)
(y sanitizado es'e y en hex_font= #0065')
G0 Z2.0000
G0 X20.8000 Y12.4000
G1 Z0.1000
G1 X20.8000 Y13.9999
G1 X20.4000 Y13.9999
G0 Z2.0000
G0 X20.4000 Y12.4000
G1 Z0.1000
G1 X21.4000 Y12.4000
G0 Z2.0000
G0 X22.0000 Y12.9999
G1 Z0.1000
G1 X22.0000 Y13.9999
G0 Z2.0000
G0 X20.4000 Y13.9999
G1 Z0.1000
G1 X20.1528 Y13.9608
G1 X19.9298 Y13.8471
G1 X19.7528 Y13.6701
G1 X19.6392 Y13.4471
G1 X19.6000 Y13.1999
G1 X19.6392 Y12.9527
G1 X19.7528 Y12.7297
G1 X19.9298 Y12.5527
G1 X20.1528 Y12.4391
G1 X20.4000 Y12.3999
G0 Z2.0000
G0 X21.4000 Y12.3999
G1 Z0.1000
G1 X21.5854 Y12.4293
G1 X21.7527 Y12.5145
G1 X21.8854 Y12.6472
G1 X21.9706 Y12.8145
G1 X22.0000 Y12.9999

(cogido= d)
(y sanitizado es'd y en hex_font= #0064')
G0 Z2.0000
G0 X18.4000 Y16.4999
G1 Z0.1000
G1 X22.0000 Y16.4999
G1 X22.0000 Y15.4999
G0 Z2.0000
G0 X21.4000 Y14.8999
G1 Z0.1000
G1 X20.2000 Y14.8999
G0 Z2.0000
G0 X19.6000 Y15.4999
G1 Z0.1000
G1 X19.6000 Y16.4999
G0 Z2.0000
G0 X21.4000 Y14.8999
G1 Z0.1000
G1 X21.5854 Y14.9293
G1 X21.7527 Y15.0145
G1 X21.8854 Y15.1472
G1 X21.9706 Y15.3145
G1 X22.0000 Y15.4999
G0 Z2.0000
G0 X19.6000 Y15.4999
G1 Z0.1000
G1 X19.6294 Y15.3145
G1 X19.7146 Y15.1472
G1 X19.8473 Y15.0145
G1 X20.0146 Y14.9293
G1 X20.2000 Y14.8999

(cogido= e)
(y sanitizado es'e y en hex_font= #0065')
G0 Z2.0000
G0 X20.8000 Y17.4000
G1 Z0.1000
G1 X20.8000 Y18.9999
G1 X20.4000 Y18.9999
G0 Z2.0000
G0 X20.4000 Y17.4000
G1 Z0.1000
G1 X21.4000 Y17.4000
G0 Z2.0000
G0 X22.0000 Y17.9999
G1 Z0.1000
G1 X22.0000 Y18.9999
G0 Z2.0000
G0 X20.4000 Y18.9999
G1 Z0.1000
G1 X20.1528 Y18.9608
G1 X19.9298 Y18.8471
G1 X19.7528 Y18.6701
G1 X19.6392 Y18.4471
G1 X19.6000 Y18.1999
G1 X19.6392 Y17.9527
G1 X19.7528 Y17.7297
G1 X19.9298 Y17.5527
G1 X20.1528 Y17.4391
G1 X20.4000 Y17.3999
G0 Z2.0000
G0 X21.4000 Y17.3999
G1 Z0.1000
G1 X21.5854 Y17.4293
G1 X21.7527 Y17.5145
G1 X21.8854 Y17.6472
G1 X21.9706 Y17.8145
G1 X22.0000 Y17.9999

(cogido= s)
(y sanitizado es's y en hex_font= #0073')
G0 Z2.0000
G0 X20.6308 Y20.2257
G1 Z0.1000
G1 X21.0180 Y21.1741
G0 Z2.0000
G0 X19.8244 Y21.4999
G1 Z0.1000
G1 X19.6833 Y21.0987
G1 X19.6513 Y20.6746
G1 X19.7306 Y20.2567
G1 X19.8092 Y20.1103
G1 X19.9330 Y19.9995
G1 X20.0871 Y19.9375
G1 X20.2532 Y19.9318
G1 X20.4112 Y19.9831
G1 X20.5423 Y20.0851
G1 X20.6308 Y20.2257
G0 Z2.0000
G0 X21.9181 Y21.1432
G1 Z0.1000
G1 X21.8395 Y21.2896
G1 X21.7157 Y21.4004
G1 X21.5616 Y21.4623
G1 X21.3956 Y21.4680
G1 X21.2375 Y21.4168
G1 X21.1064 Y21.3148
G1 X21.0180 Y21.1742
G0 Z2.0000
G0 X21.8244 Y19.8999
G1 Z0.1000
G1 X21.9655 Y20.3011
G1 X21.9974 Y20.7253
G1 X21.9181 Y21.1431

(cogido= e)
(y sanitizado es'e y en hex_font= #0065')
G0 Z2.0000
G0 X20.8000 Y26.0000
G1 Z0.1000
G1 X20.8000 Y27.5999
G1 X20.4000 Y27.5999
G0 Z2.0000
G0 X20.4000 Y26.0000
G1 Z0.1000
G1 X21.4000 Y26.0000
G0 Z2.0000
G0 X22.0000 Y26.5999
G1 Z0.1000
G1 X22.0000 Y27.5999
G0 Z2.0000
G0 X20.4000 Y27.5999
G1 Z0.1000
G1 X20.1528 Y27.5608
G1 X19.9298 Y27.4471
G1 X19.7528 Y27.2702
G1 X19.6392 Y27.0471
G1 X19.6000 Y26.7999
G1 X19.6392 Y26.5527
G1 X19.7528 Y26.3297
G1 X19.9298 Y26.1527
G1 X20.1528 Y26.0391
G1 X20.4000 Y25.9999
G0 Z2.0000
G0 X21.4000 Y25.9999
G1 Z0.1000
G1 X21.5854 Y26.0293
G1 X21.7527 Y26.1145
G1 X21.8854 Y26.2473
G1 X21.9706 Y26.4145
G1 X22.0000 Y26.5999

(cogido= s)
(y sanitizado es's y en hex_font= #0073')
G0 Z2.0000
G0 X20.6308 Y28.8257
G1 Z0.1000
G1 X21.0180 Y29.7741
G0 Z2.0000
G0 X19.8244 Y30.0999
G1 Z0.1000
G1 X19.6833 Y29.6987
G1 X19.6513 Y29.2746
G1 X19.7306 Y28.8567
G1 X19.8092 Y28.7103
G1 X19.9330 Y28.5995
G1 X20.0871 Y28.5375
G1 X20.2532 Y28.5318
G1 X20.4112 Y28.5831
G1 X20.5423 Y28.6851
G1 X20.6308 Y28.8257
G0 Z2.0000
G0 X21.9181 Y29.7432
G1 Z0.1000
G1 X21.8395 Y29.8896
G1 X21.7157 Y30.0004
G1 X21.5616 Y30.0624
G1 X21.3956 Y30.0681
G1 X21.2375 Y30.0168
G1 X21.1064 Y29.9148
G1 X21.0180 Y29.7742
G0 Z2.0000
G0 X21.8244 Y28.4999
G1 Z0.1000
G1 X21.9655 Y28.9011
G1 X21.9974 Y29.3253
G1 X21.9181 Y29.7431

(cogido= p)
(y sanitizado es'p y en hex_font= #0070')
G0 Z2.0000
G0 X22.0000 Y30.9999
G1 Z0.1000
G1 X22.0000 Y31.9999
G0 Z2.0000
G0 X21.4000 Y32.5999
G1 Z0.1000
G1 X20.2000 Y32.5999
G0 Z2.0000
G0 X19.6000 Y31.9999
G1 Z0.1000
G1 X19.6000 Y30.9999
G1 X23.2000 Y30.9999
G0 Z2.0000
G0 X22.0000 Y31.9999
G1 Z0.1000
G1 X21.9706 Y32.1853
G1 X21.8854 Y32.3525
G1 X21.7527 Y32.4853
G1 X21.5854 Y32.5705
G1 X21.4000 Y32.5999
G0 Z2.0000
G0 X20.2000 Y32.5999
G1 Z0.1000
G1 X20.0146 Y32.5705
G1 X19.8473 Y32.4853
G1 X19.7146 Y32.3525
G1 X19.6294 Y32.1853
G1 X19.6000 Y31.9999

(cogido= e)
(y sanitizado es'e y en hex_font= #0065')
G0 Z2.0000
G0 X20.8000 Y33.4999
G1 Z0.1000
G1 X20.8000 Y35.0999
G1 X20.4000 Y35.0999
G0 Z2.0000
G0 X20.4000 Y33.4999
G1 Z0.1000
G1 X21.4000 Y33.4999
G0 Z2.0000
G0 X22.0000 Y34.0999
G1 Z0.1000
G1 X22.0000 Y35.0999
G0 Z2.0000
G0 X20.4000 Y35.0999
G1 Z0.1000
G1 X20.1528 Y35.0607
G1 X19.9298 Y34.9471
G1 X19.7528 Y34.7701
G1 X19.6392 Y34.5471
G1 X19.6000 Y34.2999
G1 X19.6392 Y34.0527
G1 X19.7528 Y33.8296
G1 X19.9298 Y33.6527
G1 X20.1528 Y33.5390
G1 X20.4000 Y33.4999
G0 Z2.0000
G0 X21.4000 Y33.4999
G1 Z0.1000
G1 X21.5854 Y33.5292
G1 X21.7527 Y33.6145
G1 X21.8854 Y33.7472
G1 X21.9706 Y33.9145
G1 X22.0000 Y34.0999

(cogido= r)
(y sanitizado es'r y en hex_font= #0072')
G0 Z2.0000
G0 X22.0000 Y35.9998
G1 Z0.1000
G1 X19.6000 Y35.9998
G1 X19.6000 Y36.7998
G0 Z2.0000
G0 X20.0000 Y37.1998
G1 Z0.1000
G1 X19.8764 Y37.1802
G1 X19.7649 Y37.1234
G1 X19.6764 Y37.0349
G1 X19.6196 Y36.9234
G1 X19.6000 Y36.7998

(cogido= a)
(y sanitizado es'a y en hex_font= #0061')
G0 Z2.0000
G0 X19.6000 Y38.2998
G1 Z0.1000
G1 X19.6000 Y39.0998
G0 Z2.0000
G0 X20.2000 Y39.6998
G1 Z0.1000
G1 X22.0000 Y39.6998
G1 X22.0000 Y38.6998
G0 Z2.0000
G0 X20.8000 Y38.6998
G1 Z0.1000
G1 X20.8000 Y39.6998
G0 Z2.0000
G0 X20.2000 Y39.6998
G1 Z0.1000
G1 X20.0146 Y39.6704
G1 X19.8473 Y39.5852
G1 X19.7146 Y39.4525
G1 X19.6294 Y39.2852
G1 X19.6000 Y39.0998
G0 Z2.0000
G0 X20.8000 Y38.6998
G1 Z0.1000
G1 X20.8294 Y38.5144
G1 X20.9146 Y38.3471
G1 X21.0473 Y38.2144
G1 X21.2146 Y38.1292
G1 X21.4000 Y38.0998
G1 X21.5854 Y38.1292
G1 X21.7527 Y38.2144
G1 X21.8854 Y38.3471
G1 X21.9706 Y38.5144
G1 X22.0000 Y38.6998

(cogido= r)
(y sanitizado es'r y en hex_font= #0072')
G0 Z2.0000
G0 X22.0000 Y40.5997
G1 Z0.1000
G1 X19.6000 Y40.5997
G1 X19.6000 Y41.3997
G0 Z2.0000
G0 X20.0000 Y41.7997
G1 Z0.1000
G1 X19.8764 Y41.7802
G1 X19.7649 Y41.7234
G1 X19.6764 Y41.6349
G1 X19.6196 Y41.5234
G1 X19.6000 Y41.3997

(cogido= y)
(y sanitizado es'y y en hex_font= #0079')
G0 Z2.0000
G0 X19.6000 Y46.2997
G1 Z0.1000
G1 X22.0000 Y47.0997
G0 Z2.0000
G0 X19.6000 Y47.8998
G1 Z0.1000
G1 X22.9265 Y46.7909
G0 Z2.0000
G0 X23.2000 Y46.4115
G1 Z0.1000
G1 X23.2000 Y46.2997
G0 Z2.0000
G0 X23.2000 Y46.4115
G1 Z0.1000
G1 X23.1807 Y46.5343
G1 X23.1245 Y46.6453
G1 X23.0370 Y46.7337
G1 X22.9265 Y46.7909

(cogido= n)
(y sanitizado es'n y en hex_font= #006E')
G0 Z2.0000
G0 X22.0000 Y52.3998
G1 Z0.1000
G1 X19.6000 Y52.3998
G1 X19.6000 Y53.3998
G0 Z2.0000
G0 X20.2000 Y53.9998
G1 Z0.1000
G1 X22.0000 Y53.9998
G0 Z2.0000
G0 X20.2000 Y53.9998
G1 Z0.1000
G1 X20.0146 Y53.9704
G1 X19.8473 Y53.8852
G1 X19.7146 Y53.7525
G1 X19.6294 Y53.5852
G1 X19.6000 Y53.3998

(cogido= o)
(y sanitizado es'o y en hex_font= #006F')
G0 Z2.0000
G0 X20.4000 Y54.8997
G1 Z0.1000
G1 X21.2000 Y54.8997
G0 Z2.0000
G0 X21.2000 Y56.4998
G1 Z0.1000
G1 X20.4000 Y56.4998
G0 Z2.0000
G0 X21.2000 Y54.8998
G1 Z0.1000
G1 X21.4472 Y54.9390
G1 X21.6702 Y55.0526
G1 X21.8472 Y55.2296
G1 X21.9608 Y55.4526
G1 X22.0000 Y55.6998
G1 X21.9608 Y55.9470
G1 X21.8472 Y56.1701
G1 X21.6702 Y56.3470
G1 X21.4472 Y56.4607
G1 X21.2000 Y56.4998
G0 Z2.0000
G0 X20.4000 Y56.4998
G1 Z0.1000
G1 X20.1528 Y56.4607
G1 X19.9298 Y56.3470
G1 X19.7528 Y56.1701
G1 X19.6392 Y55.9470
G1 X19.6000 Y55.6998
G1 X19.6392 Y55.4526
G1 X19.7528 Y55.2296
G1 X19.9298 Y55.0526
G1 X20.1528 Y54.9390
G1 X20.4000 Y54.8998

(cogido= c)
(y sanitizado es'c y en hex_font= #0063')
G0 Z2.0000
G0 X19.6000 Y62.1998
G1 Z0.1000
G1 X19.6000 Y61.5998
G0 Z2.0000
G0 X20.2000 Y60.9998
G1 Z0.1000
G1 X21.4000 Y60.9998
G0 Z2.0000
G0 X22.0000 Y61.5998
G1 Z0.1000
G1 X22.0000 Y62.1998
G0 Z2.0000
G0 X19.6000 Y61.5998
G1 Z0.1000
G1 X19.6294 Y61.4144
G1 X19.7146 Y61.2472
G1 X19.8473 Y61.1144
G1 X20.0146 Y61.0292
G1 X20.2000 Y60.9998
G0 Z2.0000
G0 X21.4000 Y60.9998
G1 Z0.1000
G1 X21.5854 Y61.0292
G1 X21.7527 Y61.1144
G1 X21.8854 Y61.2472
G1 X21.9706 Y61.4144
G1 X22.0000 Y61.5998

(cogido= a)
(y sanitizado es'a y en hex_font= #0061')
G0 Z2.0000
G0 X19.6000 Y63.2998
G1 Z0.1000
G1 X19.6000 Y64.0998
G0 Z2.0000
G0 X20.2000 Y64.6998
G1 Z0.1000
G1 X22.0000 Y64.6998
G1 X22.0000 Y63.6998
G0 Z2.0000
G0 X20.8000 Y63.6998
G1 Z0.1000
G1 X20.8000 Y64.6998
G0 Z2.0000
G0 X20.2000 Y64.6998
G1 Z0.1000
G1 X20.0146 Y64.6704
G1 X19.8473 Y64.5852
G1 X19.7146 Y64.4525
G1 X19.6294 Y64.2852
G1 X19.6000 Y64.0998
G0 Z2.0000
G0 X20.8000 Y63.6998
G1 Z0.1000
G1 X20.8294 Y63.5144
G1 X20.9146 Y63.3471
G1 X21.0473 Y63.2144
G1 X21.2146 Y63.1292
G1 X21.4000 Y63.0998
G1 X21.5854 Y63.1292
G1 X21.7527 Y63.2144
G1 X21.8854 Y63.3471
G1 X21.9706 Y63.5144
G1 X22.0000 Y63.6998

(cogido= n)
(y sanitizado es'n y en hex_font= #006E')
G0 Z2.0000
G0 X22.0000 Y65.5998
G1 Z0.1000
G1 X19.6000 Y65.5998
G1 X19.6000 Y66.5998
G0 Z2.0000
G0 X20.2000 Y67.1998
G1 Z0.1000
G1 X22.0000 Y67.1998
G0 Z2.0000
G0 X20.2000 Y67.1998
G1 Z0.1000
G1 X20.0146 Y67.1704
G1 X19.8473 Y67.0852
G1 X19.7146 Y66.9525
G1 X19.6294 Y66.7852
G1 X19.6000 Y66.5998

(cogido= s)
(y sanitizado es's y en hex_font= #0073')
G0 Z2.0000
G0 X20.6308 Y68.4255
G1 Z0.1000
G1 X21.0180 Y69.3739
G0 Z2.0000
G0 X19.8244 Y69.6998
G1 Z0.1000
G1 X19.6833 Y69.2985
G1 X19.6513 Y68.8744
G1 X19.7306 Y68.4565
G1 X19.8092 Y68.3102
G1 X19.9330 Y68.1994
G1 X20.0871 Y68.1374
G1 X20.2532 Y68.1317
G1 X20.4112 Y68.1829
G1 X20.5423 Y68.2850
G1 X20.6308 Y68.4256
G0 Z2.0000
G0 X21.9181 Y69.3431
G1 Z0.1000
G1 X21.8395 Y69.4895
G1 X21.7157 Y69.6002
G1 X21.5616 Y69.6622
G1 X21.3956 Y69.6679
G1 X21.2375 Y69.6167
G1 X21.1064 Y69.5146
G1 X21.0180 Y69.3740
G0 Z2.0000
G0 X21.8244 Y68.0997
G1 Z0.1000
G1 X21.9655 Y68.5010
G1 X21.9974 Y68.9251
G1 X21.9181 Y69.3430

(cogido= a)
(y sanitizado es'a y en hex_font= #0061')
G0 Z2.0000
G0 X19.6000 Y70.7998
G1 Z0.1000
G1 X19.6000 Y71.5998
G0 Z2.0000
G0 X20.2000 Y72.1998
G1 Z0.1000
G1 X22.0000 Y72.1998
G1 X22.0000 Y71.1998
G0 Z2.0000
G0 X20.8000 Y71.1998
G1 Z0.1000
G1 X20.8000 Y72.1998
G0 Z2.0000
G0 X20.2000 Y72.1998
G1 Z0.1000
G1 X20.0146 Y72.1704
G1 X19.8473 Y72.0852
G1 X19.7146 Y71.9524
G1 X19.6294 Y71.7852
G1 X19.6000 Y71.5998
G0 Z2.0000
G0 X20.8000 Y71.1998
G1 Z0.1000
G1 X20.8294 Y71.0143
G1 X20.9146 Y70.8471
G1 X21.0473 Y70.7143
G1 X21.2146 Y70.6291
G1 X21.4000 Y70.5998
G1 X21.5854 Y70.6291
G1 X21.7527 Y70.7143
G1 X21.8854 Y70.8471
G1 X21.9706 Y71.0143
G1 X22.0000 Y71.1998

(cogido= r)
(y sanitizado es'r y en hex_font= #0072')
G0 Z2.0000
G0 X22.0000 Y73.0997
G1 Z0.1000
G1 X19.6000 Y73.0997
G1 X19.6000 Y73.8997
G0 Z2.0000
G0 X20.0000 Y74.2997
G1 Z0.1000
G1 X19.8764 Y74.2801
G1 X19.7649 Y74.2233
G1 X19.6764 Y74.1348
G1 X19.6196 Y74.0233
G1 X19.6000 Y73.8997

(cogido= t)
(y sanitizado es't y en hex_font= #0074')
G0 Z2.0000
G0 X19.6000 Y75.1997
G1 Z0.1000
G1 X19.6000 Y76.3997
G0 Z2.0000
G0 X18.4000 Y75.5997
G1 Z0.1000
G1 X22.0000 Y75.5997

(cogido= e)
(y sanitizado es'e y en hex_font= #0065')
G0 Z2.0000
G0 X20.8000 Y77.2997
G1 Z0.1000
G1 X20.8000 Y78.8997
G1 X20.4000 Y78.8997
G0 Z2.0000
G0 X20.4000 Y77.2997
G1 Z0.1000
G1 X21.4000 Y77.2997
G0 Z2.0000
G0 X22.0000 Y77.8997
G1 Z0.1000
G1 X22.0000 Y78.8997
G0 Z2.0000
G0 X20.4000 Y78.8997
G1 Z0.1000
G1 X20.1528 Y78.8605
G1 X19.9298 Y78.7469
G1 X19.7528 Y78.5699
G1 X19.6392 Y78.3469
G1 X19.6000 Y78.0997
G1 X19.6392 Y77.8525
G1 X19.7528 Y77.6294
G1 X19.9298 Y77.4525
G1 X20.1528 Y77.3388
G1 X20.4000 Y77.2997
G0 Z2.0000
G0 X21.4000 Y77.2997
G1 Z0.1000
G1 X21.5854 Y77.3290
G1 X21.7527 Y77.4143
G1 X21.8854 Y77.5470
G1 X21.9706 Y77.7143
G1 X22.0000 Y77.8997

(cogido= d)
(y sanitizado es'd y en hex_font= #0064')
G0 Z2.0000
G0 X18.4000 Y84.9997
G1 Z0.1000
G1 X22.0000 Y84.9997
G1 X22.0000 Y83.9997
G0 Z2.0000
G0 X21.4000 Y83.3997
G1 Z0.1000
G1 X20.2000 Y83.3997
G0 Z2.0000
G0 X19.6000 Y83.9997
G1 Z0.1000
G1 X19.6000 Y84.9997
G0 Z2.0000
G0 X21.4000 Y83.3997
G1 Z0.1000
G1 X21.5854 Y83.4290
G1 X21.7527 Y83.5143
G1 X21.8854 Y83.6470
G1 X21.9706 Y83.8143
G1 X22.0000 Y83.9997
G0 Z2.0000
G0 X19.6000 Y83.9997
G1 Z0.1000
G1 X19.6294 Y83.8143
G1 X19.7146 Y83.6470
G1 X19.8473 Y83.5143
G1 X20.0146 Y83.4290
G1 X20.2000 Y83.3997

(cogido= e)
(y sanitizado es'e y en hex_font= #0065')
G0 Z2.0000
G0 X20.8000 Y85.8997
G1 Z0.1000
G1 X20.8000 Y87.4997
G1 X20.4000 Y87.4997
G0 Z2.0000
G0 X20.4000 Y85.8997
G1 Z0.1000
G1 X21.4000 Y85.8997
G0 Z2.0000
G0 X22.0000 Y86.4997
G1 Z0.1000
G1 X22.0000 Y87.4997
G0 Z2.0000
G0 X20.4000 Y87.4997
G1 Z0.1000
G1 X20.1528 Y87.4605
G1 X19.9298 Y87.3469
G1 X19.7528 Y87.1699
G1 X19.6392 Y86.9469
G1 X19.6000 Y86.6997
G1 X19.6392 Y86.4525
G1 X19.7528 Y86.2294
G1 X19.9298 Y86.0525
G1 X20.1528 Y85.9388
G1 X20.4000 Y85.8997
G0 Z2.0000
G0 X21.4000 Y85.8997
G1 Z0.1000
G1 X21.5854 Y85.9290
G1 X21.7527 Y86.0143
G1 X21.8854 Y86.1470
G1 X21.9706 Y86.3143
G1 X22.0000 Y86.4997

(cogido= l)
(y sanitizado es'l y en hex_font= #006C')
G0 Z2.0000
G0 X18.4000 Y91.9997
G1 Z0.1000
G1 X21.6000 Y91.9997
G1 X21.7236 Y92.0193
G1 X21.8351 Y92.0761
G1 X21.9236 Y92.1646
G1 X21.9804 Y92.2761
G1 X22.0000 Y92.3997

(cogido= a)
(y sanitizado es'a y en hex_font= #0061')
G0 Z2.0000
G0 X19.6000 Y93.4997
G1 Z0.1000
G1 X19.6000 Y94.2996
G0 Z2.0000
G0 X20.2000 Y94.8996
G1 Z0.1000
G1 X22.0000 Y94.8996
G1 X22.0000 Y93.8996
G0 Z2.0000
G0 X20.8000 Y93.8996
G1 Z0.1000
G1 X20.8000 Y94.8996
G0 Z2.0000
G0 X20.2000 Y94.8996
G1 Z0.1000
G1 X20.0146 Y94.8703
G1 X19.8473 Y94.7850
G1 X19.7146 Y94.6523
G1 X19.6294 Y94.4850
G1 X19.6000 Y94.2996
G0 Z2.0000
G0 X20.8000 Y93.8996
G1 Z0.1000
G1 X20.8294 Y93.7142
G1 X20.9146 Y93.5470
G1 X21.0473 Y93.4142
G1 X21.2146 Y93.3290
G1 X21.4000 Y93.2996
G1 X21.5854 Y93.3290
G1 X21.7527 Y93.4142
G1 X21.8854 Y93.5470
G1 X21.9706 Y93.7142
G1 X22.0000 Y93.8996

(cogido= e)
(y sanitizado es'e y en hex_font= #0065')
G0 Z2.0000
G0 X20.8000 Y99.3997
G1 Z0.1000
G1 X20.8000 Y100.9996
G1 X20.4000 Y100.9996
G0 Z2.0000
G0 X20.4000 Y99.3997
G1 Z0.1000
G1 X21.4000 Y99.3997
G0 Z2.0000
G0 X22.0000 Y99.9996
G1 Z0.1000
G1 X22.0000 Y100.9996
G0 Z2.0000
G0 X20.4000 Y100.9996
G1 Z0.1000
G1 X20.1528 Y100.9605
G1 X19.9298 Y100.8468
G1 X19.7528 Y100.6699
G1 X19.6392 Y100.4468
G1 X19.6000 Y100.1996
G1 X19.6392 Y99.9524
G1 X19.7528 Y99.7294
G1 X19.9298 Y99.5524
G1 X20.1528 Y99.4388
G1 X20.4000 Y99.3996
G0 Z2.0000
G0 X21.4000 Y99.3996
G1 Z0.1000
G1 X21.5854 Y99.4290
G1 X21.7527 Y99.5142
G1 X21.8854 Y99.6470
G1 X21.9706 Y99.8142
G1 X22.0000 Y99.9996

(cogido= s)
(y sanitizado es's y en hex_font= #0073')
G0 Z2.0000
G0 X20.6308 Y102.2254
G1 Z0.1000
G1 X21.0180 Y103.1738
G0 Z2.0000
G0 X19.8244 Y103.4996
G1 Z0.1000
G1 X19.6833 Y103.0984
G1 X19.6513 Y102.6743
G1 X19.7306 Y102.2564
G1 X19.8092 Y102.1100
G1 X19.9330 Y101.9992
G1 X20.0871 Y101.9372
G1 X20.2532 Y101.9315
G1 X20.4112 Y101.9828
G1 X20.5423 Y102.0848
G1 X20.6308 Y102.2254
G0 Z2.0000
G0 X21.9181 Y103.1430
G1 Z0.1000
G1 X21.8395 Y103.2893
G1 X21.7157 Y103.4001
G1 X21.5616 Y103.4621
G1 X21.3956 Y103.4678
G1 X21.2375 Y103.4165
G1 X21.1064 Y103.3145
G1 X21.0180 Y103.1739
G0 Z2.0000
G0 X21.8244 Y101.8996
G1 Z0.1000
G1 X21.9655 Y102.3008
G1 X21.9974 Y102.7250
G1 X21.9181 Y103.1428

(cogido= p)
(y sanitizado es'p y en hex_font= #0070')
G0 Z2.0000
G0 X22.0000 Y104.3996
G1 Z0.1000
G1 X22.0000 Y105.3996
G0 Z2.0000
G0 X21.4000 Y105.9996
G1 Z0.1000
G1 X20.2000 Y105.9996
G0 Z2.0000
G0 X19.6000 Y105.3996
G1 Z0.1000
G1 X19.6000 Y104.3996
G1 X23.2000 Y104.3996
G0 Z2.0000
G0 X22.0000 Y105.3996
G1 Z0.1000
G1 X21.9706 Y105.5850
G1 X21.8854 Y105.7522
G1 X21.7527 Y105.8850
G1 X21.5854 Y105.9702
G1 X21.4000 Y105.9996
G0 Z2.0000
G0 X20.2000 Y105.9996
G1 Z0.1000
G1 X20.0146 Y105.9702
G1 X19.8473 Y105.8850
G1 X19.7146 Y105.7522
G1 X19.6294 Y105.5850
G1 X19.6000 Y105.3996

(cogido= e)
(y sanitizado es'e y en hex_font= #0065')
G0 Z2.0000
G0 X20.8000 Y106.8996
G1 Z0.1000
G1 X20.8000 Y108.4996
G1 X20.4000 Y108.4996
G0 Z2.0000
G0 X20.4000 Y106.8996
G1 Z0.1000
G1 X21.4000 Y106.8996
G0 Z2.0000
G0 X22.0000 Y107.4996
G1 Z0.1000
G1 X22.0000 Y108.4996
G0 Z2.0000
G0 X20.4000 Y108.4996
G1 Z0.1000
G1 X20.1528 Y108.4604
G1 X19.9298 Y108.3468
G1 X19.7528 Y108.1698
G1 X19.6392 Y107.9468
G1 X19.6000 Y107.6996
G1 X19.6392 Y107.4524
G1 X19.7528 Y107.2293
G1 X19.9298 Y107.0524
G1 X20.1528 Y106.9387
G1 X20.4000 Y106.8996
G0 Z2.0000
G0 X21.4000 Y106.8996
G1 Z0.1000
G1 X21.5854 Y106.9289
G1 X21.7527 Y107.0142
G1 X21.8854 Y107.1469
G1 X21.9706 Y107.3142
G1 X22.0000 Y107.4996

(cogido= r)
(y sanitizado es'r y en hex_font= #0072')
G0 Z2.0000
G0 X22.0000 Y109.3995
G1 Z0.1000
G1 X19.6000 Y109.3995
G1 X19.6000 Y110.1995
G0 Z2.0000
G0 X20.0000 Y110.5995
G1 Z0.1000
G1 X19.8764 Y110.5800
G1 X19.7649 Y110.5231
G1 X19.6764 Y110.4346
G1 X19.6196 Y110.3231
G1 X19.6000 Y110.1995

(cogido= a)
(y sanitizado es'a y en hex_font= #0061')
G0 Z2.0000
G0 X19.6000 Y111.6995
G1 Z0.1000
G1 X19.6000 Y112.4995
G0 Z2.0000
G0 X20.2000 Y113.0995
G1 Z0.1000
G1 X22.0000 Y113.0995
G1 X22.0000 Y112.0995
G0 Z2.0000
G0 X20.8000 Y112.0995
G1 Z0.1000
G1 X20.8000 Y113.0995
G0 Z2.0000
