( Code generated by textogcode )
( by cadenote@hotmail.com <2019> )
( Fontfile: /usr/share/qcad/fonts/normallatin1.cxf )
G17 G21 G40 G90 G64 P0.003 F100
( Line 0 )
( Engraving: "Si...")
G0 Z2.0000
(cogido= S)
(y sanitizado es'S y en hex_font= #0053')
G0 Z2.0000
G0 X-1.5655 Y0.3275
G1 Z0.1000
G1 X-1.1345 Y1.1725
G0 Z2.0000
G0 X-2.4845 Y1.5000
G1 Z0.1000
G1 X-2.6454 Y1.0627
G1 X-2.7000 Y0.6000
G1 X-2.6669 Y0.4035
G1 X-2.5712 Y0.2286
G1 X-2.4235 Y0.0947
G1 X-2.2402 Y0.0166
G1 X-2.0413 Y0.0029
G1 X-1.8489 Y0.0551
G1 X-1.6843 Y0.1674
G1 X-1.5655 Y0.3275
G0 Z2.0000
G0 X0.0000 Y0.9000
G1 Z0.1000
G1 X-0.0331 Y1.0966
G1 X-0.1288 Y1.2714
G1 X-0.2765 Y1.4053
G1 X-0.4598 Y1.4834
G1 X-0.6587 Y1.4972
G1 X-0.8511 Y1.4450
G1 X-1.0157 Y1.3327
G1 X-1.1345 Y1.1726
G0 Z2.0000
G0 X-0.2155 Y0.0000
G1 Z0.1000
G1 X-0.0546 Y0.4373
G1 X0.0000 Y0.9000

(cogido= i)
(y sanitizado es'i y en hex_font= #0069')
G0 Z2.0000
G0 X0.0000 Y2.1750
G1 Z0.1000
G1 X-1.8000 Y2.1750
G0 Z2.0000
G0 X-2.5500 Y2.1750
G1 Z0.1000
G1 X-2.7000 Y2.1750

(cogido= .)
(y sanitizado es'. y en hex_font= #002E')
G0 Z2.0000
G0 X0.0000 Y2.8500
G1 Z0.1000
G1 X-0.1500 Y2.8500

(cogido= .)
(y sanitizado es'. y en hex_font= #002E')
G0 Z2.0000
G0 X0.0000 Y3.5250
G1 Z0.1000
G1 X-0.1500 Y3.5250

(cogido= .)
(y sanitizado es'. y en hex_font= #002E')
G0 Z2.0000
G0 X0.0000 Y4.2000
G1 Z0.1000
G1 X-0.1500 Y4.2000

G0 Z2.0000
(===================================================================)
( Line 1 )
( Grabando: Si puedes mantener la cabeza en su sitio cuando todos a tu alrededor" )
(===================================================================)
(cogido= S)
(y sanitizado es'S y en hex_font= #0053')
G0 Z2.0000
G0 X1.4345 Y0.3275
G1 Z0.1000
G1 X1.8655 Y1.1725
G0 Z2.0000
G0 X0.5155 Y1.5000
G1 Z0.1000
G1 X0.3546 Y1.0627
G1 X0.3000 Y0.6000
G1 X0.3331 Y0.4035
G1 X0.4288 Y0.2286
G1 X0.5765 Y0.0947
G1 X0.7598 Y0.0166
G1 X0.9587 Y0.0029
G1 X1.1511 Y0.0551
G1 X1.3157 Y0.1674
G1 X1.4345 Y0.3275
G0 Z2.0000
G0 X3.0000 Y0.9000
G1 Z0.1000
G1 X2.9669 Y1.0966
G1 X2.8712 Y1.2714
G1 X2.7235 Y1.4053
G1 X2.5402 Y1.4834
G1 X2.3413 Y1.4972
G1 X2.1489 Y1.4450
G1 X1.9843 Y1.3327
G1 X1.8655 Y1.1726
G0 Z2.0000
G0 X2.7845 Y0.0000
G1 Z0.1000
G1 X2.9454 Y0.4373
G1 X3.0000 Y0.9000

(cogido= i)
(y sanitizado es'i y en hex_font= #0069')
G0 Z2.0000
G0 X3.0000 Y2.1750
G1 Z0.1000
G1 X1.2000 Y2.1750
G0 Z2.0000
G0 X0.4500 Y2.1750
G1 Z0.1000
G1 X0.3000 Y2.1750

(cogido= p)
(y sanitizado es'p y en hex_font= #0070')
G0 Z2.0000
G0 X3.0000 Y5.5500
G1 Z0.1000
G1 X3.0000 Y6.2999
G0 Z2.0000
G0 X2.5500 Y6.7499
G1 Z0.1000
G1 X1.6500 Y6.7499
G0 Z2.0000
G0 X1.2000 Y6.2999
G1 Z0.1000
G1 X1.2000 Y5.5500
G1 X3.9000 Y5.5500
G0 Z2.0000
G0 X3.0000 Y6.2999
G1 Z0.1000
G1 X2.9780 Y6.4390
G1 X2.9141 Y6.5644
G1 X2.8145 Y6.6640
G1 X2.6891 Y6.7279
G1 X2.5500 Y6.7499
G0 Z2.0000
G0 X1.6500 Y6.7499
G1 Z0.1000
G1 X1.5109 Y6.7279
G1 X1.3855 Y6.6640
G1 X1.2859 Y6.5644
G1 X1.2220 Y6.4390
G1 X1.2000 Y6.2999

(cogido= u)
(y sanitizado es'u y en hex_font= #0075')
G0 Z2.0000
G0 X1.2000 Y7.4249
G1 Z0.1000
G1 X2.5500 Y7.4249
G0 Z2.0000
G0 X3.0000 Y7.8749
G1 Z0.1000
G1 X3.0000 Y8.6249
G1 X1.2000 Y8.6249
G0 Z2.0000
G0 X2.5500 Y7.4249
G1 Z0.1000
G1 X2.6891 Y7.4470
G1 X2.8145 Y7.5109
G1 X2.9141 Y7.6104
G1 X2.9780 Y7.7359
G1 X3.0000 Y7.8749

(cogido= e)
(y sanitizado es'e y en hex_font= #0065')
G0 Z2.0000
G0 X2.1000 Y9.3000
G1 Z0.1000
G1 X2.1000 Y10.4999
G1 X1.8000 Y10.4999
G0 Z2.0000
G0 X1.8000 Y9.3000
G1 Z0.1000
G1 X2.5500 Y9.3000
G0 Z2.0000
G0 X3.0000 Y9.7499
G1 Z0.1000
G1 X3.0000 Y10.4999
G0 Z2.0000
G0 X1.8000 Y10.4999
G1 Z0.1000
G1 X1.6146 Y10.4706
G1 X1.4473 Y10.3854
G1 X1.3146 Y10.2526
G1 X1.2294 Y10.0854
G1 X1.2000 Y9.8999
G1 X1.2294 Y9.7145
G1 X1.3146 Y9.5473
G1 X1.4473 Y9.4145
G1 X1.6146 Y9.3293
G1 X1.8000 Y9.2999
G0 Z2.0000
G0 X2.5500 Y9.2999
G1 Z0.1000
G1 X2.6891 Y9.3220
G1 X2.8145 Y9.3859
G1 X2.9141 Y9.4854
G1 X2.9780 Y9.6109
G1 X3.0000 Y9.7499

(cogido= d)
(y sanitizado es'd y en hex_font= #0064')
G0 Z2.0000
G0 X0.3000 Y12.3749
G1 Z0.1000
G1 X3.0000 Y12.3749
G1 X3.0000 Y11.6249
G0 Z2.0000
G0 X2.5500 Y11.1749
G1 Z0.1000
G1 X1.6500 Y11.1749
G0 Z2.0000
G0 X1.2000 Y11.6249
G1 Z0.1000
G1 X1.2000 Y12.3749
G0 Z2.0000
G0 X2.5500 Y11.1749
G1 Z0.1000
G1 X2.6891 Y11.1970
G1 X2.8145 Y11.2609
G1 X2.9141 Y11.3604
G1 X2.9780 Y11.4859
G1 X3.0000 Y11.6249
G0 Z2.0000
G0 X1.2000 Y11.6249
G1 Z0.1000
G1 X1.2220 Y11.4859
G1 X1.2859 Y11.3604
G1 X1.3855 Y11.2609
G1 X1.5109 Y11.1970
G1 X1.6500 Y11.1749

(cogido= e)
(y sanitizado es'e y en hex_font= #0065')
G0 Z2.0000
G0 X2.1000 Y13.0500
G1 Z0.1000
G1 X2.1000 Y14.2499
G1 X1.8000 Y14.2499
G0 Z2.0000
G0 X1.8000 Y13.0500
G1 Z0.1000
G1 X2.5500 Y13.0500
G0 Z2.0000
G0 X3.0000 Y13.4999
G1 Z0.1000
G1 X3.0000 Y14.2499
G0 Z2.0000
G0 X1.8000 Y14.2499
G1 Z0.1000
G1 X1.6146 Y14.2206
G1 X1.4473 Y14.1354
G1 X1.3146 Y14.0026
G1 X1.2294 Y13.8354
G1 X1.2000 Y13.6499
G1 X1.2294 Y13.4645
G1 X1.3146 Y13.2973
G1 X1.4473 Y13.1645
G1 X1.6146 Y13.0793
G1 X1.8000 Y13.0499
G0 Z2.0000
G0 X2.5500 Y13.0499
G1 Z0.1000
G1 X2.6891 Y13.0720
G1 X2.8145 Y13.1359
G1 X2.9141 Y13.2354
G1 X2.9780 Y13.3609
G1 X3.0000 Y13.4999

(cogido= s)
(y sanitizado es's y en hex_font= #0073')
G0 Z2.0000
G0 X1.9731 Y15.1693
G1 Z0.1000
G1 X2.2635 Y15.8806
G0 Z2.0000
G0 X1.3683 Y16.1249
G1 Z0.1000
G1 X1.2625 Y15.8240
G1 X1.2385 Y15.5059
G1 X1.2979 Y15.1925
G1 X1.3569 Y15.0827
G1 X1.4497 Y14.9996
G1 X1.5653 Y14.9531
G1 X1.6899 Y14.9489
G1 X1.8084 Y14.9873
G1 X1.9067 Y15.0638
G1 X1.9731 Y15.1693
G0 Z2.0000
G0 X2.9386 Y15.8574
G1 Z0.1000
G1 X2.8796 Y15.9672
G1 X2.7868 Y16.0503
G1 X2.6712 Y16.0968
G1 X2.5467 Y16.1010
G1 X2.4281 Y16.0626
G1 X2.3298 Y15.9861
G1 X2.2635 Y15.8806
G0 Z2.0000
G0 X2.8683 Y14.9249
G1 Z0.1000
G1 X2.9741 Y15.2258
G1 X2.9981 Y15.5439
G1 X2.9386 Y15.8573

(cogido= m)
(y sanitizado es'm y en hex_font= #006D')
G0 Z2.0000
G0 X3.0000 Y19.4999
G1 Z0.1000
G1 X1.2000 Y19.4999
G1 X1.2000 Y20.8499
G0 Z2.0000
G0 X1.6500 Y21.2999
G1 Z0.1000
G1 X3.0000 Y21.2999
G0 Z2.0000
G0 X1.2000 Y20.3999
G1 Z0.1000
G1 X3.0000 Y20.3999
G0 Z2.0000
G0 X1.6500 Y21.2999
G1 Z0.1000
G1 X1.5109 Y21.2779
G1 X1.3855 Y21.2140
G1 X1.2859 Y21.1145
G1 X1.2220 Y20.9890
G1 X1.2000 Y20.8499

(cogido= a)
(y sanitizado es'a y en hex_font= #0061')
G0 Z2.0000
G0 X1.2000 Y22.1249
G1 Z0.1000
G1 X1.2000 Y22.7249
G0 Z2.0000
G0 X1.6500 Y23.1749
G1 Z0.1000
G1 X3.0000 Y23.1749
G1 X3.0000 Y22.4249
G0 Z2.0000
G0 X2.1000 Y22.4249
G1 Z0.1000
G1 X2.1000 Y23.1749
G0 Z2.0000
G0 X1.6500 Y23.1749
G1 Z0.1000
G1 X1.5109 Y23.1529
G1 X1.3855 Y23.0890
G1 X1.2859 Y22.9894
G1 X1.2220 Y22.8640
G1 X1.2000 Y22.7249
G0 Z2.0000
G0 X2.1000 Y22.4249
G1 Z0.1000
G1 X2.1220 Y22.2859
G1 X2.1859 Y22.1604
G1 X2.2855 Y22.0609
G1 X2.4109 Y21.9969
G1 X2.5500 Y21.9749
G1 X2.6891 Y21.9969
G1 X2.8145 Y22.0609
G1 X2.9141 Y22.1604
G1 X2.9780 Y22.2859
G1 X3.0000 Y22.4249

(cogido= n)
(y sanitizado es'n y en hex_font= #006E')
G0 Z2.0000
G0 X3.0000 Y23.8499
G1 Z0.1000
G1 X1.2000 Y23.8499
G1 X1.2000 Y24.5999
G0 Z2.0000
G0 X1.6500 Y25.0499
G1 Z0.1000
G1 X3.0000 Y25.0499
G0 Z2.0000
G0 X1.6500 Y25.0499
G1 Z0.1000
G1 X1.5109 Y25.0279
G1 X1.3855 Y24.9640
G1 X1.2859 Y24.8644
G1 X1.2220 Y24.7390
G1 X1.2000 Y24.5999

(cogido= t)
(y sanitizado es't y en hex_font= #0074')
G0 Z2.0000
G0 X1.2000 Y25.7249
G1 Z0.1000
G1 X1.2000 Y26.6249
G0 Z2.0000
G0 X0.3000 Y26.0249
G1 Z0.1000
G1 X3.0000 Y26.0249

(cogido= e)
(y sanitizado es'e y en hex_font= #0065')
G0 Z2.0000
G0 X2.1000 Y27.2999
G1 Z0.1000
G1 X2.1000 Y28.4999
G1 X1.8000 Y28.4999
G0 Z2.0000
G0 X1.8000 Y27.2999
G1 Z0.1000
G1 X2.5500 Y27.2999
G0 Z2.0000
G0 X3.0000 Y27.7499
G1 Z0.1000
G1 X3.0000 Y28.4999
G0 Z2.0000
G0 X1.8000 Y28.4999
G1 Z0.1000
G1 X1.6146 Y28.4705
G1 X1.4473 Y28.3853
G1 X1.3146 Y28.2526
G1 X1.2294 Y28.0853
G1 X1.2000 Y27.8999
G1 X1.2294 Y27.7145
G1 X1.3146 Y27.5472
G1 X1.4473 Y27.4145
G1 X1.6146 Y27.3293
G1 X1.8000 Y27.2999
G0 Z2.0000
G0 X2.5500 Y27.2999
G1 Z0.1000
G1 X2.6891 Y27.3219
G1 X2.8145 Y27.3858
G1 X2.9141 Y27.4854
G1 X2.9780 Y27.6108
G1 X3.0000 Y27.7499

(cogido= n)
(y sanitizado es'n y en hex_font= #006E')
G0 Z2.0000
G0 X3.0000 Y29.1749
G1 Z0.1000
G1 X1.2000 Y29.1749
G1 X1.2000 Y29.9249
G0 Z2.0000
G0 X1.6500 Y30.3749
G1 Z0.1000
G1 X3.0000 Y30.3749
G0 Z2.0000
G0 X1.6500 Y30.3749
G1 Z0.1000
G1 X1.5109 Y30.3529
G1 X1.3855 Y30.2889
G1 X1.2859 Y30.1894
G1 X1.2220 Y30.0639
G1 X1.2000 Y29.9249

(cogido= e)
(y sanitizado es'e y en hex_font= #0065')
G0 Z2.0000
G0 X2.1000 Y31.0499
G1 Z0.1000
G1 X2.1000 Y32.2499
G1 X1.8000 Y32.2499
G0 Z2.0000
G0 X1.8000 Y31.0499
G1 Z0.1000
G1 X2.5500 Y31.0499
G0 Z2.0000
G0 X3.0000 Y31.4999
G1 Z0.1000
G1 X3.0000 Y32.2499
G0 Z2.0000
G0 X1.8000 Y32.2499
G1 Z0.1000
G1 X1.6146 Y32.2205
G1 X1.4473 Y32.1353
G1 X1.3146 Y32.0026
G1 X1.2294 Y31.8353
G1 X1.2000 Y31.6499
G1 X1.2294 Y31.4645
G1 X1.3146 Y31.2972
G1 X1.4473 Y31.1645
G1 X1.6146 Y31.0793
G1 X1.8000 Y31.0499
G0 Z2.0000
G0 X2.5500 Y31.0499
G1 Z0.1000
G1 X2.6891 Y31.0719
G1 X2.8145 Y31.1358
G1 X2.9141 Y31.2354
G1 X2.9780 Y31.3608
G1 X3.0000 Y31.4999

(cogido= r)
(y sanitizado es'r y en hex_font= #0072')
G0 Z2.0000
G0 X3.0000 Y32.9249
G1 Z0.1000
G1 X1.2000 Y32.9249
G1 X1.2000 Y33.5249
G0 Z2.0000
G0 X1.5000 Y33.8249
G1 Z0.1000
G1 X1.4073 Y33.8102
G1 X1.3237 Y33.7676
G1 X1.2573 Y33.7012
G1 X1.2147 Y33.6176
G1 X1.2000 Y33.5249

(cogido= l)
(y sanitizado es'l y en hex_font= #006C')
G0 Z2.0000
G0 X0.3000 Y37.1999
G1 Z0.1000
G1 X2.7000 Y37.1999
G1 X2.7927 Y37.2145
G1 X2.8763 Y37.2572
G1 X2.9427 Y37.3235
G1 X2.9853 Y37.4072
G1 X3.0000 Y37.4999

(cogido= a)
(y sanitizado es'a y en hex_font= #0061')
G0 Z2.0000
G0 X1.2000 Y38.3249
G1 Z0.1000
G1 X1.2000 Y38.9248
G0 Z2.0000
G0 X1.6500 Y39.3748
G1 Z0.1000
G1 X3.0000 Y39.3748
G1 X3.0000 Y38.6248
G0 Z2.0000
G0 X2.1000 Y38.6248
G1 Z0.1000
G1 X2.1000 Y39.3748
G0 Z2.0000
G0 X1.6500 Y39.3748
G1 Z0.1000
G1 X1.5109 Y39.3528
G1 X1.3855 Y39.2889
G1 X1.2859 Y39.1893
G1 X1.2220 Y39.0639
G1 X1.2000 Y38.9248
G0 Z2.0000
G0 X2.1000 Y38.6248
G1 Z0.1000
G1 X2.1220 Y38.4858
G1 X2.1859 Y38.3603
G1 X2.2855 Y38.2608
G1 X2.4109 Y38.1969
G1 X2.5500 Y38.1748
G1 X2.6891 Y38.1969
G1 X2.8145 Y38.2608
G1 X2.9141 Y38.3603
G1 X2.9780 Y38.4858
G1 X3.0000 Y38.6248

(cogido= c)
(y sanitizado es'c y en hex_font= #0063')
G0 Z2.0000
G0 X1.2000 Y43.6498
G1 Z0.1000
G1 X1.2000 Y43.1998
G0 Z2.0000
G0 X1.6500 Y42.7498
G1 Z0.1000
G1 X2.5500 Y42.7498
G0 Z2.0000
G0 X3.0000 Y43.1998
G1 Z0.1000
G1 X3.0000 Y43.6498
G0 Z2.0000
G0 X1.2000 Y43.1998
G1 Z0.1000
G1 X1.2220 Y43.0608
G1 X1.2859 Y42.9353
G1 X1.3855 Y42.8358
G1 X1.5109 Y42.7719
G1 X1.6500 Y42.7498
G0 Z2.0000
G0 X2.5500 Y42.7498
G1 Z0.1000
G1 X2.6891 Y42.7719
G1 X2.8145 Y42.8358
G1 X2.9141 Y42.9353
G1 X2.9780 Y43.0608
G1 X3.0000 Y43.1998

(cogido= a)
(y sanitizado es'a y en hex_font= #0061')
G0 Z2.0000
G0 X1.2000 Y44.4748
G1 Z0.1000
G1 X1.2000 Y45.0748
G0 Z2.0000
G0 X1.6500 Y45.5248
G1 Z0.1000
G1 X3.0000 Y45.5248
G1 X3.0000 Y44.7748
G0 Z2.0000
G0 X2.1000 Y44.7748
G1 Z0.1000
G1 X2.1000 Y45.5248
G0 Z2.0000
G0 X1.6500 Y45.5248
G1 Z0.1000
G1 X1.5109 Y45.5028
G1 X1.3855 Y45.4389
G1 X1.2859 Y45.3393
G1 X1.2220 Y45.2139
G1 X1.2000 Y45.0748
G0 Z2.0000
G0 X2.1000 Y44.7748
G1 Z0.1000
G1 X2.1220 Y44.6357
G1 X2.1859 Y44.5103
G1 X2.2855 Y44.4107
G1 X2.4109 Y44.3468
G1 X2.5500 Y44.3248
G1 X2.6891 Y44.3468
G1 X2.8145 Y44.4107
G1 X2.9141 Y44.5103
G1 X2.9780 Y44.6357
G1 X3.0000 Y44.7748

(cogido= b)
(y sanitizado es'b y en hex_font= #0062')
G0 Z2.0000
G0 X0.3000 Y46.1998
G1 Z0.1000
G1 X3.0000 Y46.1998
G1 X3.0000 Y46.9498
G0 Z2.0000
G0 X2.5500 Y47.3998
G1 Z0.1000
G1 X1.6500 Y47.3998
G0 Z2.0000
G0 X1.2000 Y46.9498
G1 Z0.1000
G1 X1.2000 Y46.1998
G0 Z2.0000
G0 X3.0000 Y46.9498
G1 Z0.1000
G1 X2.9780 Y47.0889
G1 X2.9141 Y47.2143
G1 X2.8145 Y47.3139
G1 X2.6891 Y47.3778
G1 X2.5500 Y47.3998
G0 Z2.0000
G0 X1.6500 Y47.3998
G1 Z0.1000
G1 X1.5109 Y47.3778
G1 X1.3855 Y47.3139
G1 X1.2859 Y47.2143
G1 X1.2220 Y47.0889
G1 X1.2000 Y46.9498

(cogido= e)
(y sanitizado es'e y en hex_font= #0065')
G0 Z2.0000
G0 X2.1000 Y48.0748
G1 Z0.1000
G1 X2.1000 Y49.2748
G1 X1.8000 Y49.2748
G0 Z2.0000
G0 X1.8000 Y48.0748
G1 Z0.1000
G1 X2.5500 Y48.0748
G0 Z2.0000
G0 X3.0000 Y48.5248
G1 Z0.1000
G1 X3.0000 Y49.2748
G0 Z2.0000
G0 X1.8000 Y49.2748
G1 Z0.1000
G1 X1.6146 Y49.2454
G1 X1.4473 Y49.1602
G1 X1.3146 Y49.0275
G1 X1.2294 Y48.8602
G1 X1.2000 Y48.6748
G1 X1.2294 Y48.4894
G1 X1.3146 Y48.3221
G1 X1.4473 Y48.1894
G1 X1.6146 Y48.1042
G1 X1.8000 Y48.0748
G0 Z2.0000
G0 X2.5500 Y48.0748
G1 Z0.1000
G1 X2.6891 Y48.0968
G1 X2.8145 Y48.1607
G1 X2.9141 Y48.2603
G1 X2.9780 Y48.3857
G1 X3.0000 Y48.5248

(cogido= z)
(y sanitizado es'z y en hex_font= #007A')
G0 Z2.0000
G0 X1.2000 Y49.9498
G1 Z0.1000
G1 X1.2000 Y51.1498
G1 X3.0000 Y49.9498
G1 X3.0000 Y51.1498

(cogido= a)
(y sanitizado es'a y en hex_font= #0061')
G0 Z2.0000
G0 X1.2000 Y51.9748
G1 Z0.1000
G1 X1.2000 Y52.5747
G0 Z2.0000
G0 X1.6500 Y53.0247
G1 Z0.1000
G1 X3.0000 Y53.0247
G1 X3.0000 Y52.2747
G0 Z2.0000
G0 X2.1000 Y52.2747
G1 Z0.1000
G1 X2.1000 Y53.0247
G0 Z2.0000
G0 X1.6500 Y53.0247
G1 Z0.1000
G1 X1.5109 Y53.0027
G1 X1.3855 Y52.9388
G1 X1.2859 Y52.8392
G1 X1.2220 Y52.7138
G1 X1.2000 Y52.5747
G0 Z2.0000
G0 X2.1000 Y52.2747
G1 Z0.1000
G1 X2.1220 Y52.1357
G1 X2.1859 Y52.0102
G1 X2.2855 Y51.9107
G1 X2.4109 Y51.8468
G1 X2.5500 Y51.8247
G1 X2.6891 Y51.8468
G1 X2.8145 Y51.9107
G1 X2.9141 Y52.0102
G1 X2.9780 Y52.1357
G1 X3.0000 Y52.2747

(cogido= e)
(y sanitizado es'e y en hex_font= #0065')
G0 Z2.0000
G0 X2.1000 Y56.3998
G1 Z0.1000
G1 X2.1000 Y57.5997
G1 X1.8000 Y57.5997
G0 Z2.0000
G0 X1.8000 Y56.3998
G1 Z0.1000
G1 X2.5500 Y56.3998
G0 Z2.0000
G0 X3.0000 Y56.8497
G1 Z0.1000
G1 X3.0000 Y57.5997
G0 Z2.0000
G0 X1.8000 Y57.5997
G1 Z0.1000
G1 X1.6146 Y57.5704
G1 X1.4473 Y57.4851
G1 X1.3146 Y57.3524
G1 X1.2294 Y57.1851
G1 X1.2000 Y56.9997
G1 X1.2294 Y56.8143
G1 X1.3146 Y56.6471
G1 X1.4473 Y56.5143
G1 X1.6146 Y56.4291
G1 X1.8000 Y56.3997
G0 Z2.0000
G0 X2.5500 Y56.3997
G1 Z0.1000
G1 X2.6891 Y56.4218
G1 X2.8145 Y56.4857
G1 X2.9141 Y56.5852
G1 X2.9780 Y56.7107
G1 X3.0000 Y56.8497

(cogido= n)
(y sanitizado es'n y en hex_font= #006E')
G0 Z2.0000
G0 X3.0000 Y58.2747
G1 Z0.1000
G1 X1.2000 Y58.2747
G1 X1.2000 Y59.0247
G0 Z2.0000
G0 X1.6500 Y59.4747
G1 Z0.1000
G1 X3.0000 Y59.4747
G0 Z2.0000
G0 X1.6500 Y59.4747
G1 Z0.1000
G1 X1.5109 Y59.4527
G1 X1.3855 Y59.3888
G1 X1.2859 Y59.2892
G1 X1.2220 Y59.1638
G1 X1.2000 Y59.0247

(cogido= s)
(y sanitizado es's y en hex_font= #0073')
G0 Z2.0000
G0 X1.9731 Y63.0941
G1 Z0.1000
G1 X2.2635 Y63.8054
G0 Z2.0000
G0 X1.3683 Y64.0497
G1 Z0.1000
G1 X1.2625 Y63.7488
G1 X1.2385 Y63.4307
G1 X1.2979 Y63.1173
G1 X1.3569 Y63.0075
G1 X1.4497 Y62.9244
G1 X1.5653 Y62.8779
G1 X1.6899 Y62.8737
G1 X1.8084 Y62.9121
G1 X1.9067 Y62.9886
G1 X1.9731 Y63.0941
G0 Z2.0000
G0 X2.9386 Y63.7822
G1 Z0.1000
G1 X2.8796 Y63.8920
G1 X2.7868 Y63.9751
G1 X2.6712 Y64.0216
G1 X2.5467 Y64.0258
G1 X2.4281 Y63.9874
G1 X2.3298 Y63.9109
G1 X2.2635 Y63.8054
G0 Z2.0000
G0 X2.8683 Y62.8497
G1 Z0.1000
G1 X2.9741 Y63.1506
G1 X2.9981 Y63.4687
G1 X2.9386 Y63.7821

(cogido= u)
(y sanitizado es'u y en hex_font= #0075')
G0 Z2.0000
G0 X1.2000 Y64.7247
G1 Z0.1000
G1 X2.5500 Y64.7247
G0 Z2.0000
G0 X3.0000 Y65.1747
G1 Z0.1000
G1 X3.0000 Y65.9247
G1 X1.2000 Y65.9247
G0 Z2.0000
G0 X2.5500 Y64.7247
G1 Z0.1000
G1 X2.6891 Y64.7468
G1 X2.8145 Y64.8107
G1 X2.9141 Y64.9102
G1 X2.9780 Y65.0357
G1 X3.0000 Y65.1747

(cogido= s)
(y sanitizado es's y en hex_font= #0073')
G0 Z2.0000
G0 X1.9731 Y69.5441
G1 Z0.1000
G1 X2.2635 Y70.2554
G0 Z2.0000
G0 X1.3683 Y70.4998
G1 Z0.1000
G1 X1.2625 Y70.1988
G1 X1.2385 Y69.8807
G1 X1.2979 Y69.5673
G1 X1.3569 Y69.4575
G1 X1.4497 Y69.3744
G1 X1.5653 Y69.3280
G1 X1.6899 Y69.3237
G1 X1.8084 Y69.3621
G1 X1.9067 Y69.4386
G1 X1.9731 Y69.5441
G0 Z2.0000
G0 X2.9386 Y70.2322
G1 Z0.1000
G1 X2.8796 Y70.3420
G1 X2.7868 Y70.4251
G1 X2.6712 Y70.4716
G1 X2.5467 Y70.4758
G1 X2.4281 Y70.4374
G1 X2.3298 Y70.3609
G1 X2.2635 Y70.2554
G0 Z2.0000
G0 X2.8683 Y69.2997
G1 Z0.1000
G1 X2.9741 Y69.6007
G1 X2.9981 Y69.9187
G1 X2.9386 Y70.2322

(cogido= i)
(y sanitizado es'i y en hex_font= #0069')
G0 Z2.0000
G0 X3.0000 Y71.1747
G1 Z0.1000
G1 X1.2000 Y71.1747
G0 Z2.0000
G0 X0.4500 Y71.1747
G1 Z0.1000
G1 X0.3000 Y71.1747

(cogido= t)
(y sanitizado es't y en hex_font= #0074')
G0 Z2.0000
G0 X1.2000 Y71.8497
G1 Z0.1000
G1 X1.2000 Y72.7497
G0 Z2.0000
G0 X0.3000 Y72.1497
G1 Z0.1000
G1 X3.0000 Y72.1497

(cogido= i)
(y sanitizado es'i y en hex_font= #0069')
G0 Z2.0000
G0 X3.0000 Y73.4247
G1 Z0.1000
G1 X1.2000 Y73.4247
G0 Z2.0000
G0 X0.4500 Y73.4247
G1 Z0.1000
G1 X0.3000 Y73.4247

(cogido= o)
(y sanitizado es'o y en hex_font= #006F')
G0 Z2.0000
G0 X1.8000 Y74.0996
G1 Z0.1000
G1 X2.4000 Y74.0996
G0 Z2.0000
G0 X2.4000 Y75.2997
G1 Z0.1000
G1 X1.8000 Y75.2997
G0 Z2.0000
G0 X2.4000 Y74.0997
G1 Z0.1000
G1 X2.5854 Y74.1291
G1 X2.7527 Y74.2143
G1 X2.8854 Y74.3470
G1 X2.9706 Y74.5143
G1 X3.0000 Y74.6997
G1 X2.9706 Y74.8851
G1 X2.8854 Y75.0524
G1 X2.7527 Y75.1851
G1 X2.5854 Y75.2703
G1 X2.4000 Y75.2997
G0 Z2.0000
G0 X1.8000 Y75.2997
G1 Z0.1000
G1 X1.6146 Y75.2703
G1 X1.4473 Y75.1851
G1 X1.3146 Y75.0524
G1 X1.2294 Y74.8851
G1 X1.2000 Y74.6997
G1 X1.2294 Y74.5143
G1 X1.3146 Y74.3470
G1 X1.4473 Y74.2143
G1 X1.6146 Y74.1291
G1 X1.8000 Y74.0997

(cogido= c)
(y sanitizado es'c y en hex_font= #0063')
G0 Z2.0000
G0 X1.2000 Y79.5747
G1 Z0.1000
G1 X1.2000 Y79.1247
G0 Z2.0000
G0 X1.6500 Y78.6747
G1 Z0.1000
G1 X2.5500 Y78.6747
G0 Z2.0000
G0 X3.0000 Y79.1247
G1 Z0.1000
G1 X3.0000 Y79.5747
G0 Z2.0000
G0 X1.2000 Y79.1247
G1 Z0.1000
G1 X1.2220 Y78.9856
G1 X1.2859 Y78.8602
G1 X1.3855 Y78.7606
G1 X1.5109 Y78.6967
G1 X1.6500 Y78.6747
G0 Z2.0000
G0 X2.5500 Y78.6747
G1 Z0.1000
G1 X2.6891 Y78.6967
G1 X2.8145 Y78.7606
G1 X2.9141 Y78.8602
G1 X2.9780 Y78.9856
G1 X3.0000 Y79.1247

(cogido= u)
(y sanitizado es'u y en hex_font= #0075')
G0 Z2.0000
G0 X1.2000 Y80.2497
G1 Z0.1000
G1 X2.5500 Y80.2497
G0 Z2.0000
G0 X3.0000 Y80.6997
G1 Z0.1000
G1 X3.0000 Y81.4497
G1 X1.2000 Y81.4497
G0 Z2.0000
G0 X2.5500 Y80.2497
G1 Z0.1000
G1 X2.6891 Y80.2717
G1 X2.8145 Y80.3356
G1 X2.9141 Y80.4352
G1 X2.9780 Y80.5606
G1 X3.0000 Y80.6997

(cogido= a)
(y sanitizado es'a y en hex_font= #0061')
G0 Z2.0000
G0 X1.2000 Y82.2747
G1 Z0.1000
G1 X1.2000 Y82.8747
G0 Z2.0000
G0 X1.6500 Y83.3247
G1 Z0.1000
G1 X3.0000 Y83.3247
G1 X3.0000 Y82.5747
G0 Z2.0000
G0 X2.1000 Y82.5747
G1 Z0.1000
G1 X2.1000 Y83.3247
G0 Z2.0000
G0 X1.6500 Y83.3247
G1 Z0.1000
G1 X1.5109 Y83.3026
G1 X1.3855 Y83.2387
G1 X1.2859 Y83.1392
G1 X1.2220 Y83.0137
G1 X1.2000 Y82.8747
G0 Z2.0000
G0 X2.1000 Y82.5747
G1 Z0.1000
G1 X2.1220 Y82.4356
G1 X2.1859 Y82.3102
G1 X2.2855 Y82.2106
G1 X2.4109 Y82.1467
G1 X2.5500 Y82.1247
G1 X2.6891 Y82.1467
G1 X2.8145 Y82.2106
G1 X2.9141 Y82.3102
G1 X2.9780 Y82.4356
G1 X3.0000 Y82.5747

(cogido= n)
(y sanitizado es'n y en hex_font= #006E')
G0 Z2.0000
G0 X3.0000 Y83.9997
G1 Z0.1000
G1 X1.2000 Y83.9997
G1 X1.2000 Y84.7497
G0 Z2.0000
G0 X1.6500 Y85.1997
G1 Z0.1000
G1 X3.0000 Y85.1997
G0 Z2.0000
G0 X1.6500 Y85.1997
G1 Z0.1000
G1 X1.5109 Y85.1776
G1 X1.3855 Y85.1137
G1 X1.2859 Y85.0142
G1 X1.2220 Y84.8887
G1 X1.2000 Y84.7497

(cogido= d)
(y sanitizado es'd y en hex_font= #0064')
G0 Z2.0000
G0 X0.3000 Y87.0747
G1 Z0.1000
G1 X3.0000 Y87.0747
G1 X3.0000 Y86.3247
G0 Z2.0000
G0 X2.5500 Y85.8747
G1 Z0.1000
G1 X1.6500 Y85.8747
G0 Z2.0000
G0 X1.2000 Y86.3247
G1 Z0.1000
G1 X1.2000 Y87.0747
G0 Z2.0000
G0 X2.5500 Y85.8747
G1 Z0.1000
G1 X2.6891 Y85.8967
G1 X2.8145 Y85.9606
G1 X2.9141 Y86.0602
G1 X2.9780 Y86.1856
G1 X3.0000 Y86.3247
G0 Z2.0000
G0 X1.2000 Y86.3247
G1 Z0.1000
G1 X1.2220 Y86.1856
G1 X1.2859 Y86.0602
G1 X1.3855 Y85.9606
G1 X1.5109 Y85.8967
G1 X1.6500 Y85.8747

(cogido= o)
(y sanitizado es'o y en hex_font= #006F')
G0 Z2.0000
G0 X1.8000 Y87.7496
G1 Z0.1000
G1 X2.4000 Y87.7496
G0 Z2.0000
G0 X2.4000 Y88.9497
G1 Z0.1000
G1 X1.8000 Y88.9497
G0 Z2.0000
G0 X2.4000 Y87.7497
G1 Z0.1000
G1 X2.5854 Y87.7791
G1 X2.7527 Y87.8643
G1 X2.8854 Y87.9970
G1 X2.9706 Y88.1643
G1 X3.0000 Y88.3497
G1 X2.9706 Y88.5351
G1 X2.8854 Y88.7024
G1 X2.7527 Y88.8351
G1 X2.5854 Y88.9203
G1 X2.4000 Y88.9497
G0 Z2.0000
G0 X1.8000 Y88.9497
G1 Z0.1000
G1 X1.6146 Y88.9203
G1 X1.4473 Y88.8351
G1 X1.3146 Y88.7024
G1 X1.2294 Y88.5351
G1 X1.2000 Y88.3497
G1 X1.2294 Y88.1643
G1 X1.3146 Y87.9970
G1 X1.4473 Y87.8643
G1 X1.6146 Y87.7791
G1 X1.8000 Y87.7497

(cogido= t)
(y sanitizado es't y en hex_font= #0074')
G0 Z2.0000
G0 X1.2000 Y92.3247
G1 Z0.1000
G1 X1.2000 Y93.2247
G0 Z2.0000
G0 X0.3000 Y92.6247
G1 Z0.1000
G1 X3.0000 Y92.6247

(cogido= o)
(y sanitizado es'o y en hex_font= #006F')
G0 Z2.0000
G0 X1.8000 Y93.8996
G1 Z0.1000
G1 X2.4000 Y93.8996
G0 Z2.0000
G0 X2.4000 Y95.0997
G1 Z0.1000
G1 X1.8000 Y95.0997
G0 Z2.0000
G0 X2.4000 Y93.8997
G1 Z0.1000
G1 X2.5854 Y93.9291
G1 X2.7527 Y94.0143
G1 X2.8854 Y94.1470
G1 X2.9706 Y94.3143
G1 X3.0000 Y94.4997
G1 X2.9706 Y94.6851
G1 X2.8854 Y94.8524
G1 X2.7527 Y94.9851
G1 X2.5854 Y95.0703
G1 X2.4000 Y95.0997
G0 Z2.0000
G0 X1.8000 Y95.0997
G1 Z0.1000
G1 X1.6146 Y95.0703
G1 X1.4473 Y94.9851
G1 X1.3146 Y94.8524
G1 X1.2294 Y94.6851
G1 X1.2000 Y94.4997
G1 X1.2294 Y94.3143
G1 X1.3146 Y94.1470
G1 X1.4473 Y94.0143
G1 X1.6146 Y93.9291
G1 X1.8000 Y93.8997

(cogido= d)
(y sanitizado es'd y en hex_font= #0064')
G0 Z2.0000
G0 X0.3000 Y96.9747
G1 Z0.1000
G1 X3.0000 Y96.9747
G1 X3.0000 Y96.2247
G0 Z2.0000
G0 X2.5500 Y95.7747
G1 Z0.1000
G1 X1.6500 Y95.7747
G0 Z2.0000
G0 X1.2000 Y96.2247
G1 Z0.1000
G1 X1.2000 Y96.9747
G0 Z2.0000
G0 X2.5500 Y95.7747
G1 Z0.1000
G1 X2.6891 Y95.7967
G1 X2.8145 Y95.8606
G1 X2.9141 Y95.9602
G1 X2.9780 Y96.0856
G1 X3.0000 Y96.2247
G0 Z2.0000
G0 X1.2000 Y96.2247
G1 Z0.1000
G1 X1.2220 Y96.0856
G1 X1.2859 Y95.9602
G1 X1.3855 Y95.8606
G1 X1.5109 Y95.7967
G1 X1.6500 Y95.7747

(cogido= o)
(y sanitizado es'o y en hex_font= #006F')
G0 Z2.0000
G0 X1.8000 Y97.6496
G1 Z0.1000
G1 X2.4000 Y97.6496
G0 Z2.0000
G0 X2.4000 Y98.8497
G1 Z0.1000
G1 X1.8000 Y98.8497
G0 Z2.0000
G0 X2.4000 Y97.6497
G1 Z0.1000
G1 X2.5854 Y97.6791
G1 X2.7527 Y97.7643
G1 X2.8854 Y97.8971
G1 X2.9706 Y98.0643
G1 X3.0000 Y98.2497
G1 X2.9706 Y98.4351
G1 X2.8854 Y98.6024
G1 X2.7527 Y98.7351
G1 X2.5854 Y98.8204
G1 X2.4000 Y98.8497
G0 Z2.0000
G0 X1.8000 Y98.8497
G1 Z0.1000
G1 X1.6146 Y98.8204
G1 X1.4473 Y98.7351
G1 X1.3146 Y98.6024
G1 X1.2294 Y98.4351
G1 X1.2000 Y98.2497
G1 X1.2294 Y98.0643
G1 X1.3146 Y97.8971
G1 X1.4473 Y97.7643
G1 X1.6146 Y97.6791
G1 X1.8000 Y97.6497

(cogido= s)
(y sanitizado es's y en hex_font= #0073')
G0 Z2.0000
G0 X1.9731 Y99.7690
G1 Z0.1000
G1 X2.2635 Y100.4803
G0 Z2.0000
G0 X1.3683 Y100.7247
G1 Z0.1000
G1 X1.2625 Y100.4238
G1 X1.2385 Y100.1057
G1 X1.2979 Y99.7923
G1 X1.3569 Y99.6825
G1 X1.4497 Y99.5994
G1 X1.5653 Y99.5529
G1 X1.6899 Y99.5487
G1 X1.8084 Y99.5871
G1 X1.9067 Y99.6636
G1 X1.9731 Y99.7691
G0 Z2.0000
G0 X2.9386 Y100.4572
G1 Z0.1000
G1 X2.8796 Y100.5670
G1 X2.7868 Y100.6501
G1 X2.6712 Y100.6965
G1 X2.5467 Y100.7008
G1 X2.4281 Y100.6624
G1 X2.3298 Y100.5859
G1 X2.2635 Y100.4804
G0 Z2.0000
G0 X2.8683 Y99.5247
G1 Z0.1000
G1 X2.9741 Y99.8256
G1 X2.9981 Y100.1437
G1 X2.9386 Y100.4571

(cogido= a)
(y sanitizado es'a y en hex_font= #0061')
G0 Z2.0000
G0 X1.2000 Y104.2497
G1 Z0.1000
G1 X1.2000 Y104.8497
G0 Z2.0000
G0 X1.6500 Y105.2997
G1 Z0.1000
G1 X3.0000 Y105.2997
G1 X3.0000 Y104.5497
G0 Z2.0000
G0 X2.1000 Y104.5497
G1 Z0.1000
G1 X2.1000 Y105.2997
G0 Z2.0000
G0 X1.6500 Y105.2997
G1 Z0.1000
G1 X1.5109 Y105.2777
G1 X1.3855 Y105.2138
G1 X1.2859 Y105.1142
G1 X1.2220 Y104.9888
G1 X1.2000 Y104.8497
G0 Z2.0000
G0 X2.1000 Y104.5497
G1 Z0.1000
G1 X2.1220 Y104.4106
G1 X2.1859 Y104.2852
G1 X2.2855 Y104.1856
G1 X2.4109 Y104.1217
G1 X2.5500 Y104.0997
G1 X2.6891 Y104.1217
G1 X2.8145 Y104.1856
G1 X2.9141 Y104.2852
G1 X2.9780 Y104.4106
G1 X3.0000 Y104.5497

(cogido= t)
(y sanitizado es't y en hex_font= #0074')
G0 Z2.0000
G0 X1.2000 Y108.6747
G1 Z0.1000
G1 X1.2000 Y109.5747
G0 Z2.0000
G0 X0.3000 Y108.9747
G1 Z0.1000
G1 X3.0000 Y108.9747

(cogido= u)
(y sanitizado es'u y en hex_font= #0075')
G0 Z2.0000
G0 X1.2000 Y110.2497
G1 Z0.1000
G1 X2.5500 Y110.2497
G0 Z2.0000
G0 X3.0000 Y110.6997
G1 Z0.1000
G1 X3.0000 Y111.4497
G1 X1.2000 Y111.4497
G0 Z2.0000
G0 X2.5500 Y110.2497
G1 Z0.1000
G1 X2.6891 Y110.2717
G1 X2.8145 Y110.3356
G1 X2.9141 Y110.4352
G1 X2.9780 Y110.5606
G1 X3.0000 Y110.6997

(cogido= a)
(y sanitizado es'a y en hex_font= #0061')
G0 Z2.0000
G0 X1.2000 Y114.9747
G1 Z0.1000
G1 X1.2000 Y115.5746
G0 Z2.0000
G0 X1.6500 Y116.0246
G1 Z0.1000
G1 X3.0000 Y116.0246
G1 X3.0000 Y115.2746
G0 Z2.0000
G0 X2.1000 Y115.2746
G1 Z0.1000
G1 X2.1000 Y116.0246
G0 Z2.0000
G0 X1.6500 Y116.0246
G1 Z0.1000
G1 X1.5109 Y116.0026
G1 X1.3855 Y115.9387
G1 X1.2859 Y115.8391
G1 X1.2220 Y115.7137
G1 X1.2000 Y115.5746
G0 Z2.0000
G0 X2.1000 Y115.2746
G1 Z0.1000
G1 X2.1220 Y115.1356
G1 X2.1859 Y115.0101
G1 X2.2855 Y114.9106
G1 X2.4109 Y114.8467
G1 X2.5500 Y114.8246
G1 X2.6891 Y114.8467
G1 X2.8145 Y114.9106
G1 X2.9141 Y115.0101
G1 X2.9780 Y115.1356
G1 X3.0000 Y115.2746

(cogido= l)
(y sanitizado es'l y en hex_font= #006C')
G0 Z2.0000
G0 X0.3000 Y116.6996
G1 Z0.1000
G1 X2.7000 Y116.6996
G1 X2.7927 Y116.7143
G1 X2.8763 Y116.7569
G1 X2.9427 Y116.8233
G1 X2.9853 Y116.9069
G1 X3.0000 Y116.9996

(cogido= r)
(y sanitizado es'r y en hex_font= #0072')
G0 Z2.0000
G0 X3.0000 Y117.6746
G1 Z0.1000
G1 X1.2000 Y117.6746
G1 X1.2000 Y118.2746
G0 Z2.0000
G0 X1.5000 Y118.5746
G1 Z0.1000
G1 X1.4073 Y118.5599
G1 X1.3237 Y118.5173
G1 X1.2573 Y118.4510
G1 X1.2147 Y118.3673
G1 X1.2000 Y118.2746

(cogido= e)
(y sanitizado es'e y en hex_font= #0065')
G0 Z2.0000
G0 X2.1000 Y119.2496
G1 Z0.1000
G1 X2.1000 Y120.4496
G1 X1.8000 Y120.4496
G0 Z2.0000
G0 X1.8000 Y119.2496
G1 Z0.1000
G1 X2.5500 Y119.2496
G0 Z2.0000
G0 X3.0000 Y119.6996
G1 Z0.1000
G1 X3.0000 Y120.4496
G0 Z2.0000
G0 X1.8000 Y120.4496
G1 Z0.1000
G1 X1.6146 Y120.4202
G1 X1.4473 Y120.3350
G1 X1.3146 Y120.2023
G1 X1.2294 Y120.0350
G1 X1.2000 Y119.8496
G1 X1.2294 Y119.6642
G1 X1.3146 Y119.4969
G1 X1.4473 Y119.3642
G1 X1.6146 Y119.2790
G1 X1.8000 Y119.2496
G0 Z2.0000
G0 X2.5500 Y119.2496
G1 Z0.1000
G1 X2.6891 Y119.2716
G1 X2.8145 Y119.3356
G1 X2.9141 Y119.4351
G1 X2.9780 Y119.5606
G1 X3.0000 Y119.6996

(cogido= d)
(y sanitizado es'd y en hex_font= #0064')
G0 Z2.0000
G0 X0.3000 Y122.3246
G1 Z0.1000
G1 X3.0000 Y122.3246
G1 X3.0000 Y121.5746
G0 Z2.0000
G0 X2.5500 Y121.1246
G1 Z0.1000
G1 X1.6500 Y121.1246
G0 Z2.0000
G0 X1.2000 Y121.5746
G1 Z0.1000
G1 X1.2000 Y122.3246
G0 Z2.0000
G0 X2.5500 Y121.1246
G1 Z0.1000
G1 X2.6891 Y121.1466
G1 X2.8145 Y121.2106
G1 X2.9141 Y121.3101
G1 X2.9780 Y121.4356
G1 X3.0000 Y121.5746
G0 Z2.0000
G0 X1.2000 Y121.5746
G1 Z0.1000
G1 X1.2220 Y121.4356
G1 X1.2859 Y121.3101
G1 X1.3855 Y121.2106
G1 X1.5109 Y121.1466
G1 X1.6500 Y121.1246

(cogido= e)
(y sanitizado es'e y en hex_font= #0065')
G0 Z2.0000
G0 X2.1000 Y122.9996
G1 Z0.1000
G1 X2.1000 Y124.1996
G1 X1.8000 Y124.1996
G0 Z2.0000
G0 X1.8000 Y122.9996
G1 Z0.1000
G1 X2.5500 Y122.9996
G0 Z2.0000
G0 X3.0000 Y123.4496
G1 Z0.1000
G1 X3.0000 Y124.1996
G0 Z2.0000
G0 X1.8000 Y124.1996
G1 Z0.1000
G1 X1.6146 Y124.1702
G1 X1.4473 Y124.0850
G1 X1.3146 Y123.9523
G1 X1.2294 Y123.7850
G1 X1.2000 Y123.5996
G1 X1.2294 Y123.4142
G1 X1.3146 Y123.2469
G1 X1.4473 Y123.1142
G1 X1.6146 Y123.0290
G1 X1.8000 Y122.9996
G0 Z2.0000
G0 X2.5500 Y122.9996
G1 Z0.1000
G1 X2.6891 Y123.0216
G1 X2.8145 Y123.0856
G1 X2.9141 Y123.1851
G1 X2.9780 Y123.3106
G1 X3.0000 Y123.4496

(cogido= d)
(y sanitizado es'd y en hex_font= #0064')
G0 Z2.0000
G0 X0.3000 Y126.0746
G1 Z0.1000
G1 X3.0000 Y126.0746
G1 X3.0000 Y125.3246
G0 Z2.0000
G0 X2.5500 Y124.8746
G1 Z0.1000
G1 X1.6500 Y124.8746
G0 Z2.0000
G0 X1.2000 Y125.3246
G1 Z0.1000
G1 X1.2000 Y126.0746
G0 Z2.0000
G0 X2.5500 Y124.8746
G1 Z0.1000
G1 X2.6891 Y124.8966
G1 X2.8145 Y124.9606
G1 X2.9141 Y125.0601
G1 X2.9780 Y125.1856
G1 X3.0000 Y125.3246
G0 Z2.0000
G0 X1.2000 Y125.3246
G1 Z0.1000
G1 X1.2220 Y125.1856
G1 X1.2859 Y125.0601
G1 X1.3855 Y124.9606
G1 X1.5109 Y124.8966
G1 X1.6500 Y124.8746

(cogido= o)
(y sanitizado es'o y en hex_font= #006F')
G0 Z2.0000
G0 X1.8000 Y126.7496
G1 Z0.1000
G1 X2.4000 Y126.7496
G0 Z2.0000
G0 X2.4000 Y127.9496
G1 Z0.1000
G1 X1.8000 Y127.9496
G0 Z2.0000
G0 X2.4000 Y126.7496
G1 Z0.1000
G1 X2.5854 Y126.7790
G1 X2.7527 Y126.8642
G1 X2.8854 Y126.9970
G1 X2.9706 Y127.1642
G1 X3.0000 Y127.3496
G1 X2.9706 Y127.5351
G1 X2.8854 Y127.7023
G1 X2.7527 Y127.8351
G1 X2.5854 Y127.9203
G1 X2.4000 Y127.9496
G0 Z2.0000
G0 X1.8000 Y127.9496
G1 Z0.1000
G1 X1.6146 Y127.9203
G1 X1.4473 Y127.8351
G1 X1.3146 Y127.7023
G1 X1.2294 Y127.5351
G1 X1.2000 Y127.3496
G1 X1.2294 Y127.1642
G1 X1.3146 Y126.9970
G1 X1.4473 Y126.8642
G1 X1.6146 Y126.7790
G1 X1.8000 Y126.7496

(cogido= r)
(y sanitizado es'r y en hex_font= #0072')
G0 Z2.0000
G0 X3.0000 Y128.6246
G1 Z0.1000
G1 X1.2000 Y128.6246
G1 X1.2000 Y129.2246
G0 Z2.0000
G0 X1.5000 Y129.5246
G1 Z0.1000
G1 X1.4073 Y129.5099
G1 X1.3237 Y129.4673
G1 X1.2573 Y129.4010
G1 X1.2147 Y129.3173
G1 X1.2000 Y129.2246

G0 Z2.0000
(===================================================================)
( Line 2 )
( Grabando: la pierdan y te culpen a ti." )
(===================================================================)
(cogido= l)
(y sanitizado es'l y en hex_font= #006C')
G0 Z2.0000
G0 X3.3000 Y-0.0000
G1 Z0.1000
G1 X5.7000 Y-0.0000
G1 X5.7927 Y0.0147
G1 X5.8763 Y0.0573
G1 X5.9427 Y0.1237
G1 X5.9853 Y0.2073
G1 X6.0000 Y0.3000

(cogido= a)
(y sanitizado es'a y en hex_font= #0061')
G0 Z2.0000
G0 X4.2000 Y1.1250
G1 Z0.1000
G1 X4.2000 Y1.7250
G0 Z2.0000
G0 X4.6500 Y2.1750
G1 Z0.1000
G1 X6.0000 Y2.1750
G1 X6.0000 Y1.4250
G0 Z2.0000
G0 X5.1000 Y1.4250
G1 Z0.1000
G1 X5.1000 Y2.1750
G0 Z2.0000
G0 X4.6500 Y2.1750
G1 Z0.1000
G1 X4.5109 Y2.1529
G1 X4.3855 Y2.0890
G1 X4.2859 Y1.9895
G1 X4.2220 Y1.8640
G1 X4.2000 Y1.7250
G0 Z2.0000
G0 X5.1000 Y1.4250
G1 Z0.1000
G1 X5.1220 Y1.2859
G1 X5.1859 Y1.1605
G1 X5.2855 Y1.0609
G1 X5.4109 Y0.9970
G1 X5.5500 Y0.9750
G1 X5.6891 Y0.9970
G1 X5.8145 Y1.0609
G1 X5.9141 Y1.1605
G1 X5.9780 Y1.2859
G1 X6.0000 Y1.4250

(cogido= p)
(y sanitizado es'p y en hex_font= #0070')
G0 Z2.0000
G0 X6.0000 Y5.5499
G1 Z0.1000
G1 X6.0000 Y6.2999
G0 Z2.0000
G0 X5.5500 Y6.7499
G1 Z0.1000
G1 X4.6500 Y6.7499
G0 Z2.0000
G0 X4.2000 Y6.2999
G1 Z0.1000
G1 X4.2000 Y5.5499
G1 X6.9000 Y5.5499
G0 Z2.0000
G0 X6.0000 Y6.2999
G1 Z0.1000
G1 X5.9780 Y6.4390
G1 X5.9141 Y6.5644
G1 X5.8145 Y6.6640
G1 X5.6891 Y6.7279
G1 X5.5500 Y6.7499
G0 Z2.0000
G0 X4.6500 Y6.7499
G1 Z0.1000
G1 X4.5109 Y6.7279
G1 X4.3855 Y6.6640
G1 X4.2859 Y6.5644
G1 X4.2220 Y6.4390
G1 X4.2000 Y6.2999

(cogido= i)
(y sanitizado es'i y en hex_font= #0069')
G0 Z2.0000
G0 X6.0000 Y7.4249
G1 Z0.1000
G1 X4.2000 Y7.4249
G0 Z2.0000
G0 X3.4500 Y7.4249
G1 Z0.1000
G1 X3.3000 Y7.4249

(cogido= e)
(y sanitizado es'e y en hex_font= #0065')
G0 Z2.0000
G0 X5.1000 Y8.0999
G1 Z0.1000
G1 X5.1000 Y9.2999
G1 X4.8000 Y9.2999
G0 Z2.0000
G0 X4.8000 Y8.0999
G1 Z0.1000
G1 X5.5500 Y8.0999
G0 Z2.0000
G0 X6.0000 Y8.5499
G1 Z0.1000
G1 X6.0000 Y9.2999
G0 Z2.0000
G0 X4.8000 Y9.2999
G1 Z0.1000
G1 X4.6146 Y9.2705
G1 X4.4473 Y9.1853
G1 X4.3146 Y9.0526
G1 X4.2294 Y8.8853
G1 X4.2000 Y8.6999
G1 X4.2294 Y8.5145
G1 X4.3146 Y8.3472
G1 X4.4473 Y8.2145
G1 X4.6146 Y8.1292
G1 X4.8000 Y8.0999
G0 Z2.0000
G0 X5.5500 Y8.0999
G1 Z0.1000
G1 X5.6891 Y8.1219
G1 X5.8145 Y8.1858
G1 X5.9141 Y8.2854
G1 X5.9780 Y8.4108
G1 X6.0000 Y8.5499

(cogido= r)
(y sanitizado es'r y en hex_font= #0072')
G0 Z2.0000
G0 X6.0000 Y9.9748
G1 Z0.1000
G1 X4.2000 Y9.9748
G1 X4.2000 Y10.5748
G0 Z2.0000
G0 X4.5000 Y10.8748
G1 Z0.1000
G1 X4.4073 Y10.8602
G1 X4.3237 Y10.8176
G1 X4.2573 Y10.7512
G1 X4.2147 Y10.6676
G1 X4.2000 Y10.5748

(cogido= d)
(y sanitizado es'd y en hex_font= #0064')
G0 Z2.0000
G0 X3.3000 Y12.7498
G1 Z0.1000
G1 X6.0000 Y12.7498
G1 X6.0000 Y11.9998
G0 Z2.0000
G0 X5.5500 Y11.5498
G1 Z0.1000
G1 X4.6500 Y11.5498
G0 Z2.0000
G0 X4.2000 Y11.9999
G1 Z0.1000
G1 X4.2000 Y12.7498
G0 Z2.0000
G0 X5.5500 Y11.5498
G1 Z0.1000
G1 X5.6891 Y11.5719
G1 X5.8145 Y11.6358
G1 X5.9141 Y11.7353
G1 X5.9780 Y11.8608
G1 X6.0000 Y11.9998
G0 Z2.0000
G0 X4.2000 Y11.9999
G1 Z0.1000
G1 X4.2220 Y11.8608
G1 X4.2859 Y11.7353
G1 X4.3855 Y11.6358
G1 X4.5109 Y11.5719
G1 X4.6500 Y11.5498

(cogido= a)
(y sanitizado es'a y en hex_font= #0061')
G0 Z2.0000
G0 X4.2000 Y13.5748
G1 Z0.1000
G1 X4.2000 Y14.1748
G0 Z2.0000
G0 X4.6500 Y14.6248
G1 Z0.1000
G1 X6.0000 Y14.6248
G1 X6.0000 Y13.8748
G0 Z2.0000
G0 X5.1000 Y13.8748
G1 Z0.1000
G1 X5.1000 Y14.6248
G0 Z2.0000
G0 X4.6500 Y14.6248
G1 Z0.1000
G1 X4.5109 Y14.6028
G1 X4.3855 Y14.5389
G1 X4.2859 Y14.4393
G1 X4.2220 Y14.3139
G1 X4.2000 Y14.1748
G0 Z2.0000
G0 X5.1000 Y13.8748
G1 Z0.1000
G1 X5.1220 Y13.7358
G1 X5.1859 Y13.6103
G1 X5.2855 Y13.5108
G1 X5.4109 Y13.4468
G1 X5.5500 Y13.4248
G1 X5.6891 Y13.4468
G1 X5.8145 Y13.5108
G1 X5.9141 Y13.6103
G1 X5.9780 Y13.7358
G1 X6.0000 Y13.8748

(cogido= n)
(y sanitizado es'n y en hex_font= #006E')
G0 Z2.0000
G0 X6.0000 Y15.2998
G1 Z0.1000
G1 X4.2000 Y15.2998
G1 X4.2000 Y16.0498
G0 Z2.0000
G0 X4.6500 Y16.4998
G1 Z0.1000
G1 X6.0000 Y16.4998
G0 Z2.0000
G0 X4.6500 Y16.4998
G1 Z0.1000
G1 X4.5109 Y16.4778
G1 X4.3855 Y16.4139
G1 X4.2859 Y16.3143
G1 X4.2220 Y16.1889
G1 X4.2000 Y16.0498

(cogido= y)
(y sanitizado es'y y en hex_font= #0079')
G0 Z2.0000
G0 X4.2000 Y19.8748
G1 Z0.1000
G1 X6.0000 Y20.4748
G0 Z2.0000
G0 X4.2000 Y21.0748
G1 Z0.1000
G1 X6.6949 Y20.2432
G0 Z2.0000
G0 X6.9000 Y19.9586
G1 Z0.1000
G1 X6.9000 Y19.8748
G0 Z2.0000
G0 X6.9000 Y19.9586
G1 Z0.1000
G1 X6.8855 Y20.0508
G1 X6.8434 Y20.1340
G1 X6.7777 Y20.2003
G1 X6.6949 Y20.2432

(cogido= t)
(y sanitizado es't y en hex_font= #0074')
G0 Z2.0000
G0 X4.2000 Y24.4498
G1 Z0.1000
G1 X4.2000 Y25.3498
G0 Z2.0000
G0 X3.3000 Y24.7499
G1 Z0.1000
G1 X6.0000 Y24.7498

(cogido= e)
(y sanitizado es'e y en hex_font= #0065')
G0 Z2.0000
G0 X5.1000 Y26.0248
G1 Z0.1000
G1 X5.1000 Y27.2248
G1 X4.8000 Y27.2248
G0 Z2.0000
G0 X4.8000 Y26.0248
G1 Z0.1000
G1 X5.5500 Y26.0248
G0 Z2.0000
G0 X6.0000 Y26.4748
G1 Z0.1000
G1 X6.0000 Y27.2248
G0 Z2.0000
G0 X4.8000 Y27.2248
G1 Z0.1000
G1 X4.6146 Y27.1955
G1 X4.4473 Y27.1102
G1 X4.3146 Y26.9775
G1 X4.2294 Y26.8102
G1 X4.2000 Y26.6248
G1 X4.2294 Y26.4394
G1 X4.3146 Y26.2721
G1 X4.4473 Y26.1394
G1 X4.6146 Y26.0542
G1 X4.8000 Y26.0248
G0 Z2.0000
G0 X5.5500 Y26.0248
G1 Z0.1000
G1 X5.6891 Y26.0468
G1 X5.8145 Y26.1108
G1 X5.9141 Y26.2103
G1 X5.9780 Y26.3358
G1 X6.0000 Y26.4748

(cogido= c)
(y sanitizado es'c y en hex_font= #0063')
G0 Z2.0000
G0 X4.2000 Y31.4998
G1 Z0.1000
G1 X4.2000 Y31.0498
G0 Z2.0000
G0 X4.6500 Y30.5998
G1 Z0.1000
G1 X5.5500 Y30.5998
G0 Z2.0000
G0 X6.0000 Y31.0498
G1 Z0.1000
G1 X6.0000 Y31.4998
G0 Z2.0000
G0 X4.2000 Y31.0498
G1 Z0.1000
G1 X4.2220 Y30.9108
G1 X4.2859 Y30.7853
G1 X4.3855 Y30.6858
G1 X4.5109 Y30.6218
G1 X4.6500 Y30.5998
G0 Z2.0000
G0 X5.5500 Y30.5998
G1 Z0.1000
G1 X5.6891 Y30.6218
G1 X5.8145 Y30.6858
G1 X5.9141 Y30.7853
G1 X5.9780 Y30.9108
G1 X6.0000 Y31.0498

(cogido= u)
(y sanitizado es'u y en hex_font= #0075')
G0 Z2.0000
G0 X4.2000 Y32.1748
G1 Z0.1000
G1 X5.5500 Y32.1748
G0 Z2.0000
G0 X6.0000 Y32.6248
G1 Z0.1000
G1 X6.0000 Y33.3748
G1 X4.2000 Y33.3748
G0 Z2.0000
G0 X5.5500 Y32.1748
G1 Z0.1000
G1 X5.6891 Y32.1968
G1 X5.8145 Y32.2608
G1 X5.9141 Y32.3603
G1 X5.9780 Y32.4858
G1 X6.0000 Y32.6248

(cogido= l)
(y sanitizado es'l y en hex_font= #006C')
G0 Z2.0000
G0 X3.3000 Y34.0498
G1 Z0.1000
G1 X5.7000 Y34.0498
G1 X5.7927 Y34.0645
G1 X5.8763 Y34.1071
G1 X5.9427 Y34.1735
G1 X5.9853 Y34.2571
G1 X6.0000 Y34.3498

(cogido= p)
(y sanitizado es'p y en hex_font= #0070')
G0 Z2.0000
G0 X6.0000 Y35.0248
G1 Z0.1000
G1 X6.0000 Y35.7748
G0 Z2.0000
G0 X5.5500 Y36.2248
G1 Z0.1000
G1 X4.6500 Y36.2248
G0 Z2.0000
G0 X4.2000 Y35.7748
G1 Z0.1000
G1 X4.2000 Y35.0248
G1 X6.9000 Y35.0248
G0 Z2.0000
G0 X6.0000 Y35.7748
G1 Z0.1000
G1 X5.9780 Y35.9138
G1 X5.9141 Y36.0393
G1 X5.8145 Y36.1388
G1 X5.6891 Y36.2027
G1 X5.5500 Y36.2248
G0 Z2.0000
G0 X4.6500 Y36.2248
G1 Z0.1000
G1 X4.5109 Y36.2027
G1 X4.3855 Y36.1388
G1 X4.2859 Y36.0393
G1 X4.2220 Y35.9138
G1 X4.2000 Y35.7748

(cogido= e)
(y sanitizado es'e y en hex_font= #0065')
G0 Z2.0000
G0 X5.1000 Y36.8998
G1 Z0.1000
G1 X5.1000 Y38.0998
G1 X4.8000 Y38.0998
G0 Z2.0000
G0 X4.8000 Y36.8998
G1 Z0.1000
G1 X5.5500 Y36.8998
G0 Z2.0000
G0 X6.0000 Y37.3498
G1 Z0.1000
G1 X6.0000 Y38.0998
G0 Z2.0000
G0 X4.8000 Y38.0998
G1 Z0.1000
G1 X4.6146 Y38.0704
G1 X4.4473 Y37.9852
G1 X4.3146 Y37.8524
G1 X4.2294 Y37.6852
G1 X4.2000 Y37.4998
G1 X4.2294 Y37.3143
G1 X4.3146 Y37.1471
G1 X4.4473 Y37.0143
G1 X4.6146 Y36.9291
G1 X4.8000 Y36.8998
G0 Z2.0000
G0 X5.5500 Y36.8998
G1 Z0.1000
G1 X5.6891 Y36.9218
G1 X5.8145 Y36.9857
G1 X5.9141 Y37.0853
G1 X5.9780 Y37.2107
G1 X6.0000 Y37.3498

(cogido= n)
(y sanitizado es'n y en hex_font= #006E')
G0 Z2.0000
G0 X6.0000 Y38.7748
G1 Z0.1000
G1 X4.2000 Y38.7748
G1 X4.2000 Y39.5248
G0 Z2.0000
G0 X4.6500 Y39.9748
G1 Z0.1000
G1 X6.0000 Y39.9748
G0 Z2.0000
G0 X4.6500 Y39.9748
G1 Z0.1000
G1 X4.5109 Y39.9527
G1 X4.3855 Y39.8888
G1 X4.2859 Y39.7893
G1 X4.2220 Y39.6638
G1 X4.2000 Y39.5248

(cogido= a)
(y sanitizado es'a y en hex_font= #0061')
G0 Z2.0000
G0 X4.2000 Y43.4998
G1 Z0.1000
G1 X4.2000 Y44.0997
G0 Z2.0000
G0 X4.6500 Y44.5497
G1 Z0.1000
G1 X6.0000 Y44.5497
G1 X6.0000 Y43.7997
G0 Z2.0000
G0 X5.1000 Y43.7997
G1 Z0.1000
G1 X5.1000 Y44.5497
G0 Z2.0000
G0 X4.6500 Y44.5497
G1 Z0.1000
G1 X4.5109 Y44.5277
G1 X4.3855 Y44.4638
G1 X4.2859 Y44.3642
G1 X4.2220 Y44.2388
G1 X4.2000 Y44.0997
G0 Z2.0000
G0 X5.1000 Y43.7997
G1 Z0.1000
G1 X5.1220 Y43.6607
G1 X5.1859 Y43.5352
G1 X5.2855 Y43.4357
G1 X5.4109 Y43.3718
G1 X5.5500 Y43.3497
G1 X5.6891 Y43.3718
G1 X5.8145 Y43.4357
G1 X5.9141 Y43.5352
G1 X5.9780 Y43.6607
G1 X6.0000 Y43.7997

(cogido= t)
(y sanitizado es't y en hex_font= #0074')
G0 Z2.0000
G0 X4.2000 Y47.9247
G1 Z0.1000
G1 X4.2000 Y48.8247
G0 Z2.0000
G0 X3.3000 Y48.2247
G1 Z0.1000
G1 X6.0000 Y48.2247

(cogido= i)
(y sanitizado es'i y en hex_font= #0069')
G0 Z2.0000
G0 X6.0000 Y49.4997
G1 Z0.1000
G1 X4.2000 Y49.4997
G0 Z2.0000
G0 X3.4500 Y49.4997
G1 Z0.1000
G1 X3.3000 Y49.4997

(cogido= .)
(y sanitizado es'. y en hex_font= #002E')
G0 Z2.0000
G0 X6.0000 Y50.1747
G1 Z0.1000
G1 X5.8500 Y50.1747

G0 Z2.0000
(===================================================================)
( Line 3 )
( Grabando: Si puedes seguir creyendo en ti mismo cuando todos dudan de ti," )
(===================================================================)
(cogido= S)
(y sanitizado es'S y en hex_font= #0053')
G0 Z2.0000
G0 X7.4345 Y0.3275
G1 Z0.1000
G1 X7.8655 Y1.1725
G0 Z2.0000
G0 X6.5155 Y1.5000
G1 Z0.1000
G1 X6.3546 Y1.0627
G1 X6.3000 Y0.6000
G1 X6.3331 Y0.4035
G1 X6.4288 Y0.2286
G1 X6.5765 Y0.0947
G1 X6.7598 Y0.0166
G1 X6.9587 Y0.0029
G1 X7.1511 Y0.0551
G1 X7.3157 Y0.1674
G1 X7.4345 Y0.3275
G0 Z2.0000
G0 X9.0000 Y0.9000
G1 Z0.1000
G1 X8.9669 Y1.0966
G1 X8.8712 Y1.2714
G1 X8.7235 Y1.4053
G1 X8.5402 Y1.4834
G1 X8.3413 Y1.4972
G1 X8.1489 Y1.4450
G1 X7.9843 Y1.3327
G1 X7.8655 Y1.1726
G0 Z2.0000
G0 X8.7845 Y0.0000
G1 Z0.1000
G1 X8.9454 Y0.4373
G1 X9.0000 Y0.9000

(cogido= i)
(y sanitizado es'i y en hex_font= #0069')
G0 Z2.0000
G0 X9.0000 Y2.1750
G1 Z0.1000
G1 X7.2000 Y2.1750
G0 Z2.0000
G0 X6.4500 Y2.1750
G1 Z0.1000
G1 X6.3000 Y2.1750

(cogido= p)
(y sanitizado es'p y en hex_font= #0070')
G0 Z2.0000
G0 X9.0000 Y5.5500
G1 Z0.1000
G1 X9.0000 Y6.2999
G0 Z2.0000
G0 X8.5500 Y6.7499
G1 Z0.1000
G1 X7.6500 Y6.7499
G0 Z2.0000
G0 X7.2000 Y6.2999
G1 Z0.1000
G1 X7.2000 Y5.5500
G1 X9.9000 Y5.5500
G0 Z2.0000
G0 X9.0000 Y6.2999
G1 Z0.1000
G1 X8.9780 Y6.4390
G1 X8.9141 Y6.5644
G1 X8.8145 Y6.6640
G1 X8.6891 Y6.7279
G1 X8.5500 Y6.7499
G0 Z2.0000
G0 X7.6500 Y6.7499
G1 Z0.1000
G1 X7.5109 Y6.7279
G1 X7.3855 Y6.6640
G1 X7.2859 Y6.5644
G1 X7.2220 Y6.4390
G1 X7.2000 Y6.2999

(cogido= u)
(y sanitizado es'u y en hex_font= #0075')
G0 Z2.0000
G0 X7.2000 Y7.4249
G1 Z0.1000
G1 X8.5500 Y7.4249
G0 Z2.0000
G0 X9.0000 Y7.8749
G1 Z0.1000
G1 X9.0000 Y8.6249
G1 X7.2000 Y8.6249
G0 Z2.0000
G0 X8.5500 Y7.4249
G1 Z0.1000
G1 X8.6891 Y7.4470
G1 X8.8145 Y7.5109
G1 X8.9141 Y7.6104
G1 X8.9780 Y7.7359
G1 X9.0000 Y7.8749

(cogido= e)
(y sanitizado es'e y en hex_font= #0065')
G0 Z2.0000
G0 X8.1000 Y9.3000
G1 Z0.1000
G1 X8.1000 Y10.4999
G1 X7.8000 Y10.4999
G0 Z2.0000
G0 X7.8000 Y9.3000
G1 Z0.1000
G1 X8.5500 Y9.3000
G0 Z2.0000
G0 X9.0000 Y9.7499
G1 Z0.1000
G1 X9.0000 Y10.4999
G0 Z2.0000
G0 X7.8000 Y10.4999
G1 Z0.1000
G1 X7.6146 Y10.4706
G1 X7.4473 Y10.3854
G1 X7.3146 Y10.2526
G1 X7.2294 Y10.0854
G1 X7.2000 Y9.8999
G1 X7.2294 Y9.7145
G1 X7.3146 Y9.5473
G1 X7.4473 Y9.4145
G1 X7.6146 Y9.3293
G1 X7.8000 Y9.2999
G0 Z2.0000
G0 X8.5500 Y9.2999
G1 Z0.1000
G1 X8.6891 Y9.3220
G1 X8.8145 Y9.3859
G1 X8.9141 Y9.4854
G1 X8.9780 Y9.6109
G1 X9.0000 Y9.7499

(cogido= d)
(y sanitizado es'd y en hex_font= #0064')
G0 Z2.0000
G0 X6.3000 Y12.3749
G1 Z0.1000
G1 X9.0000 Y12.3749
G1 X9.0000 Y11.6249
G0 Z2.0000
G0 X8.5500 Y11.1749
G1 Z0.1000
G1 X7.6500 Y11.1749
G0 Z2.0000
G0 X7.2000 Y11.6249
G1 Z0.1000
G1 X7.2000 Y12.3749
G0 Z2.0000
G0 X8.5500 Y11.1749
G1 Z0.1000
G1 X8.6891 Y11.1970
G1 X8.8145 Y11.2609
G1 X8.9141 Y11.3604
G1 X8.9780 Y11.4859
G1 X9.0000 Y11.6249
G0 Z2.0000
G0 X7.2000 Y11.6249
G1 Z0.1000
G1 X7.2220 Y11.4859
G1 X7.2859 Y11.3604
G1 X7.3855 Y11.2609
G1 X7.5109 Y11.1970
G1 X7.6500 Y11.1749

(cogido= e)
(y sanitizado es'e y en hex_font= #0065')
G0 Z2.0000
G0 X8.1000 Y13.0500
G1 Z0.1000
G1 X8.1000 Y14.2499
G1 X7.8000 Y14.2499
G0 Z2.0000
G0 X7.8000 Y13.0500
G1 Z0.1000
G1 X8.5500 Y13.0500
G0 Z2.0000
G0 X9.0000 Y13.4999
G1 Z0.1000
G1 X9.0000 Y14.2499
G0 Z2.0000
G0 X7.8000 Y14.2499
G1 Z0.1000
G1 X7.6146 Y14.2206
G1 X7.4473 Y14.1354
G1 X7.3146 Y14.0026
G1 X7.2294 Y13.8354
G1 X7.2000 Y13.6499
G1 X7.2294 Y13.4645
G1 X7.3146 Y13.2973
G1 X7.4473 Y13.1645
G1 X7.6146 Y13.0793
G1 X7.8000 Y13.0499
G0 Z2.0000
G0 X8.5500 Y13.0499
G1 Z0.1000
G1 X8.6891 Y13.0720
G1 X8.8145 Y13.1359
G1 X8.9141 Y13.2354
G1 X8.9780 Y13.3609
G1 X9.0000 Y13.4999

(cogido= s)
(y sanitizado es's y en hex_font= #0073')
G0 Z2.0000
G0 X7.9731 Y15.1693
G1 Z0.1000
G1 X8.2635 Y15.8806
G0 Z2.0000
G0 X7.3683 Y16.1249
G1 Z0.1000
G1 X7.2625 Y15.8240
G1 X7.2385 Y15.5059
G1 X7.2979 Y15.1925
G1 X7.3569 Y15.0827
G1 X7.4497 Y14.9996
G1 X7.5653 Y14.9531
G1 X7.6899 Y14.9489
G1 X7.8084 Y14.9873
G1 X7.9067 Y15.0638
G1 X7.9731 Y15.1693
G0 Z2.0000
G0 X8.9386 Y15.8574
G1 Z0.1000
G1 X8.8796 Y15.9672
G1 X8.7868 Y16.0503
G1 X8.6712 Y16.0968
G1 X8.5467 Y16.1010
G1 X8.4281 Y16.0626
G1 X8.3298 Y15.9861
G1 X8.2635 Y15.8806
G0 Z2.0000
G0 X8.8683 Y14.9249
G1 Z0.1000
G1 X8.9741 Y15.2258
G1 X8.9981 Y15.5439
G1 X8.9386 Y15.8573

(cogido= s)
(y sanitizado es's y en hex_font= #0073')
G0 Z2.0000
G0 X7.9731 Y19.7443
G1 Z0.1000
G1 X8.2635 Y20.4556
G0 Z2.0000
G0 X7.3683 Y20.7000
G1 Z0.1000
G1 X7.2625 Y20.3990
G1 X7.2385 Y20.0809
G1 X7.2979 Y19.7675
G1 X7.3569 Y19.6577
G1 X7.4497 Y19.5746
G1 X7.5653 Y19.5282
G1 X7.6899 Y19.5239
G1 X7.8084 Y19.5623
G1 X7.9067 Y19.6388
G1 X7.9731 Y19.7443
G0 Z2.0000
G0 X8.9386 Y20.4324
G1 Z0.1000
G1 X8.8796 Y20.5422
G1 X8.7868 Y20.6253
G1 X8.6712 Y20.6718
G1 X8.5467 Y20.6760
G1 X8.4281 Y20.6376
G1 X8.3298 Y20.5611
G1 X8.2635 Y20.4556
G0 Z2.0000
G0 X8.8683 Y19.4999
G1 Z0.1000
G1 X8.9741 Y19.8009
G1 X8.9981 Y20.1189
G1 X8.9386 Y20.4324

(cogido= e)
(y sanitizado es'e y en hex_font= #0065')
G0 Z2.0000
G0 X8.1000 Y21.3750
G1 Z0.1000
G1 X8.1000 Y22.5750
G1 X7.8000 Y22.5750
G0 Z2.0000
G0 X7.8000 Y21.3750
G1 Z0.1000
G1 X8.5500 Y21.3750
G0 Z2.0000
G0 X9.0000 Y21.8250
G1 Z0.1000
G1 X9.0000 Y22.5750
G0 Z2.0000
G0 X7.8000 Y22.5750
G1 Z0.1000
G1 X7.6146 Y22.5456
G1 X7.4473 Y22.4604
G1 X7.3146 Y22.3276
G1 X7.2294 Y22.1604
G1 X7.2000 Y21.9750
G1 X7.2294 Y21.7895
G1 X7.3146 Y21.6223
G1 X7.4473 Y21.4895
G1 X7.6146 Y21.4043
G1 X7.8000 Y21.3750
G0 Z2.0000
G0 X8.5500 Y21.3750
G1 Z0.1000
G1 X8.6891 Y21.3970
G1 X8.8145 Y21.4609
G1 X8.9141 Y21.5605
G1 X8.9780 Y21.6859
G1 X9.0000 Y21.8250

(cogido= g)
(y sanitizado es'g y en hex_font= #0067')
G0 Z2.0000
G0 X9.9000 Y23.2499
G1 Z0.1000
G1 X9.9000 Y23.9999
G0 Z2.0000
G0 X9.4500 Y24.4499
G1 Z0.1000
G1 X7.2000 Y24.4499
G1 X7.2000 Y23.6999
G0 Z2.0000
G0 X7.6500 Y23.2499
G1 Z0.1000
G1 X8.5500 Y23.2499
G0 Z2.0000
G0 X9.0000 Y23.6999
G1 Z0.1000
G1 X9.0000 Y24.4499
G0 Z2.0000
G0 X9.9000 Y23.9999
G1 Z0.1000
G1 X9.8780 Y24.1390
G1 X9.8141 Y24.2644
G1 X9.7145 Y24.3640
G1 X9.5891 Y24.4279
G1 X9.4500 Y24.4499
G0 Z2.0000
G0 X7.2000 Y23.6999
G1 Z0.1000
G1 X7.2220 Y23.5609
G1 X7.2859 Y23.4354
G1 X7.3855 Y23.3359
G1 X7.5109 Y23.2720
G1 X7.6500 Y23.2499
G0 Z2.0000
G0 X8.5500 Y23.2499
G1 Z0.1000
G1 X8.6891 Y23.2720
G1 X8.8145 Y23.3359
G1 X8.9141 Y23.4354
G1 X8.9780 Y23.5609
G1 X9.0000 Y23.6999

(cogido= u)
(y sanitizado es'u y en hex_font= #0075')
G0 Z2.0000
G0 X7.2000 Y25.1249
G1 Z0.1000
G1 X8.5500 Y25.1249
G0 Z2.0000
G0 X9.0000 Y25.5749
G1 Z0.1000
G1 X9.0000 Y26.3249
G1 X7.2000 Y26.3249
G0 Z2.0000
G0 X8.5500 Y25.1249
G1 Z0.1000
G1 X8.6891 Y25.1470
G1 X8.8145 Y25.2109
G1 X8.9141 Y25.3104
G1 X8.9780 Y25.4359
G1 X9.0000 Y25.5749

(cogido= i)
(y sanitizado es'i y en hex_font= #0069')
G0 Z2.0000
G0 X9.0000 Y26.9999
G1 Z0.1000
G1 X7.2000 Y26.9999
G0 Z2.0000
G0 X6.4500 Y26.9999
G1 Z0.1000
G1 X6.3000 Y26.9999

(cogido= r)
(y sanitizado es'r y en hex_font= #0072')
G0 Z2.0000
G0 X9.0000 Y27.6749
G1 Z0.1000
G1 X7.2000 Y27.6749
G1 X7.2000 Y28.2749
G0 Z2.0000
G0 X7.5000 Y28.5749
G1 Z0.1000
G1 X7.4073 Y28.5602
G1 X7.3237 Y28.5176
G1 X7.2573 Y28.4512
G1 X7.2147 Y28.3676
G1 X7.2000 Y28.2749

(cogido= c)
(y sanitizado es'c y en hex_font= #0063')
G0 Z2.0000
G0 X7.2000 Y32.8499
G1 Z0.1000
G1 X7.2000 Y32.3999
G0 Z2.0000
G0 X7.6500 Y31.9499
G1 Z0.1000
G1 X8.5500 Y31.9499
G0 Z2.0000
G0 X9.0000 Y32.3999
G1 Z0.1000
G1 X9.0000 Y32.8499
G0 Z2.0000
G0 X7.2000 Y32.3999
G1 Z0.1000
G1 X7.2220 Y32.2608
G1 X7.2859 Y32.1354
G1 X7.3855 Y32.0358
G1 X7.5109 Y31.9719
G1 X7.6500 Y31.9499
G0 Z2.0000
G0 X8.5500 Y31.9499
G1 Z0.1000
G1 X8.6891 Y31.9719
G1 X8.8145 Y32.0358
G1 X8.9141 Y32.1354
G1 X8.9780 Y32.2608
G1 X9.0000 Y32.3999

(cogido= r)
(y sanitizado es'r y en hex_font= #0072')
G0 Z2.0000
G0 X9.0000 Y33.5248
G1 Z0.1000
G1 X7.2000 Y33.5248
G1 X7.2000 Y34.1248
G0 Z2.0000
G0 X7.5000 Y34.4248
G1 Z0.1000
G1 X7.4073 Y34.4102
G1 X7.3237 Y34.3675
G1 X7.2573 Y34.3012
G1 X7.2147 Y34.2175
G1 X7.2000 Y34.1248

(cogido= e)
(y sanitizado es'e y en hex_font= #0065')
G0 Z2.0000
G0 X8.1000 Y35.0999
G1 Z0.1000
G1 X8.1000 Y36.2998
G1 X7.8000 Y36.2998
G0 Z2.0000
G0 X7.8000 Y35.0999
G1 Z0.1000
G1 X8.5500 Y35.0999
G0 Z2.0000
G0 X9.0000 Y35.5498
G1 Z0.1000
G1 X9.0000 Y36.2998
G0 Z2.0000
G0 X7.8000 Y36.2998
G1 Z0.1000
G1 X7.6146 Y36.2705
G1 X7.4473 Y36.1852
G1 X7.3146 Y36.0525
G1 X7.2294 Y35.8852
G1 X7.2000 Y35.6998
G1 X7.2294 Y35.5144
G1 X7.3146 Y35.3472
G1 X7.4473 Y35.2144
G1 X7.6146 Y35.1292
G1 X7.8000 Y35.0998
G0 Z2.0000
G0 X8.5500 Y35.0998
G1 Z0.1000
G1 X8.6891 Y35.1219
G1 X8.8145 Y35.1858
G1 X8.9141 Y35.2853
G1 X8.9780 Y35.4108
G1 X9.0000 Y35.5498

(cogido= y)
(y sanitizado es'y y en hex_font= #0079')
G0 Z2.0000
G0 X7.2000 Y36.9748
G1 Z0.1000
G1 X9.0000 Y37.5748
G0 Z2.0000
G0 X7.2000 Y38.1749
G1 Z0.1000
G1 X9.6949 Y37.3432
G0 Z2.0000
G0 X9.9000 Y37.0586
G1 Z0.1000
G1 X9.9000 Y36.9748
G0 Z2.0000
G0 X9.9000 Y37.0586
G1 Z0.1000
G1 X9.8855 Y37.1508
G1 X9.8434 Y37.2340
G1 X9.7777 Y37.3003
G1 X9.6949 Y37.3432

(cogido= e)
(y sanitizado es'e y en hex_font= #0065')
G0 Z2.0000
G0 X8.1000 Y38.8499
G1 Z0.1000
G1 X8.1000 Y40.0499
G1 X7.8000 Y40.0499
G0 Z2.0000
G0 X7.8000 Y38.8499
G1 Z0.1000
G1 X8.5500 Y38.8499
G0 Z2.0000
G0 X9.0000 Y39.2999
G1 Z0.1000
G1 X9.0000 Y40.0499
G0 Z2.0000
G0 X7.8000 Y40.0499
G1 Z0.1000
G1 X7.6146 Y40.0205
G1 X7.4473 Y39.9353
G1 X7.3146 Y39.8025
G1 X7.2294 Y39.6353
G1 X7.2000 Y39.4499
G1 X7.2294 Y39.2645
G1 X7.3146 Y39.0972
G1 X7.4473 Y38.9645
G1 X7.6146 Y38.8792
G1 X7.8000 Y38.8499
G0 Z2.0000
G0 X8.5500 Y38.8499
G1 Z0.1000
G1 X8.6891 Y38.8719
G1 X8.8145 Y38.9358
G1 X8.9141 Y39.0354
G1 X8.9780 Y39.1608
G1 X9.0000 Y39.2999

(cogido= n)
(y sanitizado es'n y en hex_font= #006E')
G0 Z2.0000
G0 X9.0000 Y40.7249
G1 Z0.1000
G1 X7.2000 Y40.7249
G1 X7.2000 Y41.4749
G0 Z2.0000
G0 X7.6500 Y41.9249
G1 Z0.1000
G1 X9.0000 Y41.9249
G0 Z2.0000
G0 X7.6500 Y41.9249
G1 Z0.1000
G1 X7.5109 Y41.9028
G1 X7.3855 Y41.8389
G1 X7.2859 Y41.7394
G1 X7.2220 Y41.6139
G1 X7.2000 Y41.4749

(cogido= d)
(y sanitizado es'd y en hex_font= #0064')
G0 Z2.0000
G0 X6.3000 Y43.7999
G1 Z0.1000
G1 X9.0000 Y43.7999
G1 X9.0000 Y43.0499
G0 Z2.0000
G0 X8.5500 Y42.5999
G1 Z0.1000
G1 X7.6500 Y42.5999
G0 Z2.0000
G0 X7.2000 Y43.0499
G1 Z0.1000
G1 X7.2000 Y43.7999
G0 Z2.0000
G0 X8.5500 Y42.5999
G1 Z0.1000
G1 X8.6891 Y42.6219
G1 X8.8145 Y42.6858
G1 X8.9141 Y42.7854
G1 X8.9780 Y42.9108
G1 X9.0000 Y43.0499
G0 Z2.0000
G0 X7.2000 Y43.0499
G1 Z0.1000
G1 X7.2220 Y42.9108
G1 X7.2859 Y42.7854
G1 X7.3855 Y42.6858
G1 X7.5109 Y42.6219
G1 X7.6500 Y42.5999

(cogido= o)
(y sanitizado es'o y en hex_font= #006F')
G0 Z2.0000
G0 X7.8000 Y44.4748
G1 Z0.1000
G1 X8.4000 Y44.4748
G0 Z2.0000
G0 X8.4000 Y45.6749
G1 Z0.1000
G1 X7.8000 Y45.6749
G0 Z2.0000
G0 X8.4000 Y44.4749
G1 Z0.1000
G1 X8.5854 Y44.5043
G1 X8.7527 Y44.5895
G1 X8.8854 Y44.7222
G1 X8.9706 Y44.8895
G1 X9.0000 Y45.0749
G1 X8.9706 Y45.2603
G1 X8.8854 Y45.4276
G1 X8.7527 Y45.5603
G1 X8.5854 Y45.6455
G1 X8.4000 Y45.6749
G0 Z2.0000
G0 X7.8000 Y45.6749
G1 Z0.1000
G1 X7.6146 Y45.6455
G1 X7.4473 Y45.5603
G1 X7.3146 Y45.4276
G1 X7.2294 Y45.2603
G1 X7.2000 Y45.0749
G1 X7.2294 Y44.8895
G1 X7.3146 Y44.7222
G1 X7.4473 Y44.5895
G1 X7.6146 Y44.5043
G1 X7.8000 Y44.4749

(cogido= e)
(y sanitizado es'e y en hex_font= #0065')
G0 Z2.0000
G0 X8.1000 Y49.0499
G1 Z0.1000
G1 X8.1000 Y50.2499
G1 X7.8000 Y50.2499
G0 Z2.0000
G0 X7.8000 Y49.0499
G1 Z0.1000
G1 X8.5500 Y49.0499
G0 Z2.0000
G0 X9.0000 Y49.4999
G1 Z0.1000
G1 X9.0000 Y50.2499
G0 Z2.0000
G0 X7.8000 Y50.2499
G1 Z0.1000
G1 X7.6146 Y50.2205
G1 X7.4473 Y50.1353
G1 X7.3146 Y50.0026
G1 X7.2294 Y49.8353
G1 X7.2000 Y49.6499
G1 X7.2294 Y49.4645
G1 X7.3146 Y49.2972
G1 X7.4473 Y49.1645
G1 X7.6146 Y49.0793
G1 X7.8000 Y49.0499
G0 Z2.0000
G0 X8.5500 Y49.0499
G1 Z0.1000
G1 X8.6891 Y49.0719
G1 X8.8145 Y49.1358
G1 X8.9141 Y49.2354
G1 X8.9780 Y49.3608
G1 X9.0000 Y49.4999

(cogido= n)
(y sanitizado es'n y en hex_font= #006E')
G0 Z2.0000
G0 X9.0000 Y50.9249
G1 Z0.1000
G1 X7.2000 Y50.9249
G1 X7.2000 Y51.6749
G0 Z2.0000
G0 X7.6500 Y52.1249
G1 Z0.1000
G1 X9.0000 Y52.1249
G0 Z2.0000
G0 X7.6500 Y52.1249
G1 Z0.1000
G1 X7.5109 Y52.1029
G1 X7.3855 Y52.0390
G1 X7.2859 Y51.9394
G1 X7.2220 Y51.8140
G1 X7.2000 Y51.6749

(cogido= t)
(y sanitizado es't y en hex_font= #0074')
G0 Z2.0000
G0 X7.2000 Y55.4999
G1 Z0.1000
G1 X7.2000 Y56.3999
G0 Z2.0000
G0 X6.3000 Y55.7999
G1 Z0.1000
G1 X9.0000 Y55.7999

(cogido= i)
(y sanitizado es'i y en hex_font= #0069')
G0 Z2.0000
G0 X9.0000 Y57.0748
G1 Z0.1000
G1 X7.2000 Y57.0748
G0 Z2.0000
G0 X6.4500 Y57.0748
G1 Z0.1000
G1 X6.3000 Y57.0748

(cogido= m)
(y sanitizado es'm y en hex_font= #006D')
G0 Z2.0000
G0 X9.0000 Y60.4498
G1 Z0.1000
G1 X7.2000 Y60.4498
G1 X7.2000 Y61.7998
G0 Z2.0000
G0 X7.6500 Y62.2498
G1 Z0.1000
G1 X9.0000 Y62.2498
G0 Z2.0000
G0 X7.2000 Y61.3498
G1 Z0.1000
G1 X9.0000 Y61.3498
G0 Z2.0000
G0 X7.6500 Y62.2498
G1 Z0.1000
G1 X7.5109 Y62.2278
G1 X7.3855 Y62.1639
G1 X7.2859 Y62.0643
G1 X7.2220 Y61.9389
G1 X7.2000 Y61.7998

(cogido= i)
(y sanitizado es'i y en hex_font= #0069')
G0 Z2.0000
G0 X9.0000 Y62.9248
G1 Z0.1000
G1 X7.2000 Y62.9248
G0 Z2.0000
G0 X6.4500 Y62.9248
G1 Z0.1000
G1 X6.3000 Y62.9248

(cogido= s)
(y sanitizado es's y en hex_font= #0073')
G0 Z2.0000
G0 X7.9731 Y63.8441
G1 Z0.1000
G1 X8.2635 Y64.5554
G0 Z2.0000
G0 X7.3683 Y64.7998
G1 Z0.1000
G1 X7.2625 Y64.4989
G1 X7.2385 Y64.1808
G1 X7.2979 Y63.8674
G1 X7.3569 Y63.7576
G1 X7.4497 Y63.6745
G1 X7.5653 Y63.6280
G1 X7.6899 Y63.6237
G1 X7.8084 Y63.6622
G1 X7.9067 Y63.7387
G1 X7.9731 Y63.8442
G0 Z2.0000
G0 X8.9386 Y64.5323
G1 Z0.1000
G1 X8.8796 Y64.6421
G1 X8.7868 Y64.7252
G1 X8.6712 Y64.7716
G1 X8.5467 Y64.7759
G1 X8.4281 Y64.7375
G1 X8.3298 Y64.6609
G1 X8.2635 Y64.5555
G0 Z2.0000
G0 X8.8683 Y63.5998
G1 Z0.1000
G1 X8.9741 Y63.9007
G1 X8.9981 Y64.2188
G1 X8.9386 Y64.5322

(cogido= m)
(y sanitizado es'm y en hex_font= #006D')
G0 Z2.0000
G0 X9.0000 Y65.4748
G1 Z0.1000
G1 X7.2000 Y65.4748
G1 X7.2000 Y66.8248
G0 Z2.0000
G0 X7.6500 Y67.2748
G1 Z0.1000
G1 X9.0000 Y67.2748
G0 Z2.0000
G0 X7.2000 Y66.3748
G1 Z0.1000
G1 X9.0000 Y66.3748
G0 Z2.0000
G0 X7.6500 Y67.2748
G1 Z0.1000
G1 X7.5109 Y67.2528
G1 X7.3855 Y67.1889
G1 X7.2859 Y67.0893
G1 X7.2220 Y66.9639
G1 X7.2000 Y66.8248

(cogido= o)
(y sanitizado es'o y en hex_font= #006F')
G0 Z2.0000
G0 X7.8000 Y67.9498
G1 Z0.1000
G1 X8.4000 Y67.9498
G0 Z2.0000
G0 X8.4000 Y69.1498
G1 Z0.1000
G1 X7.8000 Y69.1498
G0 Z2.0000
G0 X8.4000 Y67.9498
G1 Z0.1000
G1 X8.5854 Y67.9792
G1 X8.7527 Y68.0644
G1 X8.8854 Y68.1972
G1 X8.9706 Y68.3644
G1 X9.0000 Y68.5498
G1 X8.9706 Y68.7353
G1 X8.8854 Y68.9025
G1 X8.7527 Y69.0353
G1 X8.5854 Y69.1205
G1 X8.4000 Y69.1498
G0 Z2.0000
G0 X7.8000 Y69.1498
G1 Z0.1000
G1 X7.6146 Y69.1205
G1 X7.4473 Y69.0353
G1 X7.3146 Y68.9025
G1 X7.2294 Y68.7353
G1 X7.2000 Y68.5498
G1 X7.2294 Y68.3644
G1 X7.3146 Y68.1972
G1 X7.4473 Y68.0644
G1 X7.6146 Y67.9792
G1 X7.8000 Y67.9498

(cogido= c)
(y sanitizado es'c y en hex_font= #0063')
G0 Z2.0000
G0 X7.2000 Y73.4248
G1 Z0.1000
G1 X7.2000 Y72.9748
G0 Z2.0000
G0 X7.6500 Y72.5248
G1 Z0.1000
G1 X8.5500 Y72.5248
G0 Z2.0000
G0 X9.0000 Y72.9748
G1 Z0.1000
G1 X9.0000 Y73.4248
G0 Z2.0000
G0 X7.2000 Y72.9748
G1 Z0.1000
G1 X7.2220 Y72.8358
G1 X7.2859 Y72.7103
G1 X7.3855 Y72.6108
G1 X7.5109 Y72.5469
G1 X7.6500 Y72.5248
G0 Z2.0000
G0 X8.5500 Y72.5248
G1 Z0.1000
G1 X8.6891 Y72.5469
G1 X8.8145 Y72.6108
G1 X8.9141 Y72.7103
G1 X8.9780 Y72.8358
G1 X9.0000 Y72.9748

(cogido= u)
(y sanitizado es'u y en hex_font= #0075')
G0 Z2.0000
G0 X7.2000 Y74.0998
G1 Z0.1000
G1 X8.5500 Y74.0998
G0 Z2.0000
G0 X9.0000 Y74.5498
G1 Z0.1000
G1 X9.0000 Y75.2998
G1 X7.2000 Y75.2998
G0 Z2.0000
G0 X8.5500 Y74.0998
G1 Z0.1000
G1 X8.6891 Y74.1219
G1 X8.8145 Y74.1858
G1 X8.9141 Y74.2853
G1 X8.9780 Y74.4108
G1 X9.0000 Y74.5498

(cogido= a)
(y sanitizado es'a y en hex_font= #0061')
G0 Z2.0000
G0 X7.2000 Y76.1248
G1 Z0.1000
G1 X7.2000 Y76.7248
G0 Z2.0000
G0 X7.6500 Y77.1748
G1 Z0.1000
G1 X9.0000 Y77.1748
G1 X9.0000 Y76.4248
G0 Z2.0000
G0 X8.1000 Y76.4248
G1 Z0.1000
G1 X8.1000 Y77.1748
G0 Z2.0000
G0 X7.6500 Y77.1748
G1 Z0.1000
G1 X7.5109 Y77.1528
G1 X7.3855 Y77.0889
G1 X7.2859 Y76.9893
G1 X7.2220 Y76.8639
G1 X7.2000 Y76.7248
G0 Z2.0000
G0 X8.1000 Y76.4248
G1 Z0.1000
G1 X8.1220 Y76.2858
G1 X8.1859 Y76.1603
G1 X8.2855 Y76.0608
G1 X8.4109 Y75.9968
G1 X8.5500 Y75.9748
G1 X8.6891 Y75.9968
G1 X8.8145 Y76.0608
G1 X8.9141 Y76.1603
G1 X8.9780 Y76.2858
G1 X9.0000 Y76.4248

(cogido= n)
(y sanitizado es'n y en hex_font= #006E')
G0 Z2.0000
G0 X9.0000 Y77.8498
G1 Z0.1000
G1 X7.2000 Y77.8498
G1 X7.2000 Y78.5998
G0 Z2.0000
G0 X7.6500 Y79.0498
G1 Z0.1000
G1 X9.0000 Y79.0498
G0 Z2.0000
G0 X7.6500 Y79.0498
G1 Z0.1000
G1 X7.5109 Y79.0278
G1 X7.3855 Y78.9639
G1 X7.2859 Y78.8643
G1 X7.2220 Y78.7389
G1 X7.2000 Y78.5998

(cogido= d)
(y sanitizado es'd y en hex_font= #0064')
G0 Z2.0000
G0 X6.3000 Y80.9248
G1 Z0.1000
G1 X9.0000 Y80.9248
G1 X9.0000 Y80.1748
G0 Z2.0000
G0 X8.5500 Y79.7248
G1 Z0.1000
G1 X7.6500 Y79.7248
G0 Z2.0000
G0 X7.2000 Y80.1748
G1 Z0.1000
G1 X7.2000 Y80.9248
G0 Z2.0000
G0 X8.5500 Y79.7248
G1 Z0.1000
G1 X8.6891 Y79.7468
G1 X8.8145 Y79.8108
G1 X8.9141 Y79.9103
G1 X8.9780 Y80.0358
G1 X9.0000 Y80.1748
G0 Z2.0000
G0 X7.2000 Y80.1748
G1 Z0.1000
G1 X7.2220 Y80.0358
G1 X7.2859 Y79.9103
G1 X7.3855 Y79.8108
G1 X7.5109 Y79.7468
G1 X7.6500 Y79.7248

(cogido= o)
(y sanitizado es'o y en hex_font= #006F')
G0 Z2.0000
G0 X7.8000 Y81.5998
G1 Z0.1000
G1 X8.4000 Y81.5998
G0 Z2.0000
G0 X8.4000 Y82.7998
G1 Z0.1000
G1 X7.8000 Y82.7998
G0 Z2.0000
G0 X8.4000 Y81.5998
G1 Z0.1000
G1 X8.5854 Y81.6292
G1 X8.7527 Y81.7144
G1 X8.8854 Y81.8472
G1 X8.9706 Y82.0144
G1 X9.0000 Y82.1998
G1 X8.9706 Y82.3853
G1 X8.8854 Y82.5525
G1 X8.7527 Y82.6853
G1 X8.5854 Y82.7705
G1 X8.4000 Y82.7998
G0 Z2.0000
G0 X7.8000 Y82.7998
G1 Z0.1000
G1 X7.6146 Y82.7705
G1 X7.4473 Y82.6853
G1 X7.3146 Y82.5525
G1 X7.2294 Y82.3853
G1 X7.2000 Y82.1998
G1 X7.2294 Y82.0144
G1 X7.3146 Y81.8472
G1 X7.4473 Y81.7144
G1 X7.6146 Y81.6292
G1 X7.8000 Y81.5998

(cogido= t)
(y sanitizado es't y en hex_font= #0074')
G0 Z2.0000
G0 X7.2000 Y86.1748
G1 Z0.1000
G1 X7.2000 Y87.0748
G0 Z2.0000
G0 X6.3000 Y86.4748
G1 Z0.1000
G1 X9.0000 Y86.4748

(cogido= o)
(y sanitizado es'o y en hex_font= #006F')
G0 Z2.0000
G0 X7.8000 Y87.7498
G1 Z0.1000
G1 X8.4000 Y87.7498
G0 Z2.0000
G0 X8.4000 Y88.9498
G1 Z0.1000
G1 X7.8000 Y88.9498
G0 Z2.0000
G0 X8.4000 Y87.7498
G1 Z0.1000
G1 X8.5854 Y87.7792
G1 X8.7527 Y87.8644
G1 X8.8854 Y87.9972
G1 X8.9706 Y88.1644
G1 X9.0000 Y88.3498
G1 X8.9706 Y88.5353
G1 X8.8854 Y88.7025
G1 X8.7527 Y88.8353
G1 X8.5854 Y88.9205
G1 X8.4000 Y88.9498
G0 Z2.0000
G0 X7.8000 Y88.9498
G1 Z0.1000
G1 X7.6146 Y88.9205
G1 X7.4473 Y88.8353
G1 X7.3146 Y88.7025
G1 X7.2294 Y88.5353
G1 X7.2000 Y88.3498
G1 X7.2294 Y88.1644
G1 X7.3146 Y87.9972
G1 X7.4473 Y87.8644
G1 X7.6146 Y87.7792
G1 X7.8000 Y87.7498

(cogido= d)
(y sanitizado es'd y en hex_font= #0064')
G0 Z2.0000
G0 X6.3000 Y90.8248
G1 Z0.1000
G1 X9.0000 Y90.8248
G1 X9.0000 Y90.0748
G0 Z2.0000
G0 X8.5500 Y89.6248
G1 Z0.1000
G1 X7.6500 Y89.6248
G0 Z2.0000
G0 X7.2000 Y90.0748
G1 Z0.1000
G1 X7.2000 Y90.8248
G0 Z2.0000
G0 X8.5500 Y89.6248
G1 Z0.1000
G1 X8.6891 Y89.6469
G1 X8.8145 Y89.7108
G1 X8.9141 Y89.8103
G1 X8.9780 Y89.9358
G1 X9.0000 Y90.0748
G0 Z2.0000
G0 X7.2000 Y90.0748
G1 Z0.1000
G1 X7.2220 Y89.9358
G1 X7.2859 Y89.8103
G1 X7.3855 Y89.7108
G1 X7.5109 Y89.6469
G1 X7.6500 Y89.6248

(cogido= o)
(y sanitizado es'o y en hex_font= #006F')
G0 Z2.0000
G0 X7.8000 Y91.4998
G1 Z0.1000
G1 X8.4000 Y91.4998
G0 Z2.0000
G0 X8.4000 Y92.6998
G1 Z0.1000
G1 X7.8000 Y92.6998
G0 Z2.0000
G0 X8.4000 Y91.4999
G1 Z0.1000
G1 X8.5854 Y91.5292
G1 X8.7527 Y91.6145
G1 X8.8854 Y91.7472
G1 X8.9706 Y91.9145
G1 X9.0000 Y92.0999
G1 X8.9706 Y92.2853
G1 X8.8854 Y92.4525
G1 X8.7527 Y92.5853
G1 X8.5854 Y92.6705
G1 X8.4000 Y92.6999
G0 Z2.0000
G0 X7.8000 Y92.6999
G1 Z0.1000
G1 X7.6146 Y92.6705
G1 X7.4473 Y92.5853
G1 X7.3146 Y92.4525
G1 X7.2294 Y92.2853
G1 X7.2000 Y92.0999
G1 X7.2294 Y91.9145
G1 X7.3146 Y91.7472
G1 X7.4473 Y91.6145
G1 X7.6146 Y91.5292
G1 X7.8000 Y91.4999

(cogido= s)
(y sanitizado es's y en hex_font= #0073')
G0 Z2.0000
G0 X7.9731 Y93.6192
G1 Z0.1000
G1 X8.2635 Y94.3305
G0 Z2.0000
G0 X7.3683 Y94.5749
G1 Z0.1000
G1 X7.2625 Y94.2739
G1 X7.2385 Y93.9558
G1 X7.2979 Y93.6424
G1 X7.3569 Y93.5327
G1 X7.4497 Y93.4496
G1 X7.5653 Y93.4031
G1 X7.6899 Y93.3988
G1 X7.8084 Y93.4372
G1 X7.9067 Y93.5138
G1 X7.9731 Y93.6192
G0 Z2.0000
G0 X8.9386 Y94.3074
G1 Z0.1000
G1 X8.8796 Y94.4171
G1 X8.7868 Y94.5002
G1 X8.6712 Y94.5467
G1 X8.5467 Y94.5510
G1 X8.4281 Y94.5125
G1 X8.3298 Y94.4360
G1 X8.2635 Y94.3305
G0 Z2.0000
G0 X8.8683 Y93.3748
G1 Z0.1000
G1 X8.9741 Y93.6758
G1 X8.9981 Y93.9939
G1 X8.9386 Y94.3073

(cogido= d)
(y sanitizado es'd y en hex_font= #0064')
G0 Z2.0000
G0 X6.3000 Y99.1499
G1 Z0.1000
G1 X9.0000 Y99.1499
G1 X9.0000 Y98.3999
G0 Z2.0000
G0 X8.5500 Y97.9499
G1 Z0.1000
G1 X7.6500 Y97.9499
G0 Z2.0000
G0 X7.2000 Y98.3999
G1 Z0.1000
G1 X7.2000 Y99.1499
G0 Z2.0000
G0 X8.5500 Y97.9499
G1 Z0.1000
G1 X8.6891 Y97.9719
G1 X8.8145 Y98.0358
G1 X8.9141 Y98.1354
G1 X8.9780 Y98.2608
G1 X9.0000 Y98.3999
G0 Z2.0000
G0 X7.2000 Y98.3999
G1 Z0.1000
G1 X7.2220 Y98.2608
G1 X7.2859 Y98.1354
G1 X7.3855 Y98.0358
G1 X7.5109 Y97.9719
G1 X7.6500 Y97.9499

(cogido= u)
(y sanitizado es'u y en hex_font= #0075')
G0 Z2.0000
G0 X7.2000 Y99.8249
G1 Z0.1000
G1 X8.5500 Y99.8249
G0 Z2.0000
G0 X9.0000 Y100.2749
G1 Z0.1000
G1 X9.0000 Y101.0249
G1 X7.2000 Y101.0249
G0 Z2.0000
G0 X8.5500 Y99.8249
G1 Z0.1000
G1 X8.6891 Y99.8469
G1 X8.8145 Y99.9108
G1 X8.9141 Y100.0104
G1 X8.9780 Y100.1358
G1 X9.0000 Y100.2749

(cogido= d)
(y sanitizado es'd y en hex_font= #0064')
G0 Z2.0000
G0 X6.3000 Y102.8999
G1 Z0.1000
G1 X9.0000 Y102.8999
G1 X9.0000 Y102.1499
G0 Z2.0000
G0 X8.5500 Y101.6999
G1 Z0.1000
G1 X7.6500 Y101.6999
G0 Z2.0000
G0 X7.2000 Y102.1499
G1 Z0.1000
G1 X7.2000 Y102.8999
G0 Z2.0000
G0 X8.5500 Y101.6999
G1 Z0.1000
G1 X8.6891 Y101.7219
G1 X8.8145 Y101.7858
G1 X8.9141 Y101.8854
G1 X8.9780 Y102.0108
G1 X9.0000 Y102.1499
G0 Z2.0000
G0 X7.2000 Y102.1499
G1 Z0.1000
G1 X7.2220 Y102.0108
G1 X7.2859 Y101.8854
G1 X7.3855 Y101.7858
G1 X7.5109 Y101.7219
G1 X7.6500 Y101.6999

(cogido= a)
(y sanitizado es'a y en hex_font= #0061')
G0 Z2.0000
G0 X7.2000 Y103.7249
G1 Z0.1000
G1 X7.2000 Y104.3249
G0 Z2.0000
G0 X7.6500 Y104.7749
G1 Z0.1000
G1 X9.0000 Y104.7749
G1 X9.0000 Y104.0249
G0 Z2.0000
G0 X8.1000 Y104.0249
G1 Z0.1000
G1 X8.1000 Y104.7749
G0 Z2.0000
G0 X7.6500 Y104.7749
G1 Z0.1000
G1 X7.5109 Y104.7528
G1 X7.3855 Y104.6889
G1 X7.2859 Y104.5894
G1 X7.2220 Y104.4639
G1 X7.2000 Y104.3249
G0 Z2.0000
G0 X8.1000 Y104.0249
G1 Z0.1000
G1 X8.1220 Y103.8858
G1 X8.1859 Y103.7604
G1 X8.2855 Y103.6608
G1 X8.4109 Y103.5969
G1 X8.5500 Y103.5749
G1 X8.6891 Y103.5969
G1 X8.8145 Y103.6608
G1 X8.9141 Y103.7604
G1 X8.9780 Y103.8858
G1 X9.0000 Y104.0249

(cogido= n)
(y sanitizado es'n y en hex_font= #006E')
G0 Z2.0000
G0 X9.0000 Y105.4499
G1 Z0.1000
G1 X7.2000 Y105.4499
G1 X7.2000 Y106.1999
G0 Z2.0000
G0 X7.6500 Y106.6499
G1 Z0.1000
G1 X9.0000 Y106.6499
G0 Z2.0000
G0 X7.6500 Y106.6499
G1 Z0.1000
G1 X7.5109 Y106.6278
G1 X7.3855 Y106.5639
G1 X7.2859 Y106.4644
G1 X7.2220 Y106.3389
G1 X7.2000 Y106.1999

(cogido= d)
(y sanitizado es'd y en hex_font= #0064')
G0 Z2.0000
G0 X6.3000 Y111.2249
G1 Z0.1000
G1 X9.0000 Y111.2249
G1 X9.0000 Y110.4749
G0 Z2.0000
G0 X8.5500 Y110.0249
G1 Z0.1000
G1 X7.6500 Y110.0249
G0 Z2.0000
G0 X7.2000 Y110.4749
G1 Z0.1000
G1 X7.2000 Y111.2249
G0 Z2.0000
G0 X8.5500 Y110.0249
G1 Z0.1000
G1 X8.6891 Y110.0469
G1 X8.8145 Y110.1108
G1 X8.9141 Y110.2104
G1 X8.9780 Y110.3358
G1 X9.0000 Y110.4749
G0 Z2.0000
G0 X7.2000 Y110.4749
G1 Z0.1000
G1 X7.2220 Y110.3358
G1 X7.2859 Y110.2104
G1 X7.3855 Y110.1108
G1 X7.5109 Y110.0469
G1 X7.6500 Y110.0249

(cogido= e)
(y sanitizado es'e y en hex_font= #0065')
G0 Z2.0000
G0 X8.1000 Y111.8999
G1 Z0.1000
G1 X8.1000 Y113.0999
G1 X7.8000 Y113.0999
G0 Z2.0000
G0 X7.8000 Y111.8999
G1 Z0.1000
G1 X8.5500 Y111.8999
G0 Z2.0000
G0 X9.0000 Y112.3499
G1 Z0.1000
G1 X9.0000 Y113.0999
G0 Z2.0000
G0 X7.8000 Y113.0999
G1 Z0.1000
G1 X7.6146 Y113.0705
G1 X7.4473 Y112.9853
G1 X7.3146 Y112.8525
G1 X7.2294 Y112.6853
G1 X7.2000 Y112.4999
G1 X7.2294 Y112.3144
G1 X7.3146 Y112.1472
G1 X7.4473 Y112.0144
G1 X7.6146 Y111.9292
G1 X7.8000 Y111.8999
G0 Z2.0000
G0 X8.5500 Y111.8999
G1 Z0.1000
G1 X8.6891 Y111.9219
G1 X8.8145 Y111.9858
G1 X8.9141 Y112.0854
G1 X8.9780 Y112.2108
G1 X9.0000 Y112.3499

(cogido= t)
(y sanitizado es't y en hex_font= #0074')
G0 Z2.0000
G0 X7.2000 Y116.4749
G1 Z0.1000
G1 X7.2000 Y117.3748
G0 Z2.0000
G0 X6.3000 Y116.7749
G1 Z0.1000
G1 X9.0000 Y116.7749

(cogido= i)
(y sanitizado es'i y en hex_font= #0069')
G0 Z2.0000
G0 X9.0000 Y118.0498
G1 Z0.1000
G1 X7.2000 Y118.0498
G0 Z2.0000
G0 X6.4500 Y118.0498
G1 Z0.1000
G1 X6.3000 Y118.0498

(cogido= ,)
(y sanitizado es', y en hex_font= #002C')
G0 Z2.0000
G0 X9.0000 Y119.0248
G1 Z0.1000
G1 X9.9000 Y118.7248
G0 Z2.0000
G0 X9.0000 Y119.0248
G1 Z0.1000
G1 X8.8500 Y119.0248

G0 Z2.0000
(===================================================================)
( Line 4 )
( Grabando: pero tambin aceptas que tengan dudas." )
(===================================================================)
(cogido= p)
(y sanitizado es'p y en hex_font= #0070')
G0 Z2.0000
G0 X12.0000 Y-0.0000
G1 Z0.1000
G1 X12.0000 Y0.7499
G0 Z2.0000
G0 X11.5500 Y1.1999
G1 Z0.1000
G1 X10.6500 Y1.1999
G0 Z2.0000
G0 X10.2000 Y0.7499
G1 Z0.1000
G1 X10.2000 Y-0.0000
G1 X12.9000 Y-0.0000
G0 Z2.0000
G0 X12.0000 Y0.7499
G1 Z0.1000
G1 X11.9780 Y0.8890
G1 X11.9141 Y1.0144
G1 X11.8145 Y1.1140
G1 X11.6891 Y1.1779
G1 X11.5500 Y1.1999
G0 Z2.0000
G0 X10.6500 Y1.1999
G1 Z0.1000
G1 X10.5109 Y1.1779
G1 X10.3855 Y1.1140
G1 X10.2859 Y1.0144
G1 X10.2220 Y0.8890
G1 X10.2000 Y0.7499

(cogido= e)
(y sanitizado es'e y en hex_font= #0065')
G0 Z2.0000
G0 X11.1000 Y1.8750
G1 Z0.1000
G1 X11.1000 Y3.0749
G1 X10.8000 Y3.0749
G0 Z2.0000
G0 X10.8000 Y1.8750
G1 Z0.1000
G1 X11.5500 Y1.8750
G0 Z2.0000
G0 X12.0000 Y2.3249
G1 Z0.1000
G1 X12.0000 Y3.0749
G0 Z2.0000
G0 X10.8000 Y3.0749
G1 Z0.1000
G1 X10.6146 Y3.0456
G1 X10.4473 Y2.9604
G1 X10.3146 Y2.8276
G1 X10.2294 Y2.6604
G1 X10.2000 Y2.4749
G1 X10.2294 Y2.2895
G1 X10.3146 Y2.1223
G1 X10.4473 Y1.9895
G1 X10.6146 Y1.9043
G1 X10.8000 Y1.8749
G0 Z2.0000
G0 X11.5500 Y1.8749
G1 Z0.1000
G1 X11.6891 Y1.8970
G1 X11.8145 Y1.9609
G1 X11.9141 Y2.0604
G1 X11.9780 Y2.1859
G1 X12.0000 Y2.3249

(cogido= r)
(y sanitizado es'r y en hex_font= #0072')
G0 Z2.0000
G0 X12.0000 Y3.7499
G1 Z0.1000
G1 X10.2000 Y3.7499
G1 X10.2000 Y4.3499
G0 Z2.0000
G0 X10.5000 Y4.6499
G1 Z0.1000
G1 X10.4073 Y4.6352
G1 X10.3237 Y4.5926
G1 X10.2573 Y4.5262
G1 X10.2147 Y4.4426
G1 X10.2000 Y4.3499

(cogido= o)
(y sanitizado es'o y en hex_font= #006F')
G0 Z2.0000
G0 X10.8000 Y5.3248
G1 Z0.1000
G1 X11.4000 Y5.3248
G0 Z2.0000
G0 X11.4000 Y6.5249
G1 Z0.1000
G1 X10.8000 Y6.5249
G0 Z2.0000
G0 X11.4000 Y5.3249
G1 Z0.1000
G1 X11.5854 Y5.3543
G1 X11.7527 Y5.4395
G1 X11.8854 Y5.5723
G1 X11.9706 Y5.7395
G1 X12.0000 Y5.9249
G1 X11.9706 Y6.1104
G1 X11.8854 Y6.2776
G1 X11.7527 Y6.4104
G1 X11.5854 Y6.4956
G1 X11.4000 Y6.5249
G0 Z2.0000
G0 X10.8000 Y6.5249
G1 Z0.1000
G1 X10.6146 Y6.4956
G1 X10.4473 Y6.4104
G1 X10.3146 Y6.2776
G1 X10.2294 Y6.1104
G1 X10.2000 Y5.9249
G1 X10.2294 Y5.7395
G1 X10.3146 Y5.5723
G1 X10.4473 Y5.4395
G1 X10.6146 Y5.3543
G1 X10.8000 Y5.3249

(cogido= t)
(y sanitizado es't y en hex_font= #0074')
G0 Z2.0000
G0 X10.2000 Y9.8999
G1 Z0.1000
G1 X10.2000 Y10.7999
G0 Z2.0000
G0 X9.3000 Y10.1999
G1 Z0.1000
G1 X12.0000 Y10.1999

(cogido= a)
(y sanitizado es'a y en hex_font= #0061')
G0 Z2.0000
G0 X10.2000 Y11.6249
G1 Z0.1000
G1 X10.2000 Y12.2249
G0 Z2.0000
G0 X10.6500 Y12.6749
G1 Z0.1000
G1 X12.0000 Y12.6749
G1 X12.0000 Y11.9249
G0 Z2.0000
G0 X11.1000 Y11.9249
G1 Z0.1000
G1 X11.1000 Y12.6749
G0 Z2.0000
G0 X10.6500 Y12.6749
G1 Z0.1000
G1 X10.5109 Y12.6529
G1 X10.3855 Y12.5889
G1 X10.2859 Y12.4894
G1 X10.2220 Y12.3639
G1 X10.2000 Y12.2249
G0 Z2.0000
G0 X11.1000 Y11.9249
G1 Z0.1000
G1 X11.1220 Y11.7858
G1 X11.1859 Y11.6604
G1 X11.2855 Y11.5608
G1 X11.4109 Y11.4969
G1 X11.5500 Y11.4749
G1 X11.6891 Y11.4969
G1 X11.8145 Y11.5608
G1 X11.9141 Y11.6604
G1 X11.9780 Y11.7858
G1 X12.0000 Y11.9249

(cogido= m)
(y sanitizado es'm y en hex_font= #006D')
G0 Z2.0000
G0 X12.0000 Y13.3499
G1 Z0.1000
G1 X10.2000 Y13.3499
G1 X10.2000 Y14.6999
G0 Z2.0000
G0 X10.6500 Y15.1499
G1 Z0.1000
G1 X12.0000 Y15.1499
G0 Z2.0000
G0 X10.2000 Y14.2499
G1 Z0.1000
G1 X12.0000 Y14.2499
G0 Z2.0000
G0 X10.6500 Y15.1499
G1 Z0.1000
G1 X10.5109 Y15.1279
G1 X10.3855 Y15.0639
G1 X10.2859 Y14.9644
G1 X10.2220 Y14.8389
G1 X10.2000 Y14.6999

(cogido= b)
(y sanitizado es'b y en hex_font= #0062')
G0 Z2.0000
G0 X9.3000 Y15.8249
G1 Z0.1000
G1 X12.0000 Y15.8249
G1 X12.0000 Y16.5749
G0 Z2.0000
G0 X11.5500 Y17.0249
G1 Z0.1000
G1 X10.6500 Y17.0249
G0 Z2.0000
G0 X10.2000 Y16.5749
G1 Z0.1000
G1 X10.2000 Y15.8249
G0 Z2.0000
G0 X12.0000 Y16.5749
G1 Z0.1000
G1 X11.9780 Y16.7139
G1 X11.9141 Y16.8394
G1 X11.8145 Y16.9389
G1 X11.6891 Y17.0029
G1 X11.5500 Y17.0249
G0 Z2.0000
G0 X10.6500 Y17.0249
G1 Z0.1000
G1 X10.5109 Y17.0029
G1 X10.3855 Y16.9389
G1 X10.2859 Y16.8394
G1 X10.2220 Y16.7139
G1 X10.2000 Y16.5749

(cogido= i)
(y sanitizado es'i y en hex_font= #0069')
G0 Z2.0000
G0 X12.0000 Y17.6998
G1 Z0.1000
G1 X10.2000 Y17.6998
G0 Z2.0000
G0 X9.4500 Y17.6998
G1 Z0.1000
G1 X9.3000 Y17.6998

(cogido= )
(y sanitizado es' y en hex_font= #00E9')
G0 Z2.0000
G0 X11.1000 Y18.3748
G1 Z0.1000
G1 X11.1000 Y19.5748
G1 X10.8000 Y19.5748
G0 Z2.0000
G0 X10.8000 Y18.3748
G1 Z0.1000
G1 X11.5500 Y18.3748
G0 Z2.0000
G0 X12.0000 Y18.8249
G1 Z0.1000
G1 X12.0000 Y19.5748
G0 Z2.0000
G0 X10.8000 Y19.5748
G1 Z0.1000
G1 X10.6146 Y19.5454
G1 X10.4473 Y19.4602
G1 X10.3146 Y19.3275
G1 X10.2294 Y19.1602
G1 X10.2000 Y18.9748
G1 X10.2294 Y18.7894
G1 X10.3146 Y18.6221
G1 X10.4473 Y18.4894
G1 X10.6146 Y18.4042
G1 X10.8000 Y18.3748
G0 Z2.0000
G0 X11.5500 Y18.3749
G1 Z0.1000
G1 X11.6891 Y18.3969
G1 X11.8145 Y18.4608
G1 X11.9141 Y18.5604
G1 X11.9780 Y18.6858
G1 X12.0000 Y18.8249
G0 Z2.0000
G0 X9.9000 Y18.6748
G1 Z0.1000
G1 X9.3000 Y19.2748

(cogido= n)
(y sanitizado es'n y en hex_font= #006E')
G0 Z2.0000
G0 X12.0000 Y20.2498
G1 Z0.1000
G1 X10.2000 Y20.2498
G1 X10.2000 Y20.9998
G0 Z2.0000
G0 X10.6500 Y21.4498
G1 Z0.1000
G1 X12.0000 Y21.4498
G0 Z2.0000
G0 X10.6500 Y21.4498
G1 Z0.1000
G1 X10.5109 Y21.4278
G1 X10.3855 Y21.3638
G1 X10.2859 Y21.2643
G1 X10.2220 Y21.1388
G1 X10.2000 Y20.9998

(cogido= a)
(y sanitizado es'a y en hex_font= #0061')
G0 Z2.0000
G0 X10.2000 Y24.9748
G1 Z0.1000
G1 X10.2000 Y25.5748
G0 Z2.0000
G0 X10.6500 Y26.0248
G1 Z0.1000
G1 X12.0000 Y26.0248
G1 X12.0000 Y25.2748
G0 Z2.0000
G0 X11.1000 Y25.2748
G1 Z0.1000
G1 X11.1000 Y26.0248
G0 Z2.0000
G0 X10.6500 Y26.0248
G1 Z0.1000
G1 X10.5109 Y26.0027
G1 X10.3855 Y25.9388
G1 X10.2859 Y25.8393
G1 X10.2220 Y25.7138
G1 X10.2000 Y25.5748
G0 Z2.0000
G0 X11.1000 Y25.2748
G1 Z0.1000
G1 X11.1220 Y25.1357
G1 X11.1859 Y25.0103
G1 X11.2855 Y24.9107
G1 X11.4109 Y24.8468
G1 X11.5500 Y24.8248
G1 X11.6891 Y24.8468
G1 X11.8145 Y24.9107
G1 X11.9141 Y25.0103
G1 X11.9780 Y25.1357
G1 X12.0000 Y25.2748

(cogido= c)
(y sanitizado es'c y en hex_font= #0063')
G0 Z2.0000
G0 X10.2000 Y27.5998
G1 Z0.1000
G1 X10.2000 Y27.1498
G0 Z2.0000
G0 X10.6500 Y26.6998
G1 Z0.1000
G1 X11.5500 Y26.6998
G0 Z2.0000
G0 X12.0000 Y27.1498
G1 Z0.1000
G1 X12.0000 Y27.5998
G0 Z2.0000
G0 X10.2000 Y27.1498
G1 Z0.1000
G1 X10.2220 Y27.0107
G1 X10.2859 Y26.8853
G1 X10.3855 Y26.7857
G1 X10.5109 Y26.7218
G1 X10.6500 Y26.6998
G0 Z2.0000
G0 X11.5500 Y26.6998
G1 Z0.1000
G1 X11.6891 Y26.7218
G1 X11.8145 Y26.7857
G1 X11.9141 Y26.8853
G1 X11.9780 Y27.0107
G1 X12.0000 Y27.1498

(cogido= e)
(y sanitizado es'e y en hex_font= #0065')
G0 Z2.0000
G0 X11.1000 Y28.2748
G1 Z0.1000
G1 X11.1000 Y29.4748
G1 X10.8000 Y29.4748
G0 Z2.0000
G0 X10.8000 Y28.2748
G1 Z0.1000
G1 X11.5500 Y28.2748
G0 Z2.0000
G0 X12.0000 Y28.7248
G1 Z0.1000
G1 X12.0000 Y29.4748
G0 Z2.0000
G0 X10.8000 Y29.4748
G1 Z0.1000
G1 X10.6146 Y29.4454
G1 X10.4473 Y29.3602
G1 X10.3146 Y29.2274
G1 X10.2294 Y29.0602
G1 X10.2000 Y28.8748
G1 X10.2294 Y28.6893
G1 X10.3146 Y28.5221
G1 X10.4473 Y28.3893
G1 X10.6146 Y28.3041
G1 X10.8000 Y28.2748
G0 Z2.0000
G0 X11.5500 Y28.2748
G1 Z0.1000
G1 X11.6891 Y28.2968
G1 X11.8145 Y28.3607
G1 X11.9141 Y28.4603
G1 X11.9780 Y28.5857
G1 X12.0000 Y28.7248

(cogido= p)
(y sanitizado es'p y en hex_font= #0070')
G0 Z2.0000
G0 X12.0000 Y30.1497
G1 Z0.1000
G1 X12.0000 Y30.8997
G0 Z2.0000
G0 X11.5500 Y31.3497
G1 Z0.1000
G1 X10.6500 Y31.3497
G0 Z2.0000
G0 X10.2000 Y30.8997
G1 Z0.1000
G1 X10.2000 Y30.1497
G1 X12.9000 Y30.1497
G0 Z2.0000
G0 X12.0000 Y30.8997
G1 Z0.1000
G1 X11.9780 Y31.0388
G1 X11.9141 Y31.1642
G1 X11.8145 Y31.2638
G1 X11.6891 Y31.3277
G1 X11.5500 Y31.3497
G0 Z2.0000
G0 X10.6500 Y31.3497
G1 Z0.1000
G1 X10.5109 Y31.3277
G1 X10.3855 Y31.2638
G1 X10.2859 Y31.1642
G1 X10.2220 Y31.0388
G1 X10.2000 Y30.8997

(cogido= t)
(y sanitizado es't y en hex_font= #0074')
G0 Z2.0000
G0 X10.2000 Y32.0247
G1 Z0.1000
G1 X10.2000 Y32.9247
G0 Z2.0000
G0 X9.3000 Y32.3247
G1 Z0.1000
G1 X12.0000 Y32.3247

(cogido= a)
(y sanitizado es'a y en hex_font= #0061')
G0 Z2.0000
G0 X10.2000 Y33.7497
G1 Z0.1000
G1 X10.2000 Y34.3496
G0 Z2.0000
G0 X10.6500 Y34.7996
G1 Z0.1000
G1 X12.0000 Y34.7996
G1 X12.0000 Y34.0496
G0 Z2.0000
G0 X11.1000 Y34.0496
G1 Z0.1000
G1 X11.1000 Y34.7996
G0 Z2.0000
G0 X10.6500 Y34.7996
G1 Z0.1000
G1 X10.5109 Y34.7776
G1 X10.3855 Y34.7137
G1 X10.2859 Y34.6141
G1 X10.2220 Y34.4887
G1 X10.2000 Y34.3496
G0 Z2.0000
G0 X11.1000 Y34.0496
G1 Z0.1000
G1 X11.1220 Y33.9106
G1 X11.1859 Y33.7851
G1 X11.2855 Y33.6856
G1 X11.4109 Y33.6217
G1 X11.5500 Y33.5996
G1 X11.6891 Y33.6217
G1 X11.8145 Y33.6856
G1 X11.9141 Y33.7851
G1 X11.9780 Y33.9106
G1 X12.0000 Y34.0496

(cogido= s)
(y sanitizado es's y en hex_font= #0073')
G0 Z2.0000
G0 X10.9731 Y35.7190
G1 Z0.1000
G1 X11.2635 Y36.4303
G0 Z2.0000
G0 X10.3683 Y36.6746
G1 Z0.1000
G1 X10.2625 Y36.3737
G1 X10.2385 Y36.0556
G1 X10.2979 Y35.7422
G1 X10.3569 Y35.6324
G1 X10.4497 Y35.5493
G1 X10.5653 Y35.5028
G1 X10.6899 Y35.4986
G1 X10.8084 Y35.5370
G1 X10.9067 Y35.6135
G1 X10.9731 Y35.7190
G0 Z2.0000
G0 X11.9386 Y36.4071
G1 Z0.1000
G1 X11.8796 Y36.5169
G1 X11.7868 Y36.6000
G1 X11.6712 Y36.6465
G1 X11.5467 Y36.6507
G1 X11.4281 Y36.6123
G1 X11.3298 Y36.5358
G1 X11.2635 Y36.4303
G0 Z2.0000
G0 X11.8683 Y35.4746
G1 Z0.1000
G1 X11.9741 Y35.7755
G1 X11.9981 Y36.0936
G1 X11.9386 Y36.4070

(cogido= q)
(y sanitizado es'q y en hex_font= #0071')
G0 Z2.0000
G0 X12.0000 Y41.2496
G1 Z0.1000
G1 X12.0000 Y40.4996
G0 Z2.0000
G0 X11.5500 Y40.0496
G1 Z0.1000
G1 X10.6500 Y40.0496
G0 Z2.0000
G0 X10.2000 Y40.4996
G1 Z0.1000
G1 X10.2000 Y41.2496
G1 X12.9000 Y41.2496
G0 Z2.0000
G0 X11.5500 Y40.0496
G1 Z0.1000
G1 X11.6891 Y40.0716
G1 X11.8145 Y40.1356
G1 X11.9141 Y40.2351
G1 X11.9780 Y40.3606
G1 X12.0000 Y40.4996
G0 Z2.0000
G0 X10.2000 Y40.4996
G1 Z0.1000
G1 X10.2220 Y40.3606
G1 X10.2859 Y40.2351
G1 X10.3855 Y40.1356
G1 X10.5109 Y40.0716
G1 X10.6500 Y40.0496

(cogido= u)
(y sanitizado es'u y en hex_font= #0075')
G0 Z2.0000
G0 X10.2000 Y41.9246
G1 Z0.1000
G1 X11.5500 Y41.9246
G0 Z2.0000
G0 X12.0000 Y42.3746
G1 Z0.1000
G1 X12.0000 Y43.1246
G1 X10.2000 Y43.1246
G0 Z2.0000
G0 X11.5500 Y41.9246
G1 Z0.1000
G1 X11.6891 Y41.9466
G1 X11.8145 Y42.0106
G1 X11.9141 Y42.1101
G1 X11.9780 Y42.2356
G1 X12.0000 Y42.3746

(cogido= e)
(y sanitizado es'e y en hex_font= #0065')
G0 Z2.0000
G0 X11.1000 Y43.7996
G1 Z0.1000
G1 X11.1000 Y44.9996
G1 X10.8000 Y44.9996
G0 Z2.0000
G0 X10.8000 Y43.7996
G1 Z0.1000
G1 X11.5500 Y43.7996
G0 Z2.0000
G0 X12.0000 Y44.2496
G1 Z0.1000
G1 X12.0000 Y44.9996
G0 Z2.0000
G0 X10.8000 Y44.9996
G1 Z0.1000
G1 X10.6146 Y44.9703
G1 X10.4473 Y44.8850
G1 X10.3146 Y44.7523
G1 X10.2294 Y44.5850
G1 X10.2000 Y44.3996
G1 X10.2294 Y44.2142
G1 X10.3146 Y44.0469
G1 X10.4473 Y43.9142
G1 X10.6146 Y43.8290
G1 X10.8000 Y43.7996
G0 Z2.0000
G0 X11.5500 Y43.7996
G1 Z0.1000
G1 X11.6891 Y43.8216
G1 X11.8145 Y43.8856
G1 X11.9141 Y43.9851
G1 X11.9780 Y44.1106
G1 X12.0000 Y44.2496

(cogido= t)
(y sanitizado es't y en hex_font= #0074')
G0 Z2.0000
G0 X10.2000 Y48.3746
G1 Z0.1000
G1 X10.2000 Y49.2746
G0 Z2.0000
G0 X9.3000 Y48.6746
G1 Z0.1000
G1 X12.0000 Y48.6746

(cogido= e)
(y sanitizado es'e y en hex_font= #0065')
G0 Z2.0000
G0 X11.1000 Y49.9496
G1 Z0.1000
G1 X11.1000 Y51.1496
G1 X10.8000 Y51.1496
G0 Z2.0000
G0 X10.8000 Y49.9496
G1 Z0.1000
G1 X11.5500 Y49.9496
G0 Z2.0000
G0 X12.0000 Y50.3996
G1 Z0.1000
G1 X12.0000 Y51.1496
G0 Z2.0000
G0 X10.8000 Y51.1496
G1 Z0.1000
G1 X10.6146 Y51.1202
G1 X10.4473 Y51.0350
G1 X10.3146 Y50.9023
G1 X10.2294 Y50.7350
G1 X10.2000 Y50.5496
G1 X10.2294 Y50.3642
G1 X10.3146 Y50.1969
G1 X10.4473 Y50.0642
G1 X10.6146 Y49.9790
G1 X10.8000 Y49.9496
G0 Z2.0000
G0 X11.5500 Y49.9496
G1 Z0.1000
G1 X11.6891 Y49.9716
G1 X11.8145 Y50.0355
G1 X11.9141 Y50.1351
G1 X11.9780 Y50.2605
G1 X12.0000 Y50.3996

(cogido= n)
(y sanitizado es'n y en hex_font= #006E')
G0 Z2.0000
G0 X12.0000 Y51.8246
G1 Z0.1000
G1 X10.2000 Y51.8246
G1 X10.2000 Y52.5746
G0 Z2.0000
G0 X10.6500 Y53.0246
G1 Z0.1000
G1 X12.0000 Y53.0246
G0 Z2.0000
G0 X10.6500 Y53.0246
G1 Z0.1000
G1 X10.5109 Y53.0026
G1 X10.3855 Y52.9386
G1 X10.2859 Y52.8391
G1 X10.2220 Y52.7136
G1 X10.2000 Y52.5746

(cogido= g)
(y sanitizado es'g y en hex_font= #0067')
G0 Z2.0000
G0 X12.9000 Y53.6996
G1 Z0.1000
G1 X12.9000 Y54.4496
G0 Z2.0000
G0 X12.4500 Y54.8995
G1 Z0.1000
G1 X10.2000 Y54.8995
G1 X10.2000 Y54.1496
G0 Z2.0000
G0 X10.6500 Y53.6996
G1 Z0.1000
G1 X11.5500 Y53.6996
G0 Z2.0000
G0 X12.0000 Y54.1496
G1 Z0.1000
G1 X12.0000 Y54.8995
G0 Z2.0000
G0 X12.9000 Y54.4496
G1 Z0.1000
G1 X12.8780 Y54.5886
G1 X12.8141 Y54.7141
G1 X12.7145 Y54.8136
G1 X12.5891 Y54.8775
G1 X12.4500 Y54.8996
G0 Z2.0000
G0 X10.2000 Y54.1496
G1 Z0.1000
G1 X10.2220 Y54.0105
G1 X10.2859 Y53.8851
G1 X10.3855 Y53.7855
G1 X10.5109 Y53.7216
G1 X10.6500 Y53.6996
G0 Z2.0000
G0 X11.5500 Y53.6996
G1 Z0.1000
G1 X11.6891 Y53.7216
G1 X11.8145 Y53.7855
G1 X11.9141 Y53.8851
G1 X11.9780 Y54.0105
G1 X12.0000 Y54.1496

(cogido= a)
(y sanitizado es'a y en hex_font= #0061')
G0 Z2.0000
G0 X10.2000 Y55.7246
G1 Z0.1000
G1 X10.2000 Y56.3245
G0 Z2.0000
G0 X10.6500 Y56.7745
G1 Z0.1000
G1 X12.0000 Y56.7745
G1 X12.0000 Y56.0245
G0 Z2.0000
G0 X11.1000 Y56.0245
G1 Z0.1000
G1 X11.1000 Y56.7745
G0 Z2.0000
G0 X10.6500 Y56.7745
G1 Z0.1000
G1 X10.5109 Y56.7525
G1 X10.3855 Y56.6886
G1 X10.2859 Y56.5890
G1 X10.2220 Y56.4636
G1 X10.2000 Y56.3245
G0 Z2.0000
G0 X11.1000 Y56.0245
G1 Z0.1000
G1 X11.1220 Y55.8855
G1 X11.1859 Y55.7600
G1 X11.2855 Y55.6605
G1 X11.4109 Y55.5966
G1 X11.5500 Y55.5745
G1 X11.6891 Y55.5966
G1 X11.8145 Y55.6605
G1 X11.9141 Y55.7600
G1 X11.9780 Y55.8855
G1 X12.0000 Y56.0245

(cogido= n)
(y sanitizado es'n y en hex_font= #006E')
G0 Z2.0000
G0 X12.0000 Y57.4495
G1 Z0.1000
G1 X10.2000 Y57.4495
G1 X10.2000 Y58.1995
G0 Z2.0000
G0 X10.6500 Y58.6495
G1 Z0.1000
G1 X12.0000 Y58.6495
G0 Z2.0000
G0 X10.6500 Y58.6495
G1 Z0.1000
G1 X10.5109 Y58.6275
G1 X10.3855 Y58.5636
G1 X10.2859 Y58.4640
G1 X10.2220 Y58.3386
G1 X10.2000 Y58.1995

(cogido= d)
(y sanitizado es'd y en hex_font= #0064')
G0 Z2.0000
G0 X9.3000 Y63.2245
G1 Z0.1000
G1 X12.0000 Y63.2245
G1 X12.0000 Y62.4745
G0 Z2.0000
G0 X11.5500 Y62.0245
G1 Z0.1000
G1 X10.6500 Y62.0245
G0 Z2.0000
G0 X10.2000 Y62.4745
G1 Z0.1000
G1 X10.2000 Y63.2245
G0 Z2.0000
G0 X11.5500 Y62.0245
G1 Z0.1000
G1 X11.6891 Y62.0466
G1 X11.8145 Y62.1105
G1 X11.9141 Y62.2100
G1 X11.9780 Y62.3355
G1 X12.0000 Y62.4745
G0 Z2.0000
G0 X10.2000 Y62.4745
G1 Z0.1000
G1 X10.2220 Y62.3355
G1 X10.2859 Y62.2100
G1 X10.3855 Y62.1105
G1 X10.5109 Y62.0466
G1 X10.6500 Y62.0245

(cogido= u)
(y sanitizado es'u y en hex_font= #0075')
G0 Z2.0000
G0 X10.2000 Y63.8995
G1 Z0.1000
G1 X11.5500 Y63.8995
G0 Z2.0000
G0 X12.0000 Y64.3495
G1 Z0.1000
G1 X12.0000 Y65.0995
G1 X10.2000 Y65.0995
G0 Z2.0000
G0 X11.5500 Y63.8995
G1 Z0.1000
G1 X11.6891 Y63.9216
G1 X11.8145 Y63.9855
G1 X11.9141 Y64.0850
G1 X11.9780 Y64.2105
G1 X12.0000 Y64.3495

(cogido= d)
(y sanitizado es'd y en hex_font= #0064')
G0 Z2.0000
G0 X9.3000 Y66.9745
G1 Z0.1000
G1 X12.0000 Y66.9745
G1 X12.0000 Y66.2245
G0 Z2.0000
G0 X11.5500 Y65.7745
G1 Z0.1000
G1 X10.6500 Y65.7745
G0 Z2.0000
G0 X10.2000 Y66.2245
G1 Z0.1000
G1 X10.2000 Y66.9745
G0 Z2.0000
G0 X11.5500 Y65.7745
G1 Z0.1000
G1 X11.6891 Y65.7966
G1 X11.8145 Y65.8605
G1 X11.9141 Y65.9600
G1 X11.9780 Y66.0855
G1 X12.0000 Y66.2245
G0 Z2.0000
G0 X10.2000 Y66.2245
G1 Z0.1000
G1 X10.2220 Y66.0855
G1 X10.2859 Y65.9600
G1 X10.3855 Y65.8605
G1 X10.5109 Y65.7966
G1 X10.6500 Y65.7745

(cogido= a)
(y sanitizado es'a y en hex_font= #0061')
G0 Z2.0000
G0 X10.2000 Y67.7995
G1 Z0.1000
G1 X10.2000 Y68.3995
G0 Z2.0000
G0 X10.6500 Y68.8495
G1 Z0.1000
G1 X12.0000 Y68.8495
G1 X12.0000 Y68.0995
G0 Z2.0000
G0 X11.1000 Y68.0995
G1 Z0.1000
G1 X11.1000 Y68.8495
G0 Z2.0000
G0 X10.6500 Y68.8495
G1 Z0.1000
G1 X10.5109 Y68.8275
G1 X10.3855 Y68.7636
G1 X10.2859 Y68.6640
G1 X10.2220 Y68.5386
G1 X10.2000 Y68.3995
G0 Z2.0000
G0 X11.1000 Y68.0995
G1 Z0.1000
G1 X11.1220 Y67.9604
G1 X11.1859 Y67.8350
G1 X11.2855 Y67.7354
G1 X11.4109 Y67.6715
G1 X11.5500 Y67.6495
G1 X11.6891 Y67.6715
G1 X11.8145 Y67.7354
G1 X11.9141 Y67.8350
G1 X11.9780 Y67.9604
G1 X12.0000 Y68.0995

(cogido= s)
(y sanitizado es's y en hex_font= #0073')
G0 Z2.0000
G0 X10.9731 Y69.7688
G1 Z0.1000
G1 X11.2635 Y70.4801
G0 Z2.0000
G0 X10.3683 Y70.7245
G1 Z0.1000
G1 X10.2625 Y70.4236
G1 X10.2385 Y70.1055
G1 X10.2979 Y69.7921
G1 X10.3569 Y69.6823
G1 X10.4497 Y69.5992
G1 X10.5653 Y69.5527
G1 X10.6899 Y69.5484
G1 X10.8084 Y69.5869
G1 X10.9067 Y69.6634
G1 X10.9731 Y69.7689
G0 Z2.0000
G0 X11.9386 Y70.4570
G1 Z0.1000
G1 X11.8796 Y70.5668
G1 X11.7868 Y70.6498
G1 X11.6712 Y70.6963
G1 X11.5467 Y70.7006
G1 X11.4281 Y70.6622
G1 X11.3298 Y70.5856
G1 X11.2635 Y70.4802
G0 Z2.0000
G0 X11.8683 Y69.5245
G1 Z0.1000
G1 X11.9741 Y69.8254
G1 X11.9981 Y70.1435
G1 X11.9386 Y70.4569

(cogido= .)
(y sanitizado es'. y en hex_font= #002E')
G0 Z2.0000
G0 X12.0000 Y71.3995
G1 Z0.1000
G1 X11.8500 Y71.3995

G0 Z2.0000
(===================================================================)
( Line 5 )
( Grabando: Si puedes esperar y no cansarte de la espera;" )
(===================================================================)
(cogido= S)
(y sanitizado es'S y en hex_font= #0053')
G0 Z2.0000
G0 X13.4345 Y0.3275
G1 Z0.1000
G1 X13.8655 Y1.1725
G0 Z2.0000
G0 X12.5155 Y1.5000
G1 Z0.1000
G1 X12.3546 Y1.0627
G1 X12.3000 Y0.6000
G1 X12.3331 Y0.4035
G1 X12.4288 Y0.2286
G1 X12.5765 Y0.0947
G1 X12.7598 Y0.0166
G1 X12.9587 Y0.0029
G1 X13.1511 Y0.0551
G1 X13.3157 Y0.1674
G1 X13.4345 Y0.3275
G0 Z2.0000
G0 X15.0000 Y0.9000
G1 Z0.1000
G1 X14.9669 Y1.0966
G1 X14.8712 Y1.2714
G1 X14.7235 Y1.4053
G1 X14.5402 Y1.4834
G1 X14.3413 Y1.4972
G1 X14.1489 Y1.4450
G1 X13.9843 Y1.3327
G1 X13.8655 Y1.1726
G0 Z2.0000
G0 X14.7845 Y0.0000
G1 Z0.1000
G1 X14.9454 Y0.4373
G1 X15.0000 Y0.9000

(cogido= i)
(y sanitizado es'i y en hex_font= #0069')
G0 Z2.0000
G0 X15.0000 Y2.1750
G1 Z0.1000
G1 X13.2000 Y2.1750
G0 Z2.0000
G0 X12.4500 Y2.1750
G1 Z0.1000
G1 X12.3000 Y2.1750

(cogido= p)
(y sanitizado es'p y en hex_font= #0070')
G0 Z2.0000
G0 X15.0000 Y5.5500
G1 Z0.1000
G1 X15.0000 Y6.2999
G0 Z2.0000
G0 X14.5500 Y6.7499
G1 Z0.1000
G1 X13.6500 Y6.7499
G0 Z2.0000
G0 X13.2000 Y6.2999
G1 Z0.1000
G1 X13.2000 Y5.5500
G1 X15.9000 Y5.5500
G0 Z2.0000
G0 X15.0000 Y6.2999
G1 Z0.1000
G1 X14.9780 Y6.4390
G1 X14.9141 Y6.5644
G1 X14.8145 Y6.6640
G1 X14.6891 Y6.7279
G1 X14.5500 Y6.7499
G0 Z2.0000
G0 X13.6500 Y6.7499
G1 Z0.1000
G1 X13.5109 Y6.7279
G1 X13.3855 Y6.6640
G1 X13.2859 Y6.5644
G1 X13.2220 Y6.4390
G1 X13.2000 Y6.2999

(cogido= u)
(y sanitizado es'u y en hex_font= #0075')
G0 Z2.0000
G0 X13.2000 Y7.4249
G1 Z0.1000
G1 X14.5500 Y7.4249
G0 Z2.0000
G0 X15.0000 Y7.8749
G1 Z0.1000
G1 X15.0000 Y8.6249
G1 X13.2000 Y8.6249
G0 Z2.0000
G0 X14.5500 Y7.4249
G1 Z0.1000
G1 X14.6891 Y7.4470
G1 X14.8145 Y7.5109
G1 X14.9141 Y7.6104
G1 X14.9780 Y7.7359
G1 X15.0000 Y7.8749

(cogido= e)
(y sanitizado es'e y en hex_font= #0065')
G0 Z2.0000
G0 X14.1000 Y9.3000
G1 Z0.1000
G1 X14.1000 Y10.4999
G1 X13.8000 Y10.4999
G0 Z2.0000
G0 X13.8000 Y9.3000
G1 Z0.1000
G1 X14.5500 Y9.3000
G0 Z2.0000
G0 X15.0000 Y9.7499
G1 Z0.1000
G1 X15.0000 Y10.4999
G0 Z2.0000
G0 X13.8000 Y10.4999
G1 Z0.1000
G1 X13.6146 Y10.4706
G1 X13.4473 Y10.3854
G1 X13.3146 Y10.2526
G1 X13.2294 Y10.0854
G1 X13.2000 Y9.8999
G1 X13.2294 Y9.7145
G1 X13.3146 Y9.5473
G1 X13.4473 Y9.4145
G1 X13.6146 Y9.3293
G1 X13.8000 Y9.2999
G0 Z2.0000
G0 X14.5500 Y9.2999
G1 Z0.1000
G1 X14.6891 Y9.3220
G1 X14.8145 Y9.3859
G1 X14.9141 Y9.4854
G1 X14.9780 Y9.6109
G1 X15.0000 Y9.7499

(cogido= d)
(y sanitizado es'd y en hex_font= #0064')
G0 Z2.0000
G0 X12.3000 Y12.3749
G1 Z0.1000
G1 X15.0000 Y12.3749
G1 X15.0000 Y11.6249
G0 Z2.0000
G0 X14.5500 Y11.1749
G1 Z0.1000
G1 X13.6500 Y11.1749
G0 Z2.0000
G0 X13.2000 Y11.6249
G1 Z0.1000
G1 X13.2000 Y12.3749
G0 Z2.0000
G0 X14.5500 Y11.1749
G1 Z0.1000
G1 X14.6891 Y11.1970
G1 X14.8145 Y11.2609
G1 X14.9141 Y11.3604
G1 X14.9780 Y11.4859
G1 X15.0000 Y11.6249
G0 Z2.0000
G0 X13.2000 Y11.6249
G1 Z0.1000
G1 X13.2220 Y11.4859
G1 X13.2859 Y11.3604
G1 X13.3855 Y11.2609
G1 X13.5109 Y11.1970
G1 X13.6500 Y11.1749

(cogido= e)
(y sanitizado es'e y en hex_font= #0065')
G0 Z2.0000
G0 X14.1000 Y13.0500
G1 Z0.1000
G1 X14.1000 Y14.2499
G1 X13.8000 Y14.2499
G0 Z2.0000
G0 X13.8000 Y13.0500
G1 Z0.1000
G1 X14.5500 Y13.0500
G0 Z2.0000
G0 X15.0000 Y13.4999
G1 Z0.1000
G1 X15.0000 Y14.2499
G0 Z2.0000
G0 X13.8000 Y14.2499
G1 Z0.1000
G1 X13.6146 Y14.2206
G1 X13.4473 Y14.1354
G1 X13.3146 Y14.0026
G1 X13.2294 Y13.8354
G1 X13.2000 Y13.6499
G1 X13.2294 Y13.4645
G1 X13.3146 Y13.2973
G1 X13.4473 Y13.1645
G1 X13.6146 Y13.0793
G1 X13.8000 Y13.0499
G0 Z2.0000
G0 X14.5500 Y13.0499
G1 Z0.1000
G1 X14.6891 Y13.0720
G1 X14.8145 Y13.1359
G1 X14.9141 Y13.2354
G1 X14.9780 Y13.3609
G1 X15.0000 Y13.4999

(cogido= s)
(y sanitizado es's y en hex_font= #0073')
G0 Z2.0000
G0 X13.9731 Y15.1693
G1 Z0.1000
G1 X14.2635 Y15.8806
G0 Z2.0000
G0 X13.3683 Y16.1249
G1 Z0.1000
G1 X13.2625 Y15.8240
G1 X13.2385 Y15.5059
G1 X13.2979 Y15.1925
G1 X13.3569 Y15.0827
G1 X13.4497 Y14.9996
G1 X13.5653 Y14.9531
G1 X13.6899 Y14.9489
G1 X13.8084 Y14.9873
G1 X13.9067 Y15.0638
G1 X13.9731 Y15.1693
G0 Z2.0000
G0 X14.9386 Y15.8574
G1 Z0.1000
G1 X14.8796 Y15.9672
G1 X14.7868 Y16.0503
G1 X14.6712 Y16.0968
G1 X14.5467 Y16.1010
G1 X14.4281 Y16.0626
G1 X14.3298 Y15.9861
G1 X14.2635 Y15.8806
G0 Z2.0000
G0 X14.8683 Y14.9249
G1 Z0.1000
G1 X14.9741 Y15.2258
G1 X14.9981 Y15.5439
G1 X14.9386 Y15.8573

(cogido= e)
(y sanitizado es'e y en hex_font= #0065')
G0 Z2.0000
G0 X14.1000 Y19.5000
G1 Z0.1000
G1 X14.1000 Y20.6999
G1 X13.8000 Y20.6999
G0 Z2.0000
G0 X13.8000 Y19.5000
G1 Z0.1000
G1 X14.5500 Y19.5000
G0 Z2.0000
G0 X15.0000 Y19.9499
G1 Z0.1000
G1 X15.0000 Y20.6999
G0 Z2.0000
G0 X13.8000 Y20.6999
G1 Z0.1000
G1 X13.6146 Y20.6706
G1 X13.4473 Y20.5854
G1 X13.3146 Y20.4526
G1 X13.2294 Y20.2854
G1 X13.2000 Y20.0999
G1 X13.2294 Y19.9145
G1 X13.3146 Y19.7473
G1 X13.4473 Y19.6145
G1 X13.6146 Y19.5293
G1 X13.8000 Y19.4999
G0 Z2.0000
G0 X14.5500 Y19.4999
G1 Z0.1000
G1 X14.6891 Y19.5220
G1 X14.8145 Y19.5859
G1 X14.9141 Y19.6854
G1 X14.9780 Y19.8109
G1 X15.0000 Y19.9499

(cogido= s)
(y sanitizado es's y en hex_font= #0073')
G0 Z2.0000
G0 X13.9731 Y21.6193
G1 Z0.1000
G1 X14.2635 Y22.3306
G0 Z2.0000
G0 X13.3683 Y22.5750
G1 Z0.1000
G1 X13.2625 Y22.2740
G1 X13.2385 Y21.9559
G1 X13.2979 Y21.6425
G1 X13.3569 Y21.5327
G1 X13.4497 Y21.4496
G1 X13.5653 Y21.4032
G1 X13.6899 Y21.3989
G1 X13.8084 Y21.4373
G1 X13.9067 Y21.5138
G1 X13.9731 Y21.6193
G0 Z2.0000
G0 X14.9386 Y22.3074
G1 Z0.1000
G1 X14.8796 Y22.4172
G1 X14.7868 Y22.5003
G1 X14.6712 Y22.5468
G1 X14.5467 Y22.5510
G1 X14.4281 Y22.5126
G1 X14.3298 Y22.4361
G1 X14.2635 Y22.3306
G0 Z2.0000
G0 X14.8683 Y21.3749
G1 Z0.1000
G1 X14.9741 Y21.6759
G1 X14.9981 Y21.9939
G1 X14.9386 Y22.3074

(cogido= p)
(y sanitizado es'p y en hex_font= #0070')
G0 Z2.0000
G0 X15.0000 Y23.2499
G1 Z0.1000
G1 X15.0000 Y23.9999
G0 Z2.0000
G0 X14.5500 Y24.4499
G1 Z0.1000
G1 X13.6500 Y24.4499
G0 Z2.0000
G0 X13.2000 Y23.9999
G1 Z0.1000
G1 X13.2000 Y23.2499
G1 X15.9000 Y23.2499
G0 Z2.0000
G0 X15.0000 Y23.9999
G1 Z0.1000
G1 X14.9780 Y24.1390
G1 X14.9141 Y24.2644
G1 X14.8145 Y24.3640
G1 X14.6891 Y24.4279
G1 X14.5500 Y24.4499
G0 Z2.0000
G0 X13.6500 Y24.4499
G1 Z0.1000
G1 X13.5109 Y24.4279
G1 X13.3855 Y24.3640
G1 X13.2859 Y24.2644
G1 X13.2220 Y24.1390
G1 X13.2000 Y23.9999

(cogido= e)
(y sanitizado es'e y en hex_font= #0065')
G0 Z2.0000
G0 X14.1000 Y25.1249
G1 Z0.1000
G1 X14.1000 Y26.3249
G1 X13.8000 Y26.3249
G0 Z2.0000
G0 X13.8000 Y25.1249
G1 Z0.1000
G1 X14.5500 Y25.1249
G0 Z2.0000
G0 X15.0000 Y25.5749
G1 Z0.1000
G1 X15.0000 Y26.3249
G0 Z2.0000
G0 X13.8000 Y26.3249
G1 Z0.1000
G1 X13.6146 Y26.2955
G1 X13.4473 Y26.2103
G1 X13.3146 Y26.0776
G1 X13.2294 Y25.9103
G1 X13.2000 Y25.7249
G1 X13.2294 Y25.5395
G1 X13.3146 Y25.3722
G1 X13.4473 Y25.2395
G1 X13.6146 Y25.1543
G1 X13.8000 Y25.1249
G0 Z2.0000
G0 X14.5500 Y25.1249
G1 Z0.1000
G1 X14.6891 Y25.1469
G1 X14.8145 Y25.2108
G1 X14.9141 Y25.3104
G1 X14.9780 Y25.4358
G1 X15.0000 Y25.5749

(cogido= r)
(y sanitizado es'r y en hex_font= #0072')
G0 Z2.0000
G0 X15.0000 Y26.9999
G1 Z0.1000
G1 X13.2000 Y26.9999
G1 X13.2000 Y27.5999
G0 Z2.0000
G0 X13.5000 Y27.8999
G1 Z0.1000
G1 X13.4073 Y27.8852
G1 X13.3237 Y27.8426
G1 X13.2573 Y27.7762
G1 X13.2147 Y27.6926
G1 X13.2000 Y27.5999

(cogido= a)
(y sanitizado es'a y en hex_font= #0061')
G0 Z2.0000
G0 X13.2000 Y28.7249
G1 Z0.1000
G1 X13.2000 Y29.3248
G0 Z2.0000
G0 X13.6500 Y29.7748
G1 Z0.1000
G1 X15.0000 Y29.7748
G1 X15.0000 Y29.0248
G0 Z2.0000
G0 X14.1000 Y29.0248
G1 Z0.1000
G1 X14.1000 Y29.7748
G0 Z2.0000
G0 X13.6500 Y29.7748
G1 Z0.1000
G1 X13.5109 Y29.7528
G1 X13.3855 Y29.6889
G1 X13.2859 Y29.5893
G1 X13.2220 Y29.4639
G1 X13.2000 Y29.3248
G0 Z2.0000
G0 X14.1000 Y29.0248
G1 Z0.1000
G1 X14.1220 Y28.8858
G1 X14.1859 Y28.7603
G1 X14.2855 Y28.6608
G1 X14.4109 Y28.5969
G1 X14.5500 Y28.5748
G1 X14.6891 Y28.5969
G1 X14.8145 Y28.6608
G1 X14.9141 Y28.7603
G1 X14.9780 Y28.8858
G1 X15.0000 Y29.0248

(cogido= r)
(y sanitizado es'r y en hex_font= #0072')
G0 Z2.0000
G0 X15.0000 Y30.4498
G1 Z0.1000
G1 X13.2000 Y30.4498
G1 X13.2000 Y31.0498
G0 Z2.0000
G0 X13.5000 Y31.3498
G1 Z0.1000
G1 X13.4073 Y31.3351
G1 X13.3237 Y31.2925
G1 X13.2573 Y31.2261
G1 X13.2147 Y31.1425
G1 X13.2000 Y31.0498

(cogido= y)
(y sanitizado es'y y en hex_font= #0079')
G0 Z2.0000
G0 X13.2000 Y34.7248
G1 Z0.1000
G1 X15.0000 Y35.3247
G0 Z2.0000
G0 X13.2000 Y35.9248
G1 Z0.1000
G1 X15.6949 Y35.0931
G0 Z2.0000
G0 X15.9000 Y34.8086
G1 Z0.1000
G1 X15.9000 Y34.7248
G0 Z2.0000
G0 X15.9000 Y34.8086
G1 Z0.1000
G1 X15.8855 Y34.9008
G1 X15.8434 Y34.9840
G1 X15.7777 Y35.0503
G1 X15.6949 Y35.0932

(cogido= n)
(y sanitizado es'n y en hex_font= #006E')
G0 Z2.0000
G0 X15.0000 Y39.2998
G1 Z0.1000
G1 X13.2000 Y39.2998
G1 X13.2000 Y40.0498
G0 Z2.0000
G0 X13.6500 Y40.4998
G1 Z0.1000
G1 X15.0000 Y40.4998
G0 Z2.0000
G0 X13.6500 Y40.4998
G1 Z0.1000
G1 X13.5109 Y40.4778
G1 X13.3855 Y40.4139
G1 X13.2859 Y40.3143
G1 X13.2220 Y40.1889
G1 X13.2000 Y40.0498

(cogido= o)
(y sanitizado es'o y en hex_font= #006F')
G0 Z2.0000
G0 X13.8000 Y41.1748
G1 Z0.1000
G1 X14.4000 Y41.1748
G0 Z2.0000
G0 X14.4000 Y42.3748
G1 Z0.1000
G1 X13.8000 Y42.3748
G0 Z2.0000
G0 X14.4000 Y41.1749
G1 Z0.1000
G1 X14.5854 Y41.2042
G1 X14.7527 Y41.2895
G1 X14.8854 Y41.4222
G1 X14.9706 Y41.5895
G1 X15.0000 Y41.7749
G1 X14.9706 Y41.9603
G1 X14.8854 Y42.1275
G1 X14.7527 Y42.2603
G1 X14.5854 Y42.3455
G1 X14.4000 Y42.3749
G0 Z2.0000
G0 X13.8000 Y42.3749
G1 Z0.1000
G1 X13.6146 Y42.3455
G1 X13.4473 Y42.2603
G1 X13.3146 Y42.1275
G1 X13.2294 Y41.9603
G1 X13.2000 Y41.7749
G1 X13.2294 Y41.5895
G1 X13.3146 Y41.4222
G1 X13.4473 Y41.2895
G1 X13.6146 Y41.2042
G1 X13.8000 Y41.1749

(cogido= c)
(y sanitizado es'c y en hex_font= #0063')
G0 Z2.0000
G0 X13.2000 Y46.6499
G1 Z0.1000
G1 X13.2000 Y46.1999
G0 Z2.0000
G0 X13.6500 Y45.7499
G1 Z0.1000
G1 X14.5500 Y45.7499
G0 Z2.0000
G0 X15.0000 Y46.1999
G1 Z0.1000
G1 X15.0000 Y46.6499
G0 Z2.0000
G0 X13.2000 Y46.1999
G1 Z0.1000
G1 X13.2220 Y46.0608
G1 X13.2859 Y45.9354
G1 X13.3855 Y45.8358
G1 X13.5109 Y45.7719
G1 X13.6500 Y45.7499
G0 Z2.0000
G0 X14.5500 Y45.7499
G1 Z0.1000
G1 X14.6891 Y45.7719
G1 X14.8145 Y45.8358
G1 X14.9141 Y45.9354
G1 X14.9780 Y46.0608
G1 X15.0000 Y46.1999

(cogido= a)
(y sanitizado es'a y en hex_font= #0061')
G0 Z2.0000
G0 X13.2000 Y47.4749
G1 Z0.1000
G1 X13.2000 Y48.0748
G0 Z2.0000
G0 X13.6500 Y48.5248
G1 Z0.1000
G1 X15.0000 Y48.5248
G1 X15.0000 Y47.7748
G0 Z2.0000
G0 X14.1000 Y47.7748
G1 Z0.1000
G1 X14.1000 Y48.5248
G0 Z2.0000
G0 X13.6500 Y48.5248
G1 Z0.1000
G1 X13.5109 Y48.5028
G1 X13.3855 Y48.4389
G1 X13.2859 Y48.3393
G1 X13.2220 Y48.2139
G1 X13.2000 Y48.0748
G0 Z2.0000
G0 X14.1000 Y47.7748
G1 Z0.1000
G1 X14.1220 Y47.6358
G1 X14.1859 Y47.5103
G1 X14.2855 Y47.4108
G1 X14.4109 Y47.3469
G1 X14.5500 Y47.3248
G1 X14.6891 Y47.3469
G1 X14.8145 Y47.4108
G1 X14.9141 Y47.5103
G1 X14.9780 Y47.6358
G1 X15.0000 Y47.7748

(cogido= n)
(y sanitizado es'n y en hex_font= #006E')
G0 Z2.0000
G0 X15.0000 Y49.1998
G1 Z0.1000
G1 X13.2000 Y49.1998
G1 X13.2000 Y49.9498
G0 Z2.0000
G0 X13.6500 Y50.3998
G1 Z0.1000
G1 X15.0000 Y50.3998
G0 Z2.0000
G0 X13.6500 Y50.3998
G1 Z0.1000
G1 X13.5109 Y50.3778
G1 X13.3855 Y50.3139
G1 X13.2859 Y50.2143
G1 X13.2220 Y50.0889
G1 X13.2000 Y49.9498

(cogido= s)
(y sanitizado es's y en hex_font= #0073')
G0 Z2.0000
G0 X13.9731 Y51.3192
G1 Z0.1000
G1 X14.2635 Y52.0305
G0 Z2.0000
G0 X13.3683 Y52.2748
G1 Z0.1000
G1 X13.2625 Y51.9739
G1 X13.2385 Y51.6558
G1 X13.2979 Y51.3424
G1 X13.3569 Y51.2326
G1 X13.4497 Y51.1495
G1 X13.5653 Y51.1030
G1 X13.6899 Y51.0988
G1 X13.8084 Y51.1372
G1 X13.9067 Y51.2137
G1 X13.9731 Y51.3192
G0 Z2.0000
G0 X14.9386 Y52.0073
G1 Z0.1000
G1 X14.8796 Y52.1171
G1 X14.7868 Y52.2002
G1 X14.6712 Y52.2467
G1 X14.5467 Y52.2509
G1 X14.4281 Y52.2125
G1 X14.3298 Y52.1360
G1 X14.2635 Y52.0305
G0 Z2.0000
G0 X14.8683 Y51.0748
G1 Z0.1000
G1 X14.9741 Y51.3757
G1 X14.9981 Y51.6938
G1 X14.9386 Y52.0072

(cogido= a)
(y sanitizado es'a y en hex_font= #0061')
G0 Z2.0000
G0 X13.2000 Y53.0998
G1 Z0.1000
G1 X13.2000 Y53.6998
G0 Z2.0000
G0 X13.6500 Y54.1498
G1 Z0.1000
G1 X15.0000 Y54.1498
G1 X15.0000 Y53.3998
G0 Z2.0000
G0 X14.1000 Y53.3998
G1 Z0.1000
G1 X14.1000 Y54.1498
G0 Z2.0000
G0 X13.6500 Y54.1498
G1 Z0.1000
G1 X13.5109 Y54.1278
G1 X13.3855 Y54.0639
G1 X13.2859 Y53.9643
G1 X13.2220 Y53.8389
G1 X13.2000 Y53.6998
G0 Z2.0000
G0 X14.1000 Y53.3998
G1 Z0.1000
G1 X14.1220 Y53.2608
G1 X14.1859 Y53.1353
G1 X14.2855 Y53.0358
G1 X14.4109 Y52.9718
G1 X14.5500 Y52.9498
G1 X14.6891 Y52.9718
G1 X14.8145 Y53.0358
G1 X14.9141 Y53.1353
G1 X14.9780 Y53.2608
G1 X15.0000 Y53.3998

(cogido= r)
(y sanitizado es'r y en hex_font= #0072')
G0 Z2.0000
G0 X15.0000 Y54.8248
G1 Z0.1000
G1 X13.2000 Y54.8248
G1 X13.2000 Y55.4248
G0 Z2.0000
G0 X13.5000 Y55.7248
G1 Z0.1000
G1 X13.4073 Y55.7101
G1 X13.3237 Y55.6675
G1 X13.2573 Y55.6011
G1 X13.2147 Y55.5175
G1 X13.2000 Y55.4248

(cogido= t)
(y sanitizado es't y en hex_font= #0074')
G0 Z2.0000
G0 X13.2000 Y56.3998
G1 Z0.1000
G1 X13.2000 Y57.2998
G0 Z2.0000
G0 X12.3000 Y56.6998
G1 Z0.1000
G1 X15.0000 Y56.6998

(cogido= e)
(y sanitizado es'e y en hex_font= #0065')
G0 Z2.0000
G0 X14.1000 Y57.9748
G1 Z0.1000
G1 X14.1000 Y59.1748
G1 X13.8000 Y59.1748
G0 Z2.0000
G0 X13.8000 Y57.9748
G1 Z0.1000
G1 X14.5500 Y57.9748
G0 Z2.0000
G0 X15.0000 Y58.4248
G1 Z0.1000
G1 X15.0000 Y59.1748
G0 Z2.0000
G0 X13.8000 Y59.1748
G1 Z0.1000
G1 X13.6146 Y59.1454
G1 X13.4473 Y59.0602
G1 X13.3146 Y58.9274
G1 X13.2294 Y58.7602
G1 X13.2000 Y58.5748
G1 X13.2294 Y58.3893
G1 X13.3146 Y58.2221
G1 X13.4473 Y58.0893
G1 X13.6146 Y58.0041
G1 X13.8000 Y57.9748
G0 Z2.0000
G0 X14.5500 Y57.9748
G1 Z0.1000
G1 X14.6891 Y57.9968
G1 X14.8145 Y58.0607
G1 X14.9141 Y58.1603
G1 X14.9780 Y58.2857
G1 X15.0000 Y58.4248

(cogido= d)
(y sanitizado es'd y en hex_font= #0064')
G0 Z2.0000
G0 X12.3000 Y63.7498
G1 Z0.1000
G1 X15.0000 Y63.7498
G1 X15.0000 Y62.9998
G0 Z2.0000
G0 X14.5500 Y62.5498
G1 Z0.1000
G1 X13.6500 Y62.5498
G0 Z2.0000
G0 X13.2000 Y62.9998
G1 Z0.1000
G1 X13.2000 Y63.7498
G0 Z2.0000
G0 X14.5500 Y62.5498
G1 Z0.1000
G1 X14.6891 Y62.5718
G1 X14.8145 Y62.6357
G1 X14.9141 Y62.7353
G1 X14.9780 Y62.8607
G1 X15.0000 Y62.9998
G0 Z2.0000
G0 X13.2000 Y62.9998
G1 Z0.1000
G1 X13.2220 Y62.8607
G1 X13.2859 Y62.7353
G1 X13.3855 Y62.6357
G1 X13.5109 Y62.5718
G1 X13.6500 Y62.5498

(cogido= e)
(y sanitizado es'e y en hex_font= #0065')
G0 Z2.0000
G0 X14.1000 Y64.4248
G1 Z0.1000
G1 X14.1000 Y65.6248
G1 X13.8000 Y65.6248
G0 Z2.0000
G0 X13.8000 Y64.4248
G1 Z0.1000
G1 X14.5500 Y64.4248
G0 Z2.0000
G0 X15.0000 Y64.8748
G1 Z0.1000
G1 X15.0000 Y65.6248
G0 Z2.0000
G0 X13.8000 Y65.6248
G1 Z0.1000
G1 X13.6146 Y65.5954
G1 X13.4473 Y65.5102
G1 X13.3146 Y65.3774
G1 X13.2294 Y65.2102
G1 X13.2000 Y65.0248
G1 X13.2294 Y64.8393
G1 X13.3146 Y64.6721
G1 X13.4473 Y64.5393
G1 X13.6146 Y64.4541
G1 X13.8000 Y64.4248
G0 Z2.0000
G0 X14.5500 Y64.4248
G1 Z0.1000
G1 X14.6891 Y64.4468
G1 X14.8145 Y64.5107
G1 X14.9141 Y64.6103
G1 X14.9780 Y64.7357
G1 X15.0000 Y64.8748

(cogido= l)
(y sanitizado es'l y en hex_font= #006C')
G0 Z2.0000
G0 X12.3000 Y68.9998
G1 Z0.1000
G1 X14.7000 Y68.9998
G1 X14.7927 Y69.0144
G1 X14.8763 Y69.0571
G1 X14.9427 Y69.1234
G1 X14.9853 Y69.2071
G1 X15.0000 Y69.2998

(cogido= a)
(y sanitizado es'a y en hex_font= #0061')
G0 Z2.0000
G0 X13.2000 Y70.1248
G1 Z0.1000
G1 X13.2000 Y70.7247
G0 Z2.0000
G0 X13.6500 Y71.1747
G1 Z0.1000
G1 X15.0000 Y71.1747
G1 X15.0000 Y70.4247
G0 Z2.0000
G0 X14.1000 Y70.4247
G1 Z0.1000
G1 X14.1000 Y71.1747
G0 Z2.0000
G0 X13.6500 Y71.1747
G1 Z0.1000
G1 X13.5109 Y71.1527
G1 X13.3855 Y71.0888
G1 X13.2859 Y70.9892
G1 X13.2220 Y70.8638
G1 X13.2000 Y70.7247
G0 Z2.0000
G0 X14.1000 Y70.4247
G1 Z0.1000
G1 X14.1220 Y70.2857
G1 X14.1859 Y70.1602
G1 X14.2855 Y70.0607
G1 X14.4109 Y69.9968
G1 X14.5500 Y69.9747
G1 X14.6891 Y69.9968
G1 X14.8145 Y70.0607
G1 X14.9141 Y70.1602
G1 X14.9780 Y70.2857
G1 X15.0000 Y70.4247

(cogido= e)
(y sanitizado es'e y en hex_font= #0065')
G0 Z2.0000
G0 X14.1000 Y74.5498
G1 Z0.1000
G1 X14.1000 Y75.7497
G1 X13.8000 Y75.7497
G0 Z2.0000
G0 X13.8000 Y74.5498
G1 Z0.1000
G1 X14.5500 Y74.5498
G0 Z2.0000
G0 X15.0000 Y74.9997
G1 Z0.1000
G1 X15.0000 Y75.7497
G0 Z2.0000
G0 X13.8000 Y75.7497
G1 Z0.1000
G1 X13.6146 Y75.7204
G1 X13.4473 Y75.6351
G1 X13.3146 Y75.5024
G1 X13.2294 Y75.3351
G1 X13.2000 Y75.1497
G1 X13.2294 Y74.9643
G1 X13.3146 Y74.7971
G1 X13.4473 Y74.6643
G1 X13.6146 Y74.5791
G1 X13.8000 Y74.5497
G0 Z2.0000
G0 X14.5500 Y74.5497
G1 Z0.1000
G1 X14.6891 Y74.5718
G1 X14.8145 Y74.6357
G1 X14.9141 Y74.7352
G1 X14.9780 Y74.8607
G1 X15.0000 Y74.9997

(cogido= s)
(y sanitizado es's y en hex_font= #0073')
G0 Z2.0000
G0 X13.9731 Y76.6690
G1 Z0.1000
G1 X14.2635 Y77.3803
G0 Z2.0000
G0 X13.3683 Y77.6247
G1 Z0.1000
G1 X13.2625 Y77.3238
G1 X13.2385 Y77.0057
G1 X13.2979 Y76.6923
G1 X13.3569 Y76.5825
G1 X13.4497 Y76.4994
G1 X13.5653 Y76.4529
G1 X13.6899 Y76.4487
G1 X13.8084 Y76.4871
G1 X13.9067 Y76.5636
G1 X13.9731 Y76.6691
G0 Z2.0000
G0 X14.9386 Y77.3572
G1 Z0.1000
G1 X14.8796 Y77.4670
G1 X14.7868 Y77.5501
G1 X14.6712 Y77.5965
G1 X14.5467 Y77.6008
G1 X14.4281 Y77.5624
G1 X14.3298 Y77.4859
G1 X14.2635 Y77.3804
G0 Z2.0000
G0 X14.8683 Y76.4247
G1 Z0.1000
G1 X14.9741 Y76.7256
G1 X14.9981 Y77.0437
G1 X14.9386 Y77.3571

(cogido= p)
(y sanitizado es'p y en hex_font= #0070')
G0 Z2.0000
G0 X15.0000 Y78.2997
G1 Z0.1000
G1 X15.0000 Y79.0497
G0 Z2.0000
G0 X14.5500 Y79.4997
G1 Z0.1000
G1 X13.6500 Y79.4997
G0 Z2.0000
G0 X13.2000 Y79.0497
G1 Z0.1000
G1 X13.2000 Y78.2997
G1 X15.9000 Y78.2997
G0 Z2.0000
G0 X15.0000 Y79.0497
G1 Z0.1000
G1 X14.9780 Y79.1887
G1 X14.9141 Y79.3142
G1 X14.8145 Y79.4137
G1 X14.6891 Y79.4777
G1 X14.5500 Y79.4997
G0 Z2.0000
G0 X13.6500 Y79.4997
G1 Z0.1000
G1 X13.5109 Y79.4777
G1 X13.3855 Y79.4137
G1 X13.2859 Y79.3142
G1 X13.2220 Y79.1887
G1 X13.2000 Y79.0497

(cogido= e)
(y sanitizado es'e y en hex_font= #0065')
G0 Z2.0000
G0 X14.1000 Y80.1747
G1 Z0.1000
G1 X14.1000 Y81.3747
G1 X13.8000 Y81.3747
G0 Z2.0000
G0 X13.8000 Y80.1747
G1 Z0.1000
G1 X14.5500 Y80.1747
G0 Z2.0000
G0 X15.0000 Y80.6247
G1 Z0.1000
G1 X15.0000 Y81.3747
G0 Z2.0000
G0 X13.8000 Y81.3747
G1 Z0.1000
G1 X13.6146 Y81.3453
G1 X13.4473 Y81.2601
G1 X13.3146 Y81.1273
G1 X13.2294 Y80.9601
G1 X13.2000 Y80.7747
G1 X13.2294 Y80.5893
G1 X13.3146 Y80.4220
G1 X13.4473 Y80.2893
G1 X13.6146 Y80.2040
G1 X13.8000 Y80.1747
G0 Z2.0000
G0 X14.5500 Y80.1747
G1 Z0.1000
G1 X14.6891 Y80.1967
G1 X14.8145 Y80.2606
G1 X14.9141 Y80.3602
G1 X14.9780 Y80.4856
G1 X15.0000 Y80.6247

(cogido= r)
(y sanitizado es'r y en hex_font= #0072')
G0 Z2.0000
G0 X15.0000 Y82.0496
G1 Z0.1000
G1 X13.2000 Y82.0496
G1 X13.2000 Y82.6496
G0 Z2.0000
G0 X13.5000 Y82.9496
G1 Z0.1000
G1 X13.4073 Y82.9350
G1 X13.3237 Y82.8924
G1 X13.2573 Y82.8260
G1 X13.2147 Y82.7424
G1 X13.2000 Y82.6496

(cogido= a)
(y sanitizado es'a y en hex_font= #0061')
G0 Z2.0000
G0 X13.2000 Y83.7746
G1 Z0.1000
G1 X13.2000 Y84.3746
G0 Z2.0000
G0 X13.6500 Y84.8246
G1 Z0.1000
G1 X15.0000 Y84.8246
G1 X15.0000 Y84.0746
G0 Z2.0000
G0 X14.1000 Y84.0746
G1 Z0.1000
G1 X14.1000 Y84.8246
G0 Z2.0000
G0 X13.6500 Y84.8246
G1 Z0.1000
G1 X13.5109 Y84.8026
G1 X13.3855 Y84.7387
G1 X13.2859 Y84.6391
G1 X13.2220 Y84.5137
G1 X13.2000 Y84.3746
G0 Z2.0000
G0 X14.1000 Y84.0746
G1 Z0.1000
G1 X14.1220 Y83.9356
G1 X14.1859 Y83.8101
G1 X14.2855 Y83.7106
G1 X14.4109 Y83.6466
G1 X14.5500 Y83.6246
G1 X14.6891 Y83.6466
G1 X14.8145 Y83.7106
G1 X14.9141 Y83.8101
G1 X14.9780 Y83.9356
G1 X15.0000 Y84.0746

(cogido= ;)
(y sanitizado es'; y en hex_font= #003B')
G0 Z2.0000
G0 X15.0000 Y85.7996
G1 Z0.1000
G1 X15.9000 Y85.4996
G0 Z2.0000
G0 X15.0000 Y85.7996
G1 Z0.1000
G1 X14.8500 Y85.7996
G0 Z2.0000
G0 X13.8000 Y85.7996
G1 Z0.1000
G1 X13.9500 Y85.7996

G0 Z2.0000
(===================================================================)
( Line 6 )
( Grabando: o si, siendo engaado, no respondes con engaos," )
(===================================================================)
(cogido= o)
(y sanitizado es'o y en hex_font= #006F')
G0 Z2.0000
G0 X16.8000 Y-0.0001
G1 Z0.1000
G1 X17.4000 Y-0.0001
G0 Z2.0000
G0 X17.4000 Y1.2000
G1 Z0.1000
G1 X16.8000 Y1.2000
G0 Z2.0000
G0 X17.4000 Y0.0000
G1 Z0.1000
G1 X17.5854 Y0.0294
G1 X17.7527 Y0.1146
G1 X17.8854 Y0.2474
G1 X17.9706 Y0.4146
G1 X18.0000 Y0.6000
G1 X17.9706 Y0.7854
G1 X17.8854 Y0.9527
G1 X17.7527 Y1.0854
G1 X17.5854 Y1.1707
G1 X17.4000 Y1.2000
G0 Z2.0000
G0 X16.8000 Y1.2000
G1 Z0.1000
G1 X16.6146 Y1.1707
G1 X16.4473 Y1.0854
G1 X16.3146 Y0.9527
G1 X16.2294 Y0.7854
G1 X16.2000 Y0.6000
G1 X16.2294 Y0.4146
G1 X16.3146 Y0.2474
G1 X16.4473 Y0.1146
