( Code generated by textogcode )
( by cadenote@hotmail.com <2019> )
( Fontfile: /usr/share/qcad/fonts/normallatin1.cxf )
G17 G21 G40 G90 G64 P0.003 F100
( Line 0 )
( Engraving: "A")
G0 Z2.0000
(cogido= A)
(y sanitizado es'A y en hex_font= #0041')
G0 Z2.0000
G0 X0.0000 Y-0.0000
G1 Z0.1000
G1 X-3.6000 Y1.1999
G1 X0.0000 Y2.4000
G0 Z2.0000
G0 X-1.0000 Y0.3333
G1 Z0.1000
G1 X-1.0000 Y2.0666

G0 Z2.0000
(===================================================================)
( Line 1 )
( Grabando: " )
(===================================================================)
G0 Z2.0000
M2
